(G-CODE GENERATED BY FLATCAM v8.96 - www.flatcam.org - Version Date: 2019/08/23)

(Name: jouleThief-F_Cu.gbr_iso_cnc)
(Type: G-code from Geometry)
(Units: MM)

(Created on Saturday, 09 January 2021 at 17:01)

(TOOL DIAMETER: 0.1 mm)
(Feedrate: 500.0 mm/min)
(Feedrate_Z: 100.0 mm/min)
(Feedrate rapids 79.9998 mm/min)

(Z_Cut: -0.07 mm)
(Z_Move: 1.999 mm)
(Z Toolchange: 12.7 mm)
(X,Y Toolchange: 0.0000, 0.0000 mm)
(Z Start: None mm)
(Z End: 12.7 mm)
(Steps per circle: 128)
(Postprocessor Geometry: default)

(X range:    1.0000 ...   17.4210  mm)
(Y range:    0.0540 ...   11.4621  mm)

(Spindle Speed: 1000 RPM)

G21
G90
G94

G01 F500.00
G00 Z1.9990

M03 S1000
G00 X1.0007 Y4.2359
G01 F100.00
G01 Z-0.0700
G01 F500.00
G01 X1.0000 Y4.2070
G01 X1.0000 Y2.3970
G01 X1.0013 Y2.3538
G01 X1.0041 Y2.3196
G01 X1.0091 Y2.2821
G01 X1.0142 Y2.2533
G01 X1.0238 Y2.2115
G01 X1.0297 Y2.1905
G01 X1.0406 Y2.1561
G01 X1.0546 Y2.1190
G01 X1.0733 Y2.0770
G01 X1.0902 Y2.0443
G01 X1.1076 Y2.0143
G01 X1.1200 Y1.9946
G01 X1.1456 Y1.9579
G01 X1.1703 Y1.9266
G01 X1.1857 Y1.9087
G01 X1.2153 Y1.8773
G01 X1.2467 Y1.8477
G01 X1.2743 Y1.8244
G01 X1.2959 Y1.8076
G01 X1.3326 Y1.7820
G01 X1.3511 Y1.7703
G01 X1.3823 Y1.7522
G01 X1.4150 Y1.7353
G01 X1.4570 Y1.7166
G01 X1.4807 Y1.7074
G01 X1.5149 Y1.6958
G01 X1.5633 Y1.6824
G01 X1.5913 Y1.6762
G01 X1.6201 Y1.6711
G01 X1.6700 Y1.6649
G01 X1.6918 Y1.6633
G01 X1.7279 Y1.6621
G01 X3.3450 Y1.6620
G01 X3.3731 Y1.6626
G01 X3.4129 Y1.6652
G01 X4.1661 Y0.9121
G01 X4.1906 Y0.8891
G01 X4.2250 Y0.8611
G01 X4.2539 Y0.8410
G01 X4.2872 Y0.8211
G01 X4.3114 Y0.8085
G01 X4.3446 Y0.7937
G01 X4.3728 Y0.7831
G01 X4.4099 Y0.7719
G01 X4.4423 Y0.7643
G01 X4.4880 Y0.7573
G01 X4.5144 Y0.7550
G01 X4.5480 Y0.7539
G01 X6.4220 Y0.7539
G01 X6.4223 Y0.3305
G01 X6.4233 Y0.3171
G01 X6.4270 Y0.2904
G01 X6.4332 Y0.2642
G01 X6.4418 Y0.2387
G01 X6.4531 Y0.2134
G01 X6.4598 Y0.2009
G01 X6.4671 Y0.1887
G01 X6.4834 Y0.1655
G01 X6.4924 Y0.1545
G01 X6.5120 Y0.1340
G01 X6.5335 Y0.1154
G01 X6.5449 Y0.1070
G01 X6.5689 Y0.0918
G01 X6.5814 Y0.0851
G01 X6.6067 Y0.0738
G01 X6.6193 Y0.0692
G01 X6.6452 Y0.0618
G01 X6.6717 Y0.0568
G01 X6.6851 Y0.0553
G01 X6.7120 Y0.0540
G01 X7.5255 Y0.0543
G01 X7.5389 Y0.0553
G01 X7.5656 Y0.0590
G01 X7.5788 Y0.0618
G01 X7.6047 Y0.0692
G01 X7.6298 Y0.0790
G01 X7.6426 Y0.0851
G01 X7.6673 Y0.0991
G01 X7.6905 Y0.1154
G01 X7.7120 Y0.1340
G01 X7.7316 Y0.1545
G01 X7.7490 Y0.1769
G01 X7.7642 Y0.2009
G01 X7.7770 Y0.2262
G01 X7.7822 Y0.2387
G01 X7.7908 Y0.2642
G01 X7.7970 Y0.2904
G01 X7.8007 Y0.3171
G01 X7.8020 Y0.3440
G01 X7.8020 Y0.7539
G01 X8.9140 Y0.7539
G01 X8.9476 Y0.7550
G01 X8.9862 Y0.7588
G01 X9.0124 Y0.7630
G01 X9.0383 Y0.7684
G01 X9.0640 Y0.7752
G01 X9.0892 Y0.7831
G01 X9.1174 Y0.7937
G01 X9.1385 Y0.8028
G01 X9.1623 Y0.8144
G01 X9.1855 Y0.8271
G01 X9.2199 Y0.8489
G01 X9.2370 Y0.8611
G01 X9.2621 Y0.8811
G01 X9.2908 Y0.9071
G01 X9.3677 Y0.9839
G01 X9.5476 Y0.9839
G01 X9.5545 Y0.9497
G01 X9.5654 Y0.9105
G01 X9.5740 Y0.8854
G01 X9.5889 Y0.8496
G01 X9.6005 Y0.8258
G01 X9.6206 Y0.7903
G01 X9.6421 Y0.7581
G01 X9.6660 Y0.7273
G01 X9.6847 Y0.7061
G01 X9.7121 Y0.6787
G01 X9.7320 Y0.6612
G01 X9.7641 Y0.6361
G01 X9.7963 Y0.6146
G01 X9.8192 Y0.6012
G01 X9.8556 Y0.5829
G01 X9.8914 Y0.5680
G01 X9.9301 Y0.5553
G01 X9.9744 Y0.5444
G01 X10.0200 Y0.5374
G01 X10.0606 Y0.5344
G01 X10.7494 Y0.5344
G01 X10.7883 Y0.5372
G01 X10.8284 Y0.5431
G01 X10.8681 Y0.5520
G01 X10.9052 Y0.5633
G01 X10.9432 Y0.5779
G01 X10.9782 Y0.5945
G01 X11.0125 Y0.6138
G01 X11.0359 Y0.6290
G01 X11.0529 Y0.6412
G01 X11.0873 Y0.6692
G01 X11.1118 Y0.6922
G01 X11.1428 Y0.7260
G01 X11.1679 Y0.7581
G01 X11.1829 Y0.7800
G01 X11.1968 Y0.8025
G01 X11.2150 Y0.8367
G01 X11.2302 Y0.8706
G01 X11.2446 Y0.9105
G01 X11.2555 Y0.9497
G01 X11.2630 Y0.9877
G01 X11.2680 Y1.0282
G01 X11.2700 Y1.0740
G01 X11.2699 Y1.9811
G01 X11.2680 Y2.0198
G01 X11.2630 Y2.0603
G01 X11.2555 Y2.0983
G01 X11.2487 Y2.1239
G01 X11.2360 Y2.1626
G01 X11.2211 Y2.1984
G01 X11.2028 Y2.2348
G01 X11.1829 Y2.2680
G01 X11.1628 Y2.2969
G01 X11.1348 Y2.3313
G01 X11.1118 Y2.3558
G01 X11.0873 Y2.3788
G01 X11.0529 Y2.4068
G01 X11.0240 Y2.4269
G01 X10.9908 Y2.4468
G01 X10.9544 Y2.4651
G01 X10.9186 Y2.4800
G01 X10.8799 Y2.4927
G01 X10.8356 Y2.5036
G01 X10.8022 Y2.5091
G01 X10.7636 Y2.5129
G01 X10.7300 Y2.5140
G01 X10.0729 Y2.5139
G01 X10.0342 Y2.5120
G01 X9.9937 Y2.5070
G01 X9.9557 Y2.4995
G01 X9.9165 Y2.4886
G01 X9.8766 Y2.4742
G01 X9.8434 Y2.4594
G01 X9.8192 Y2.4468
G01 X9.7860 Y2.4269
G01 X9.7571 Y2.4068
G01 X9.7227 Y2.3788
G01 X9.6982 Y2.3558
G01 X9.6752 Y2.3313
G01 X9.6472 Y2.2969
G01 X9.6271 Y2.2680
G01 X9.6072 Y2.2348
G01 X9.5946 Y2.2106
G01 X9.5798 Y2.1774
G01 X9.5654 Y2.1375
G01 X9.5545 Y2.0983
G01 X9.5476 Y2.0641
G01 X9.1246 Y2.0637
G01 X9.0857 Y2.0609
G01 X9.0577 Y2.0571
G01 X9.0317 Y2.0523
G01 X9.0059 Y2.0461
G01 X8.9688 Y2.0349
G01 X8.9406 Y2.0243
G01 X8.9195 Y2.0152
G01 X8.8832 Y1.9969
G01 X8.8614 Y1.9843
G01 X8.8381 Y1.9691
G01 X8.8069 Y1.9460
G01 X8.7761 Y1.9194
G01 X8.6903 Y1.8341
G01 X7.8020 Y1.8341
G01 X7.8020 Y2.2440
G01 X7.8007 Y2.2709
G01 X7.7970 Y2.2976
G01 X7.7908 Y2.3238
G01 X7.7868 Y2.3367
G01 X7.7770 Y2.3618
G01 X7.7642 Y2.3871
G01 X7.7490 Y2.4111
G01 X7.7316 Y2.4335
G01 X7.7120 Y2.4540
G01 X7.6905 Y2.4726
G01 X7.6673 Y2.4889
G01 X7.6426 Y2.5029
G01 X7.6298 Y2.5090
G01 X7.6047 Y2.5188
G01 X7.5788 Y2.5262
G01 X7.5656 Y2.5290
G01 X7.5389 Y2.5327
G01 X7.5255 Y2.5337
G01 X6.7120 Y2.5340
G01 X6.6851 Y2.5327
G01 X6.6584 Y2.5290
G01 X6.6452 Y2.5262
G01 X6.6193 Y2.5188
G01 X6.6067 Y2.5142
G01 X6.5814 Y2.5029
G01 X6.5689 Y2.4962
G01 X6.5567 Y2.4889
G01 X6.5335 Y2.4726
G01 X6.5120 Y2.4540
G01 X6.5020 Y2.4440
G01 X6.4834 Y2.4225
G01 X6.4750 Y2.4111
G01 X6.4598 Y2.3871
G01 X6.4531 Y2.3746
G01 X6.4418 Y2.3493
G01 X6.4332 Y2.3238
G01 X6.4298 Y2.3108
G01 X6.4248 Y2.2843
G01 X6.4223 Y2.2575
G01 X6.4220 Y1.8341
G01 X4.7717 Y1.8341
G01 X4.0800 Y2.5259
G01 X4.0800 Y4.2070
G01 X4.0787 Y4.2502
G01 X4.0759 Y4.2844
G01 X4.0709 Y4.3219
G01 X4.0644 Y4.3574
G01 X4.0562 Y4.3925
G01 X4.0503 Y4.4135
G01 X4.0394 Y4.4479
G01 X4.0254 Y4.4850
G01 X4.0063 Y4.5276
G01 X3.9965 Y4.5472
G01 X3.9790 Y4.5787
G01 X3.9600 Y4.6094
G01 X3.9344 Y4.6461
G01 X3.9097 Y4.6774
G01 X3.8943 Y4.6953
G01 X3.8647 Y4.7267
G01 X3.8333 Y4.7563
G01 X3.8057 Y4.7796
G01 X3.7841 Y4.7964
G01 X3.7474 Y4.8220
G01 X3.7289 Y4.8337
G01 X3.6977 Y4.8518
G01 X3.6650 Y4.8687
G01 X3.6230 Y4.8874
G01 X3.5993 Y4.8966
G01 X3.5651 Y4.9082
G01 X3.5167 Y4.9216
G01 X3.4887 Y4.9278
G01 X3.4599 Y4.9329
G01 X3.4100 Y4.9391
G01 X3.3740 Y4.9414
G01 X3.3450 Y4.9420
G01 X1.7279 Y4.9419
G01 X1.7060 Y4.9414
G01 X1.6700 Y4.9391
G01 X1.6342 Y4.9350
G01 X1.5913 Y4.9278
G01 X1.5495 Y4.9182
G01 X1.5285 Y4.9123
G01 X1.4941 Y4.9014
G01 X1.4472 Y4.8832
G01 X1.4150 Y4.8687
G01 X1.3823 Y4.8518
G01 X1.3523 Y4.8344
G01 X1.3326 Y4.8220
G01 X1.2959 Y4.7964
G01 X1.2646 Y4.7717
G01 X1.2467 Y4.7563
G01 X1.2153 Y4.7267
G01 X1.1952 Y4.7058
G01 X1.1624 Y4.6677
G01 X1.1456 Y4.6461
G01 X1.1279 Y4.6212
G01 X1.1010 Y4.5787
G01 X1.0835 Y4.5472
G01 X1.0733 Y4.5270
G01 X1.0588 Y4.4948
G01 X1.0454 Y4.4613
G01 X1.0297 Y4.4135
G01 X1.0204 Y4.3787
G01 X1.0142 Y4.3507
G01 X1.0091 Y4.3219
G01 X1.0041 Y4.2844
G01 X1.0007 Y4.2359
G00 Z1.9990
G00 X1.0607 Y4.2345
G01 F100.00
G01 Z-0.0700
G01 F500.00
G01 X1.0600 Y4.2070
G01 X1.0600 Y2.3970
G01 X1.0612 Y2.3582
G01 X1.0637 Y2.3266
G01 X1.0682 Y2.2924
G01 X1.0730 Y2.2651
G01 X1.0817 Y2.2275
G01 X1.0875 Y2.2065
G01 X1.0976 Y2.1749
G01 X1.1103 Y2.1413
G01 X1.1270 Y2.1039
G01 X1.1424 Y2.0739
G01 X1.1584 Y2.0461
G01 X1.1707 Y2.0267
G01 X1.1963 Y1.9904
G01 X1.2159 Y1.9655
G01 X1.2311 Y1.9479
G01 X1.2577 Y1.9197
G01 X1.2859 Y1.8931
G01 X1.3025 Y1.8789
G01 X1.3284 Y1.8583
G01 X1.3647 Y1.8327
G01 X1.3832 Y1.8210
G01 X1.4119 Y1.8044
G01 X1.4419 Y1.7890
G01 X1.4793 Y1.7723
G01 X1.5023 Y1.7634
G01 X1.5337 Y1.7528
G01 X1.5765 Y1.7409
G01 X1.6031 Y1.7350
G01 X1.6304 Y1.7302
G01 X1.6745 Y1.7248
G01 X1.6962 Y1.7232
G01 X1.7294 Y1.7221
G01 X3.3450 Y1.7220
G01 X3.3826 Y1.7231
G01 X3.4136 Y1.7255
G01 X3.4349 Y1.7281
G01 X4.2085 Y0.9545
G01 X4.2298 Y0.9345
G01 X4.2610 Y0.9091
G01 X4.2860 Y0.8917
G01 X4.3167 Y0.8733
G01 X4.3382 Y0.8622
G01 X4.3669 Y0.8494
G01 X4.3916 Y0.8401
G01 X4.4259 Y0.8297
G01 X4.4541 Y0.8231
G01 X4.4953 Y0.8168
G01 X4.5188 Y0.8148
G01 X4.5480 Y0.8139
G01 X6.4820 Y0.8139
G01 X6.4820 Y0.3440
G01 X6.4842 Y0.3120
G01 X6.4909 Y0.2807
G01 X6.5018 Y0.2506
G01 X6.5120 Y0.2305
G01 X6.5178 Y0.2208
G01 X6.5240 Y0.2115
G01 X6.5379 Y0.1937
G01 X6.5454 Y0.1854
G01 X6.5617 Y0.1699
G01 X6.5795 Y0.1560
G01 X6.5888 Y0.1498
G01 X6.6084 Y0.1386
G01 X6.6186 Y0.1338
G01 X6.6487 Y0.1229
G01 X6.6695 Y0.1180
G01 X6.6907 Y0.1150
G01 X6.7120 Y0.1140
G01 X7.5227 Y0.1142
G01 X7.5545 Y0.1180
G01 X7.5855 Y0.1261
G01 X7.6054 Y0.1338
G01 X7.6156 Y0.1386
G01 X7.6352 Y0.1498
G01 X7.6536 Y0.1627
G01 X7.6706 Y0.1774
G01 X7.6861 Y0.1937
G01 X7.7000 Y0.2115
G01 X7.7062 Y0.2208
G01 X7.7174 Y0.2404
G01 X7.7263 Y0.2605
G01 X7.7331 Y0.2807
G01 X7.7398 Y0.3120
G01 X7.7420 Y0.3440
G01 X7.7420 Y0.8139
G01 X8.9140 Y0.8139
G01 X8.9432 Y0.8148
G01 X8.9789 Y0.8183
G01 X9.0021 Y0.8221
G01 X9.0252 Y0.8270
G01 X9.0480 Y0.8330
G01 X9.0704 Y0.8401
G01 X9.0951 Y0.8494
G01 X9.1238 Y0.8622
G01 X9.1453 Y0.8733
G01 X9.1647 Y0.8846
G01 X9.2010 Y0.9091
G01 X9.2322 Y0.9345
G01 X9.2535 Y0.9545
G01 X9.3429 Y1.0439
G01 X9.6010 Y1.0439
G01 X9.6044 Y1.0092
G01 X9.6093 Y0.9801
G01 X9.6191 Y0.9401
G01 X9.6300 Y0.9070
G01 X9.6437 Y0.8739
G01 X9.6594 Y0.8428
G01 X9.6778 Y0.8121
G01 X9.6912 Y0.7926
G01 X9.7117 Y0.7662
G01 X9.7406 Y0.7346
G01 X9.7619 Y0.7146
G01 X9.7896 Y0.6919
G01 X9.8087 Y0.6781
G01 X9.8381 Y0.6594
G01 X9.8703 Y0.6423
G01 X9.9016 Y0.6284
G01 X9.9236 Y0.6202
G01 X9.9461 Y0.6131
G01 X9.9861 Y0.6033
G01 X10.0273 Y0.5969
G01 X10.0621 Y0.5944
G01 X10.7479 Y0.5944
G01 X10.7813 Y0.5968
G01 X10.8181 Y0.6022
G01 X10.8521 Y0.6098
G01 X10.8864 Y0.6202
G01 X10.9189 Y0.6328
G01 X10.9513 Y0.6481
G01 X10.9806 Y0.6647
G01 X11.0169 Y0.6892
G01 X11.0481 Y0.7146
G01 X11.0694 Y0.7346
G01 X11.0974 Y0.7652
G01 X11.1188 Y0.7926
G01 X11.1322 Y0.8121
G01 X11.1446 Y0.8321
G01 X11.1614 Y0.8637
G01 X11.1745 Y0.8929
G01 X11.1876 Y0.9293
G01 X11.1969 Y0.9629
G01 X11.2039 Y0.9980
G01 X11.2082 Y1.0326
G01 X11.2100 Y1.0740
G01 X11.2099 Y1.9796
G01 X11.2091 Y2.0032
G01 X11.2056 Y2.0388
G01 X11.2007 Y2.0679
G01 X11.1942 Y2.0961
G01 X11.1838 Y2.1304
G01 X11.1712 Y2.1629
G01 X11.1559 Y2.1953
G01 X11.1393 Y2.2246
G01 X11.1188 Y2.2554
G01 X11.0983 Y2.2818
G01 X11.0734 Y2.3094
G01 X11.0481 Y2.3334
G01 X11.0169 Y2.3588
G01 X10.9919 Y2.3762
G01 X10.9612 Y2.3946
G01 X10.9301 Y2.4103
G01 X10.8970 Y2.4240
G01 X10.8639 Y2.4349
G01 X10.8239 Y2.4447
G01 X10.7948 Y2.4496
G01 X10.7592 Y2.4531
G01 X10.7300 Y2.4540
G01 X10.0744 Y2.4539
G01 X10.0386 Y2.4522
G01 X10.0040 Y2.4479
G01 X9.9689 Y2.4409
G01 X9.9353 Y2.4316
G01 X9.8989 Y2.4185
G01 X9.8703 Y2.4057
G01 X9.8381 Y2.3886
G01 X9.8087 Y2.3699
G01 X9.7799 Y2.3486
G01 X9.7535 Y2.3258
G01 X9.7282 Y2.3005
G01 X9.7054 Y2.2741
G01 X9.6841 Y2.2453
G01 X9.6654 Y2.2159
G01 X9.6483 Y2.1837
G01 X9.6344 Y2.1524
G01 X9.6224 Y2.1187
G01 X9.6131 Y2.0851
G01 X9.6061 Y2.0500
G01 X9.6029 Y2.0267
G01 X9.6010 Y2.0041
G01 X9.1261 Y2.0038
G01 X9.0927 Y2.0014
G01 X9.0680 Y1.9980
G01 X9.0501 Y1.9949
G01 X9.0219 Y1.9883
G01 X8.9876 Y1.9779
G01 X8.9629 Y1.9686
G01 X8.9439 Y1.9604
G01 X8.9127 Y1.9447
G01 X8.8933 Y1.9334
G01 X8.8726 Y1.9200
G01 X8.8438 Y1.8987
G01 X8.8174 Y1.8759
G01 X8.7151 Y1.7741
G01 X7.7420 Y1.7741
G01 X7.7420 Y2.2440
G01 X7.7398 Y2.2760
G01 X7.7331 Y2.3073
G01 X7.7263 Y2.3275
G01 X7.7174 Y2.3476
G01 X7.7062 Y2.3672
G01 X7.6933 Y2.3856
G01 X7.6861 Y2.3943
G01 X7.6706 Y2.4106
G01 X7.6536 Y2.4253
G01 X7.6352 Y2.4382
G01 X7.6156 Y2.4494
G01 X7.6054 Y2.4542
G01 X7.5855 Y2.4619
G01 X7.5545 Y2.4700
G01 X7.5227 Y2.4738
G01 X6.7120 Y2.4740
G01 X6.6907 Y2.4730
G01 X6.6695 Y2.4700
G01 X6.6487 Y2.4651
G01 X6.6186 Y2.4542
G01 X6.6084 Y2.4494
G01 X6.5888 Y2.4382
G01 X6.5704 Y2.4253
G01 X6.5617 Y2.4181
G01 X6.5534 Y2.4106
G01 X6.5379 Y2.3943
G01 X6.5307 Y2.3856
G01 X6.5178 Y2.3672
G01 X6.5066 Y2.3476
G01 X6.5018 Y2.3374
G01 X6.4909 Y2.3073
G01 X6.4842 Y2.2760
G01 X6.4820 Y2.2440
G01 X6.4820 Y1.7741
G01 X4.7469 Y1.7741
G01 X4.0200 Y2.5010
G01 X4.0200 Y4.2070
G01 X4.0188 Y4.2458
G01 X4.0163 Y4.2774
G01 X4.0118 Y4.3116
G01 X4.0070 Y4.3389
G01 X3.9983 Y4.3765
G01 X3.9925 Y4.3975
G01 X3.9824 Y4.4291
G01 X3.9697 Y4.4627
G01 X3.9530 Y4.5001
G01 X3.9376 Y4.5301
G01 X3.9216 Y4.5579
G01 X3.9093 Y4.5773
G01 X3.8837 Y4.6136
G01 X3.8641 Y4.6385
G01 X3.8489 Y4.6561
G01 X3.8223 Y4.6843
G01 X3.7941 Y4.7109
G01 X3.7775 Y4.7251
G01 X3.7516 Y4.7457
G01 X3.7153 Y4.7713
G01 X3.6968 Y4.7830
G01 X3.6681 Y4.7996
G01 X3.6381 Y4.8150
G01 X3.6007 Y4.8317
G01 X3.5777 Y4.8406
G01 X3.5463 Y4.8512
G01 X3.5035 Y4.8631
G01 X3.4769 Y4.8690
G01 X3.4496 Y4.8738
G01 X3.4055 Y4.8792
G01 X3.3725 Y4.8814
G01 X3.3450 Y4.8820
G01 X1.7350 Y4.8820
G01 X1.6962 Y4.8808
G01 X1.6646 Y4.8783
G01 X1.6304 Y4.8738
G01 X1.6031 Y4.8690
G01 X1.5765 Y4.8631
G01 X1.5445 Y4.8545
G01 X1.5129 Y4.8444
G01 X1.4715 Y4.8284
G01 X1.4419 Y4.8150
G01 X1.4119 Y4.7996
G01 X1.3841 Y4.7836
G01 X1.3647 Y4.7713
G01 X1.3284 Y4.7457
G01 X1.3035 Y4.7261
G01 X1.2859 Y4.7109
G01 X1.2577 Y4.6843
G01 X1.2387 Y4.6644
G01 X1.2097 Y4.6308
G01 X1.1936 Y4.6101
G01 X1.1770 Y4.5867
G01 X1.1532 Y4.5491
G01 X1.1371 Y4.5202
G01 X1.1270 Y4.5001
G01 X1.1136 Y4.4705
G01 X1.1014 Y4.4397
G01 X1.0875 Y4.3975
G01 X1.0789 Y4.3655
G01 X1.0730 Y4.3389
G01 X1.0682 Y4.3116
G01 X1.0637 Y4.2774
G01 X1.0607 Y4.2345
G00 Z1.9990
G00 X1.1207 Y4.2330
G01 F100.00
G01 Z-0.0700
G01 F500.00
G01 X1.1200 Y4.2070
G01 X1.1200 Y2.3970
G01 X1.1206 Y2.3710
G01 X1.1226 Y2.3409
G01 X1.1261 Y2.3109
G01 X1.1311 Y2.2811
G01 X1.1375 Y2.2516
G01 X1.1477 Y2.2145
G01 X1.1574 Y2.1859
G01 X1.1660 Y2.1636
G01 X1.1807 Y2.1307
G01 X1.1946 Y2.1034
G01 X1.2093 Y2.0780
G01 X1.2214 Y2.0588
G01 X1.2436 Y2.0273
G01 X1.2616 Y2.0044
G01 X1.2766 Y1.9871
G01 X1.3001 Y1.9621
G01 X1.3251 Y1.9386
G01 X1.3417 Y1.9243
G01 X1.3653 Y1.9056
G01 X1.3968 Y1.8834
G01 X1.4153 Y1.8717
G01 X1.4414 Y1.8566
G01 X1.4687 Y1.8427
G01 X1.5016 Y1.8280
G01 X1.5239 Y1.8194
G01 X1.5525 Y1.8097
G01 X1.5896 Y1.7995
G01 X1.6148 Y1.7939
G01 X1.6406 Y1.7893
G01 X1.6789 Y1.7846
G01 X1.7090 Y1.7826
G01 X1.7350 Y1.7820
G01 X3.3450 Y1.7820
G01 X3.3702 Y1.7826
G01 X3.3994 Y1.7844
G01 X3.4285 Y1.7877
G01 X3.4557 Y1.7921
G01 X4.2509 Y0.9969
G01 X4.2690 Y0.9799
G01 X4.2970 Y0.9571
G01 X4.3181 Y0.9424
G01 X4.3463 Y0.9255
G01 X4.3650 Y0.9158
G01 X4.3891 Y0.9051
G01 X4.4104 Y0.8971
G01 X4.4419 Y0.8875
G01 X4.4659 Y0.8820
G01 X4.5027 Y0.8764
G01 X4.5232 Y0.8746
G01 X4.5480 Y0.8739
G01 X6.5420 Y0.8739
G01 X6.5420 Y0.3440
G01 X6.5427 Y0.3282
G01 X6.5466 Y0.3049
G01 X6.5509 Y0.2897
G01 X6.5567 Y0.2750
G01 X6.5684 Y0.2530
G01 X6.5833 Y0.2329
G01 X6.6009 Y0.2153
G01 X6.6210 Y0.2004
G01 X6.6430 Y0.1887
G01 X6.6652 Y0.1806
G01 X6.6806 Y0.1769
G01 X6.6962 Y0.1747
G01 X6.7120 Y0.1740
G01 X7.5199 Y0.1742
G01 X7.5434 Y0.1769
G01 X7.5663 Y0.1829
G01 X7.5886 Y0.1922
G01 X7.6100 Y0.2051
G01 X7.6231 Y0.2153
G01 X7.6407 Y0.2329
G01 X7.6509 Y0.2460
G01 X7.6599 Y0.2601
G01 X7.6673 Y0.2750
G01 X7.6731 Y0.2897
G01 X7.6774 Y0.3049
G01 X7.6813 Y0.3282
G01 X7.6820 Y0.3440
G01 X7.6820 Y0.8739
G01 X8.9140 Y0.8739
G01 X8.9388 Y0.8746
G01 X8.9583 Y0.8762
G01 X8.9798 Y0.8791
G01 X9.0000 Y0.8828
G01 X9.0201 Y0.8875
G01 X9.0516 Y0.8971
G01 X9.0729 Y0.9051
G01 X9.0970 Y0.9158
G01 X9.1157 Y0.9255
G01 X9.1335 Y0.9358
G01 X9.1650 Y0.9571
G01 X9.1829 Y0.9712
G01 X9.1992 Y0.9855
G01 X9.3180 Y1.1039
G01 X9.6600 Y1.1039
G01 X9.6604 Y1.0576
G01 X9.6617 Y1.0370
G01 X9.6652 Y1.0083
G01 X9.6716 Y0.9760
G01 X9.6793 Y0.9481
G01 X9.6912 Y0.9152
G01 X9.7077 Y0.8797
G01 X9.7215 Y0.8552
G01 X9.7402 Y0.8272
G01 X9.7580 Y0.8044
G01 X9.7830 Y0.7770
G01 X9.8104 Y0.7520
G01 X9.8332 Y0.7342
G01 X9.8605 Y0.7159
G01 X9.8857 Y0.7017
G01 X9.9212 Y0.6852
G01 X9.9541 Y0.6733
G01 X9.9739 Y0.6677
G01 X9.9940 Y0.6629
G01 X10.0143 Y0.6592
G01 X10.0347 Y0.6565
G01 X10.0636 Y0.6544
G01 X10.7342 Y0.6541
G01 X10.7670 Y0.6557
G01 X10.7957 Y0.6592
G01 X10.8280 Y0.6656
G01 X10.8479 Y0.6709
G01 X10.8675 Y0.6772
G01 X10.8946 Y0.6876
G01 X10.9243 Y0.7017
G01 X10.9488 Y0.7155
G01 X10.9809 Y0.7372
G01 X11.0089 Y0.7600
G01 X11.0270 Y0.7770
G01 X11.0520 Y0.8044
G01 X11.0698 Y0.8272
G01 X11.0881 Y0.8545
G01 X11.1023 Y0.8797
G01 X11.1188 Y0.9152
G01 X11.1307 Y0.9481
G01 X11.1384 Y0.9760
G01 X11.1448 Y1.0083
G01 X11.1483 Y1.0370
G01 X11.1500 Y1.0740
G01 X11.1500 Y1.9740
G01 X11.1492 Y1.9988
G01 X11.1476 Y2.0183
G01 X11.1448 Y2.0397
G01 X11.1384 Y2.0720
G01 X11.1307 Y2.0999
G01 X11.1188 Y2.1328
G01 X11.1023 Y2.1683
G01 X11.0885 Y2.1928
G01 X11.0698 Y2.2208
G01 X11.0527 Y2.2428
G01 X11.0299 Y2.2680
G01 X11.0089 Y2.2880
G01 X10.9809 Y2.3108
G01 X10.9598 Y2.3255
G01 X10.9316 Y2.3424
G01 X10.9058 Y2.3554
G01 X10.8888 Y2.3628
G01 X10.8675 Y2.3708
G01 X10.8361 Y2.3803
G01 X10.8078 Y2.3867
G01 X10.7753 Y2.3915
G01 X10.7548 Y2.3932
G01 X10.7300 Y2.3940
G01 X10.0636 Y2.3936
G01 X10.0357 Y2.3916
G01 X9.9979 Y2.3859
G01 X9.9739 Y2.3803
G01 X9.9425 Y2.3708
G01 X9.9154 Y2.3604
G01 X9.8857 Y2.3463
G01 X9.8677 Y2.3363
G01 X9.8502 Y2.3255
G01 X9.8265 Y2.3088
G01 X9.8112 Y2.2967
G01 X9.7949 Y2.2824
G01 X9.7716 Y2.2591
G01 X9.7580 Y2.2436
G01 X9.7452 Y2.2275
G01 X9.7285 Y2.2038
G01 X9.7116 Y2.1756
G01 X9.6986 Y2.1498
G01 X9.6912 Y2.1328
G01 X9.6832 Y2.1115
G01 X9.6737 Y2.0801
G01 X9.6673 Y2.0518
G01 X9.6625 Y2.0193
G01 X9.6604 Y1.9904
G01 X9.6600 Y1.9441
G01 X9.1398 Y1.9441
G01 X9.1192 Y1.9434
G01 X9.0987 Y1.9416
G01 X9.0782 Y1.9389
G01 X9.0460 Y1.9325
G01 X9.0261 Y1.9272
G01 X9.0064 Y1.9209
G01 X8.9851 Y1.9129
G01 X8.9682 Y1.9055
G01 X8.9497 Y1.8964
G01 X8.9316 Y1.8865
G01 X8.9141 Y1.8756
G01 X8.8971 Y1.8639
G01 X8.8751 Y1.8468
G01 X8.8499 Y1.8240
G01 X8.7400 Y1.7141
G01 X7.6820 Y1.7141
G01 X7.6820 Y2.2440
G01 X7.6813 Y2.2598
G01 X7.6791 Y2.2754
G01 X7.6731 Y2.2983
G01 X7.6673 Y2.3130
G01 X7.6599 Y2.3279
G01 X7.6460 Y2.3486
G01 X7.6351 Y2.3612
G01 X7.6231 Y2.3727
G01 X7.6100 Y2.3829
G01 X7.5886 Y2.3958
G01 X7.5663 Y2.4051
G01 X7.5434 Y2.4111
G01 X7.5199 Y2.4138
G01 X6.7120 Y2.4140
G01 X6.6962 Y2.4133
G01 X6.6806 Y2.4111
G01 X6.6652 Y2.4074
G01 X6.6430 Y2.3993
G01 X6.6210 Y2.3876
G01 X6.6009 Y2.3727
G01 X6.5833 Y2.3551
G01 X6.5684 Y2.3350
G01 X6.5567 Y2.3130
G01 X6.5509 Y2.2983
G01 X6.5466 Y2.2831
G01 X6.5427 Y2.2598
G01 X6.5420 Y2.2440
G01 X6.5420 Y1.7141
G01 X4.7220 Y1.7141
G01 X3.9600 Y2.4761
G01 X3.9600 Y4.2070
G01 X3.9594 Y4.2330
G01 X3.9574 Y4.2631
G01 X3.9539 Y4.2931
G01 X3.9489 Y4.3229
G01 X3.9425 Y4.3524
G01 X3.9323 Y4.3895
G01 X3.9226 Y4.4181
G01 X3.9140 Y4.4404
G01 X3.8993 Y4.4733
G01 X3.8854 Y4.5006
G01 X3.8707 Y4.5260
G01 X3.8586 Y4.5452
G01 X3.8364 Y4.5767
G01 X3.8184 Y4.5996
G01 X3.8034 Y4.6169
G01 X3.7799 Y4.6419
G01 X3.7549 Y4.6654
G01 X3.7383 Y4.6797
G01 X3.7147 Y4.6984
G01 X3.6832 Y4.7206
G01 X3.6647 Y4.7323
G01 X3.6386 Y4.7474
G01 X3.6113 Y4.7613
G01 X3.5784 Y4.7760
G01 X3.5561 Y4.7846
G01 X3.5275 Y4.7943
G01 X3.4904 Y4.8045
G01 X3.4652 Y4.8101
G01 X3.4394 Y4.8147
G01 X3.4011 Y4.8194
G01 X3.3710 Y4.8214
G01 X3.3450 Y4.8220
G01 X1.7350 Y4.8220
G01 X1.7007 Y4.8210
G01 X1.6716 Y4.8187
G01 X1.6406 Y4.8147
G01 X1.6148 Y4.8101
G01 X1.5896 Y4.8045
G01 X1.5605 Y4.7967
G01 X1.5318 Y4.7874
G01 X1.4958 Y4.7735
G01 X1.4687 Y4.7613
G01 X1.4414 Y4.7474
G01 X1.4160 Y4.7327
G01 X1.3968 Y4.7206
G01 X1.3653 Y4.6984
G01 X1.3424 Y4.6804
G01 X1.3251 Y4.6654
G01 X1.3001 Y4.6419
G01 X1.2822 Y4.6231
G01 X1.2570 Y4.5939
G01 X1.2416 Y4.5741
G01 X1.2260 Y4.5521
G01 X1.2054 Y4.5196
G01 X1.1907 Y4.4932
G01 X1.1807 Y4.4733
G01 X1.1685 Y4.4462
G01 X1.1574 Y4.4181
G01 X1.1453 Y4.3815
G01 X1.1375 Y4.3524
G01 X1.1319 Y4.3272
G01 X1.1273 Y4.3014
G01 X1.1233 Y4.2704
G01 X1.1207 Y4.2330
G00 Z1.9990
G00 X1.1806 Y4.2315
G01 F100.00
G01 Z-0.0700
G01 F500.00
G01 X1.1800 Y4.2070
G01 X1.1800 Y2.3970
G01 X1.1806 Y2.3725
G01 X1.1824 Y2.3453
G01 X1.1864 Y2.3129
G01 X1.1907 Y2.2886
G01 X1.1960 Y2.2648
G01 X1.2047 Y2.2333
G01 X1.2116 Y2.2126
G01 X1.2212 Y2.1871
G01 X1.2322 Y2.1622
G01 X1.2468 Y2.1330
G01 X1.2604 Y2.1094
G01 X1.2721 Y2.0909
G01 X1.2876 Y2.0686
G01 X1.3073 Y2.0434
G01 X1.3256 Y2.0223
G01 X1.3426 Y2.0046
G01 X1.3603 Y1.9876
G01 X1.3850 Y1.9663
G01 X1.4039 Y1.9516
G01 X1.4244 Y1.9371
G01 X1.4474 Y1.9224
G01 X1.4758 Y1.9063
G01 X1.4955 Y1.8963
G01 X1.5201 Y1.8853
G01 X1.5506 Y1.8736
G01 X1.5765 Y1.8651
G01 X1.6028 Y1.8580
G01 X1.6266 Y1.8527
G01 X1.6509 Y1.8484
G01 X1.6833 Y1.8444
G01 X1.7105 Y1.8426
G01 X1.7350 Y1.8420
G01 X3.3450 Y1.8420
G01 X3.3740 Y1.8428
G01 X3.4004 Y1.8448
G01 X3.4214 Y1.8473
G01 X3.4475 Y1.8516
G01 X3.4752 Y1.8575
G01 X4.3042 Y1.0290
G01 X4.3216 Y1.0139
G01 X4.3457 Y0.9961
G01 X4.3652 Y0.9838
G01 X4.3916 Y0.9696
G01 X4.4114 Y0.9608
G01 X4.4292 Y0.9540
G01 X4.4579 Y0.9454
G01 X4.4804 Y0.9403
G01 X4.5154 Y0.9354
G01 X4.5480 Y0.9339
G01 X6.6020 Y0.9339
G01 X6.6020 Y0.3440
G01 X6.6031 Y0.3287
G01 X6.6078 Y0.3088
G01 X6.6138 Y0.2945
G01 X6.6191 Y0.2851
G01 X6.6253 Y0.2763
G01 X6.6361 Y0.2643
G01 X6.6443 Y0.2573
G01 X6.6531 Y0.2511
G01 X6.6673 Y0.2435
G01 X6.6867 Y0.2370
G01 X6.7018 Y0.2345
G01 X7.5171 Y0.2341
G01 X7.5373 Y0.2370
G01 X7.5520 Y0.2415
G01 X7.5663 Y0.2483
G01 X7.5797 Y0.2573
G01 X7.5917 Y0.2681
G01 X7.5987 Y0.2763
G01 X7.6049 Y0.2851
G01 X7.6102 Y0.2945
G01 X7.6178 Y0.3137
G01 X7.6201 Y0.3237
G01 X7.6219 Y0.3389
G01 X7.6220 Y0.9339
G01 X8.9140 Y0.9339
G01 X8.9513 Y0.9358
G01 X8.9869 Y0.9414
G01 X9.0041 Y0.9454
G01 X9.0328 Y0.9540
G01 X9.0506 Y0.9608
G01 X9.0701 Y0.9695
G01 X9.0861 Y0.9777
G01 X9.1118 Y0.9931
G01 X9.1404 Y1.0139
G01 X9.1578 Y1.0290
G01 X9.2932 Y1.1639
G01 X9.7200 Y1.1639
G01 X9.7203 Y1.0590
G01 X9.7235 Y1.0239
G01 X9.7275 Y1.0011
G01 X9.7347 Y0.9721
G01 X9.7420 Y0.9502
G01 X9.7556 Y0.9179
G01 X9.7724 Y0.8871
G01 X9.7893 Y0.8617
G01 X9.8030 Y0.8441
G01 X9.8254 Y0.8194
G01 X9.8496 Y0.7975
G01 X9.8778 Y0.7762
G01 X9.9079 Y0.7578
G01 X9.9285 Y0.7474
G01 X9.9613 Y0.7342
G01 X9.9952 Y0.7242
G01 X10.0299 Y0.7175
G01 X10.0650 Y0.7143
G01 X10.7300 Y0.7140
G01 X10.7626 Y0.7155
G01 X10.7855 Y0.7183
G01 X10.8148 Y0.7242
G01 X10.8371 Y0.7303
G01 X10.8665 Y0.7409
G01 X10.8973 Y0.7553
G01 X10.9169 Y0.7664
G01 X10.9423 Y0.7833
G01 X10.9599 Y0.7970
G01 X10.9846 Y0.8194
G01 X10.9985 Y0.8343
G01 X11.0188 Y0.8591
G01 X11.0374 Y0.8866
G01 X11.0487 Y0.9067
G01 X11.0615 Y0.9338
G01 X11.0698 Y0.9553
G01 X11.0798 Y0.9892
G01 X11.0857 Y1.0185
G01 X11.0885 Y1.0414
G01 X11.0900 Y1.0740
G01 X11.0900 Y1.9740
G01 X11.0880 Y2.0113
G01 X11.0825 Y2.0469
G01 X11.0753 Y2.0759
G01 X11.0680 Y2.0978
G01 X11.0566 Y2.1255
G01 X11.0462 Y2.1461
G01 X11.0308 Y2.1717
G01 X11.0175 Y2.1906
G01 X10.9949 Y2.2177
G01 X10.9737 Y2.2389
G01 X10.9563 Y2.2540
G01 X10.9322 Y2.2718
G01 X10.9021 Y2.2902
G01 X10.8815 Y2.3006
G01 X10.8487 Y2.3138
G01 X10.8201 Y2.3225
G01 X10.7976 Y2.3276
G01 X10.7680 Y2.3320
G01 X10.7300 Y2.3340
G01 X10.0773 Y2.3340
G01 X10.0474 Y2.3325
G01 X10.0245 Y2.3297
G01 X9.9952 Y2.3238
G01 X9.9613 Y2.3138
G01 X9.9285 Y2.3006
G01 X9.9079 Y2.2902
G01 X9.8778 Y2.2718
G01 X9.8501 Y2.2510
G01 X9.8254 Y2.2286
G01 X9.8035 Y2.2044
G01 X9.7822 Y2.1762
G01 X9.7638 Y2.1461
G01 X9.7534 Y2.1255
G01 X9.7402 Y2.0927
G01 X9.7302 Y2.0588
G01 X9.7243 Y2.0295
G01 X9.7215 Y2.0066
G01 X9.7203 Y1.9890
G01 X9.7200 Y1.8841
G01 X9.1413 Y1.8841
G01 X9.1060 Y1.8821
G01 X9.0885 Y1.8798
G01 X9.0591 Y1.8740
G01 X9.0252 Y1.8640
G01 X8.9925 Y1.8507
G01 X8.9612 Y1.8342
G01 X8.9462 Y1.8249
G01 X8.9290 Y1.8129
G01 X8.9135 Y1.8006
G01 X8.8913 Y1.7805
G01 X8.7648 Y1.6541
G01 X7.6220 Y1.6541
G01 X7.6219 Y2.2491
G01 X7.6201 Y2.2643
G01 X7.6178 Y2.2743
G01 X7.6102 Y2.2935
G01 X7.6049 Y2.3029
G01 X7.5953 Y2.3159
G01 X7.5879 Y2.3237
G01 X7.5797 Y2.3307
G01 X7.5663 Y2.3397
G01 X7.5520 Y2.3465
G01 X7.5323 Y2.3521
G01 X7.5171 Y2.3539
G01 X6.7018 Y2.3535
G01 X6.6817 Y2.3498
G01 X6.6673 Y2.3445
G01 X6.6531 Y2.3369
G01 X6.6443 Y2.3307
G01 X6.6361 Y2.3237
G01 X6.6287 Y2.3159
G01 X6.6221 Y2.3074
G01 X6.6138 Y2.2935
G01 X6.6078 Y2.2792
G01 X6.6031 Y2.2593
G01 X6.6020 Y2.2440
G01 X6.6020 Y1.6541
G01 X4.6972 Y1.6541
G01 X3.9000 Y2.4513
G01 X3.9000 Y4.2070
G01 X3.8992 Y4.2369
G01 X3.8971 Y4.2634
G01 X3.8936 Y4.2911
G01 X3.8893 Y4.3154
G01 X3.8827 Y4.3445
G01 X3.8753 Y4.3707
G01 X3.8666 Y4.3965
G01 X3.8567 Y4.4219
G01 X3.8455 Y4.4467
G01 X3.8357 Y4.4662
G01 X3.8224 Y4.4900
G01 X3.8079 Y4.5131
G01 X3.7904 Y4.5381
G01 X3.7727 Y4.5606
G01 X3.7580 Y4.5777
G01 X3.7374 Y4.5994
G01 X3.7197 Y4.6164
G01 X3.6992 Y4.6343
G01 X3.6761 Y4.6524
G01 X3.6511 Y4.6699
G01 X3.6326 Y4.6816
G01 X3.6090 Y4.6952
G01 X3.5798 Y4.7098
G01 X3.5561 Y4.7203
G01 X3.5345 Y4.7286
G01 X3.5035 Y4.7389
G01 X3.4772 Y4.7460
G01 X3.4534 Y4.7513
G01 X3.4238 Y4.7564
G01 X3.4021 Y4.7590
G01 X3.3749 Y4.7612
G01 X3.3450 Y4.7620
G01 X1.7350 Y4.7620
G01 X1.7105 Y4.7614
G01 X1.6833 Y4.7596
G01 X1.6509 Y4.7556
G01 X1.6266 Y4.7513
G01 X1.6028 Y4.7460
G01 X1.5765 Y4.7389
G01 X1.5506 Y4.7304
G01 X1.5201 Y4.7187
G01 X1.4955 Y4.7077
G01 X1.4710 Y4.6952
G01 X1.4478 Y4.6819
G01 X1.4289 Y4.6699
G01 X1.4039 Y4.6524
G01 X1.3850 Y4.6377
G01 X1.3603 Y4.6164
G01 X1.3426 Y4.5994
G01 X1.3220 Y4.5777
G01 X1.3043 Y4.5570
G01 X1.2896 Y4.5381
G01 X1.2751 Y4.5176
G01 X1.2604 Y4.4946
G01 X1.2443 Y4.4662
G01 X1.2322 Y4.4418
G01 X1.2217 Y4.4181
G01 X1.2134 Y4.3965
G01 X1.2047 Y4.3707
G01 X1.1973 Y4.3445
G01 X1.1912 Y4.3179
G01 X1.1864 Y4.2911
G01 X1.1830 Y4.2641
G01 X1.1806 Y4.2315
G00 Z1.9990
G00 X1.2406 Y4.2301
G01 F100.00
G01 Z-0.0700
G01 F500.00
G01 X1.2400 Y4.2070
G01 X1.2400 Y2.3970
G01 X1.2407 Y2.3715
G01 X1.2425 Y2.3476
G01 X1.2452 Y2.3256
G01 X1.2495 Y2.3004
G01 X1.2551 Y2.2755
G01 X1.2610 Y2.2545
G01 X1.2685 Y2.2314
G01 X1.2782 Y2.2064
G01 X1.2880 Y2.1844
G01 X1.2979 Y2.1647
G01 X1.3109 Y2.1417
G01 X1.3228 Y2.1230
G01 X1.3367 Y2.1031
G01 X1.3530 Y2.0823
G01 X1.3691 Y2.0637
G01 X1.3850 Y2.0470
G01 X1.4017 Y2.0311
G01 X1.4219 Y2.0136
G01 X1.4399 Y1.9996
G01 X1.4590 Y1.9861
G01 X1.4816 Y1.9718
G01 X1.5027 Y1.9599
G01 X1.5224 Y1.9500
G01 X1.5444 Y1.9402
G01 X1.5694 Y1.9305
G01 X1.5925 Y1.9230
G01 X1.6159 Y1.9166
G01 X1.6384 Y1.9115
G01 X1.6612 Y1.9076
G01 X1.6877 Y1.9043
G01 X1.7119 Y1.9026
G01 X1.7350 Y1.9020
G01 X3.3462 Y1.9020
G01 X3.3674 Y1.9025
G01 X3.3909 Y1.9041
G01 X3.4166 Y1.9072
G01 X3.4375 Y1.9107
G01 X3.4605 Y1.9157
G01 X3.4928 Y1.9247
G01 X4.3455 Y1.0725
G01 X4.3586 Y1.0612
G01 X4.3802 Y1.0451
G01 X4.3948 Y1.0360
G01 X4.4186 Y1.0232
G01 X4.4481 Y1.0110
G01 X4.4739 Y1.0032
G01 X4.4907 Y0.9994
G01 X4.5198 Y0.9952
G01 X4.5480 Y0.9939
G01 X6.6620 Y0.9939
G01 X6.6621 Y0.3417
G01 X6.6633 Y0.3325
G01 X6.6663 Y0.3237
G01 X6.6698 Y0.3172
G01 X6.6758 Y0.3095
G01 X6.6832 Y0.3031
G01 X6.6895 Y0.2994
G01 X6.6982 Y0.2959
G01 X6.7074 Y0.2942
G01 X7.5120 Y0.2940
G01 X7.5212 Y0.2949
G01 X7.5280 Y0.2966
G01 X7.5367 Y0.3005
G01 X7.5428 Y0.3046
G01 X7.5499 Y0.3113
G01 X7.5566 Y0.3215
G01 X7.5601 Y0.3302
G01 X7.5619 Y0.3417
G01 X7.5620 Y0.9939
G01 X8.9140 Y0.9939
G01 X8.9443 Y0.9954
G01 X8.9592 Y0.9973
G01 X8.9857 Y1.0026
G01 X9.0163 Y1.0118
G01 X9.0412 Y1.0222
G01 X9.0544 Y1.0287
G01 X9.0691 Y1.0371
G01 X9.0918 Y1.0522
G01 X9.1051 Y1.0626
G01 X9.1253 Y1.0809
G01 X9.2683 Y1.2239
G01 X9.7800 Y1.2239
G01 X9.7800 Y1.0740
G01 X9.7816 Y1.0434
G01 X9.7858 Y1.0154
G01 X9.7933 Y0.9857
G01 X9.8026 Y0.9598
G01 X9.8160 Y0.9315
G01 X9.8313 Y0.9063
G01 X9.8398 Y0.8943
G01 X9.8569 Y0.8735
G01 X9.8776 Y0.8525
G01 X9.9011 Y0.8332
G01 X9.9268 Y0.8161
G01 X9.9528 Y0.8023
G01 X9.9778 Y0.7920
G01 X9.9917 Y0.7873
G01 X10.0214 Y0.7798
G01 X10.0494 Y0.7756
G01 X10.0800 Y0.7740
G01 X10.7300 Y0.7740
G01 X10.7603 Y0.7755
G01 X10.7886 Y0.7798
G01 X10.8041 Y0.7833
G01 X10.8299 Y0.7911
G01 X10.8593 Y0.8033
G01 X10.8725 Y0.8100
G01 X10.8956 Y0.8239
G01 X10.9097 Y0.8338
G01 X10.9305 Y0.8509
G01 X10.9531 Y0.8735
G01 X10.9702 Y0.8943
G01 X10.9787 Y0.9063
G01 X10.9951 Y0.9337
G01 X11.0067 Y0.9581
G01 X11.0129 Y0.9741
G01 X11.0213 Y1.0023
G01 X11.0266 Y1.0288
G01 X11.0287 Y1.0458
G01 X11.0300 Y1.0740
G01 X11.0300 Y1.9740
G01 X11.0285 Y2.0043
G01 X11.0242 Y2.0326
G01 X11.0174 Y2.0599
G01 X11.0120 Y2.0762
G01 X11.0007 Y2.1032
G01 X10.9879 Y2.1272
G01 X10.9787 Y2.1417
G01 X10.9613 Y2.1650
G01 X10.9430 Y2.1853
G01 X10.9305 Y2.1971
G01 X10.9089 Y2.2148
G01 X10.8853 Y2.2307
G01 X10.8703 Y2.2391
G01 X10.8459 Y2.2507
G01 X10.8299 Y2.2569
G01 X10.8017 Y2.2653
G01 X10.7752 Y2.2706
G01 X10.7582 Y2.2727
G01 X10.7300 Y2.2740
G01 X10.0788 Y2.2740
G01 X10.0518 Y2.2727
G01 X10.0348 Y2.2706
G01 X10.0083 Y2.2653
G01 X9.9801 Y2.2569
G01 X9.9528 Y2.2457
G01 X9.9268 Y2.2319
G01 X9.9011 Y2.2148
G01 X9.8795 Y2.1971
G01 X9.8585 Y2.1764
G01 X9.8392 Y2.1529
G01 X9.8221 Y2.1272
G01 X9.8083 Y2.1012
G01 X9.7971 Y2.0739
G01 X9.7893 Y2.0481
G01 X9.7855 Y2.0313
G01 X9.7816 Y2.0046
G01 X9.7800 Y1.9740
G01 X9.7800 Y1.8241
G01 X9.1428 Y1.8241
G01 X9.1134 Y1.8225
G01 X9.0988 Y1.8207
G01 X9.0723 Y1.8154
G01 X9.0441 Y1.8070
G01 X9.0147 Y1.7948
G01 X8.9887 Y1.7808
G01 X8.9762 Y1.7729
G01 X8.9546 Y1.7568
G01 X8.9318 Y1.7362
G01 X8.7897 Y1.5941
G01 X7.5620 Y1.5941
G01 X7.5619 Y2.2463
G01 X7.5601 Y2.2578
G01 X7.5566 Y2.2665
G01 X7.5514 Y2.2748
G01 X7.5428 Y2.2834
G01 X7.5367 Y2.2875
G01 X7.5280 Y2.2914
G01 X7.5212 Y2.2931
G01 X7.5120 Y2.2940
G01 X6.7074 Y2.2938
G01 X6.6982 Y2.2921
G01 X6.6895 Y2.2886
G01 X6.6832 Y2.2849
G01 X6.6758 Y2.2785
G01 X6.6698 Y2.2708
G01 X6.6663 Y2.2643
G01 X6.6633 Y2.2555
G01 X6.6621 Y2.2463
G01 X6.6620 Y1.5941
G01 X4.6723 Y1.5941
G01 X3.8400 Y2.4264
G01 X3.8400 Y4.2070
G01 X3.8394 Y4.2301
G01 X3.8377 Y4.2543
G01 X3.8348 Y4.2784
G01 X3.8305 Y4.3036
G01 X3.8254 Y4.3261
G01 X3.8190 Y4.3495
G01 X3.8115 Y4.3726
G01 X3.8026 Y4.3959
G01 X3.7920 Y4.4196
G01 X3.7810 Y4.4414
G01 X3.7691 Y4.4623
G01 X3.7559 Y4.4830
G01 X3.7424 Y4.5021
G01 X3.7284 Y4.5201
G01 X3.7126 Y4.5385
G01 X3.6950 Y4.5570
G01 X3.6783 Y4.5729
G01 X3.6600 Y4.5889
G01 X3.6408 Y4.6038
G01 X3.6190 Y4.6192
G01 X3.6005 Y4.6309
G01 X3.5794 Y4.6430
G01 X3.5555 Y4.6550
G01 X3.5339 Y4.6646
G01 X3.5129 Y4.6726
G01 X3.4875 Y4.6810
G01 X3.4641 Y4.6874
G01 X3.4416 Y4.6925
G01 X3.4188 Y4.6964
G01 X3.3947 Y4.6995
G01 X3.3681 Y4.7014
G01 X3.3450 Y4.7020
G01 X1.7350 Y4.7020
G01 X1.7119 Y4.7014
G01 X1.6877 Y4.6997
G01 X1.6612 Y4.6964
G01 X1.6384 Y4.6925
G01 X1.6159 Y4.6874
G01 X1.5925 Y4.6810
G01 X1.5694 Y4.6735
G01 X1.5444 Y4.6638
G01 X1.5224 Y4.6540
G01 X1.5006 Y4.6430
G01 X1.4797 Y4.6311
G01 X1.4610 Y4.6192
G01 X1.4399 Y4.6044
G01 X1.4219 Y4.5904
G01 X1.4017 Y4.5729
G01 X1.3850 Y4.5570
G01 X1.3674 Y4.5385
G01 X1.3516 Y4.5201
G01 X1.3376 Y4.5021
G01 X1.3241 Y4.4830
G01 X1.3111 Y4.4625
G01 X1.2979 Y4.4393
G01 X1.2870 Y4.4175
G01 X1.2774 Y4.3959
G01 X1.2694 Y4.3749
G01 X1.2617 Y4.3519
G01 X1.2551 Y4.3285
G01 X1.2498 Y4.3048
G01 X1.2456 Y4.2808
G01 X1.2425 Y4.2567
G01 X1.2406 Y4.2301
G00 Z1.9990
G00 X1.2415 Y8.5446
G01 F100.00
G01 Z-0.0700
G01 F500.00
G01 X1.2400 Y8.4820
G01 X1.2400 Y8.2820
G01 X1.2415 Y8.2194
G01 X1.2462 Y8.1558
G01 X1.2539 Y8.0925
G01 X1.2650 Y8.0283
G01 X1.2793 Y7.9649
G01 X1.2963 Y7.9035
G01 X1.3164 Y7.8429
G01 X1.3387 Y7.7851
G01 X1.3643 Y7.7273
G01 X1.3929 Y7.6703
G01 X1.4255 Y7.6128
G01 X1.4598 Y7.5587
G01 X1.4966 Y7.5066
G01 X1.5357 Y7.4566
G01 X1.5760 Y7.4099
G01 X1.6199 Y7.3636
G01 X1.6661 Y7.3196
G01 X1.7162 Y7.2763
G01 X1.7654 Y7.2380
G01 X1.8167 Y7.2018
G01 X1.8706 Y7.1676
G01 X1.9261 Y7.1361
G01 X1.9853 Y7.1063
G01 X2.0431 Y7.0807
G01 X2.1009 Y7.0584
G01 X2.1615 Y7.0383
G01 X2.2229 Y7.0213
G01 X2.2876 Y7.0068
G01 X2.3505 Y6.9959
G01 X2.4114 Y6.9884
G01 X2.4750 Y6.9836
G01 X2.5400 Y6.9820
G01 X2.6026 Y6.9835
G01 X2.6684 Y6.9884
G01 X2.7320 Y6.9963
G01 X2.7937 Y7.0070
G01 X2.8547 Y7.0207
G01 X2.9162 Y7.0376
G01 X2.9768 Y7.0576
G01 X3.0369 Y7.0807
G01 X3.0968 Y7.1073
G01 X3.1539 Y7.1361
G01 X3.2092 Y7.1675
G01 X3.2612 Y7.2004
G01 X3.3134 Y7.2371
G01 X3.3654 Y7.2777
G01 X3.4121 Y7.3180
G01 X3.4592 Y7.3628
G01 X3.5040 Y7.4099
G01 X3.5441 Y7.4563
G01 X3.5834 Y7.5066
G01 X3.6202 Y7.5587
G01 X3.6544 Y7.6126
G01 X3.6859 Y7.6681
G01 X3.7157 Y7.7273
G01 X3.7413 Y7.7851
G01 X3.7636 Y7.8429
G01 X3.7844 Y7.9058
G01 X3.8013 Y7.9673
G01 X3.8150 Y8.0283
G01 X3.8261 Y8.0925
G01 X3.8336 Y8.1534
G01 X3.8384 Y8.2170
G01 X3.8400 Y8.2820
G01 X3.8400 Y8.4820
G01 X3.8384 Y8.5470
G01 X3.8336 Y8.6104
G01 X3.8261 Y8.6715
G01 X3.8150 Y8.7357
G01 X3.8007 Y8.7991
G01 X3.7837 Y8.8605
G01 X3.7644 Y8.9188
G01 X3.7415 Y8.9783
G01 X3.7147 Y9.0388
G01 X3.6832 Y9.1007
G01 X4.1403 Y9.5579
G01 X6.6010 Y9.5579
G01 X6.6011 Y8.9057
G01 X6.6023 Y8.8965
G01 X6.6053 Y8.8877
G01 X6.6101 Y8.8792
G01 X6.6148 Y8.8735
G01 X6.6222 Y8.8671
G01 X6.6307 Y8.8623
G01 X6.6395 Y8.8593
G01 X6.6487 Y8.8581
G01 X7.4510 Y8.8580
G01 X7.4648 Y8.8599
G01 X7.4757 Y8.8645
G01 X7.4855 Y8.8718
G01 X7.4932 Y8.8812
G01 X7.4984 Y8.8920
G01 X7.5009 Y8.9057
G01 X7.5010 Y9.3519
G01 X10.0905 Y9.3519
G01 X10.0955 Y9.3322
G01 X10.1007 Y9.3165
G01 X10.1106 Y9.2927
G01 X10.1180 Y9.2779
G01 X10.1313 Y9.2558
G01 X10.1402 Y9.2430
G01 X10.1495 Y9.2312
G01 X10.1668 Y9.2121
G01 X10.1896 Y9.1915
G01 X10.2103 Y9.1761
G01 X10.2243 Y9.1673
G01 X10.2471 Y9.1551
G01 X10.2615 Y9.1487
G01 X10.2753 Y9.1434
G01 X10.3000 Y9.1359
G01 X10.3300 Y9.1299
G01 X10.3440 Y9.1283
G01 X10.3698 Y9.1270
G01 X10.8710 Y9.1270
G01 X10.9001 Y9.1285
G01 X10.9271 Y9.1325
G01 X10.9533 Y9.1390
G01 X10.9690 Y9.1442
G01 X10.9949 Y9.1551
G01 X11.0196 Y9.1684
G01 X11.0413 Y9.1829
G01 X11.0543 Y9.1930
G01 X11.0743 Y9.2112
G01 X11.0925 Y9.2312
G01 X11.1094 Y9.2538
G01 X11.1240 Y9.2779
G01 X11.1314 Y9.2927
G01 X11.1413 Y9.3165
G01 X11.1496 Y9.3435
G01 X11.1532 Y9.3596
G01 X11.1572 Y9.3875
G01 X11.1585 Y9.4145
G01 X11.1585 Y9.8907
G01 X11.1572 Y9.9165
G01 X11.1552 Y9.9329
G01 X11.1527 Y9.9468
G01 X11.1465 Y9.9718
G01 X11.1413 Y9.9875
G01 X11.1314 Y10.0113
G01 X11.1240 Y10.0261
G01 X11.1107 Y10.0482
G01 X11.1012 Y10.0617
G01 X11.0848 Y10.0817
G01 X11.0632 Y10.1033
G01 X11.0432 Y10.1197
G01 X11.0297 Y10.1292
G01 X11.0076 Y10.1425
G01 X10.9949 Y10.1489
G01 X10.9799 Y10.1556
G01 X10.9556 Y10.1642
G01 X10.9397 Y10.1687
G01 X10.9211 Y10.1725
G01 X10.9211 Y10.4967
G01 X11.0463 Y10.6219
G01 X13.5917 Y10.6219
G01 X15.9559 Y8.2577
G01 X15.9559 Y8.0555
G01 X15.6175 Y8.0552
G01 X15.6007 Y8.0540
G01 X15.5737 Y8.0500
G01 X15.5427 Y8.0422
G01 X15.5288 Y8.0375
G01 X15.5038 Y8.0272
G01 X15.4759 Y8.0123
G01 X15.4513 Y7.9957
G01 X15.4305 Y7.9786
G01 X15.4197 Y7.9685
G01 X15.3983 Y7.9449
G01 X15.3809 Y7.9211
G01 X15.3670 Y7.8980
G01 X15.3603 Y7.8847
G01 X15.3481 Y7.8554
G01 X15.3397 Y7.8272
G01 X15.3344 Y7.8007
G01 X15.3323 Y7.7837
G01 X15.3310 Y7.7567
G01 X15.3314 Y6.8146
G01 X15.3344 Y6.7853
G01 X15.3397 Y6.7588
G01 X15.3443 Y6.7422
G01 X15.3536 Y6.7163
G01 X15.3659 Y6.6902
G01 X15.3809 Y6.6649
G01 X15.3908 Y6.6508
G01 X15.4095 Y6.6281
G01 X15.4305 Y6.6074
G01 X15.4521 Y6.5897
G01 X15.4757 Y6.5738
G01 X15.5018 Y6.5598
G01 X15.5288 Y6.5485
G01 X15.5569 Y6.5398
G01 X15.5858 Y6.5339
G01 X15.6151 Y6.5309
G01 X16.8810 Y6.5305
G01 X16.9113 Y6.5320
G01 X16.9396 Y6.5363
G01 X16.9669 Y6.5431
G01 X16.9832 Y6.5485
G01 X17.0102 Y6.5598
G01 X17.0361 Y6.5737
G01 X17.0587 Y6.5888
G01 X17.0723 Y6.5994
G01 X17.0931 Y6.6184
G01 X17.1121 Y6.6392
G01 X17.1227 Y6.6528
G01 X17.1389 Y6.6773
G01 X17.1517 Y6.7013
G01 X17.1630 Y6.7283
G01 X17.1684 Y6.7446
G01 X17.1752 Y6.7719
G01 X17.1794 Y6.7999
G01 X17.1810 Y6.8305
G01 X17.1806 Y7.7714
G01 X17.1779 Y7.7983
G01 X17.1752 Y7.8141
G01 X17.1684 Y7.8414
G01 X17.1630 Y7.8577
G01 X17.1527 Y7.8827
G01 X17.1450 Y7.8980
G01 X17.1311 Y7.9211
G01 X17.1212 Y7.9352
G01 X17.1041 Y7.9560
G01 X17.0834 Y7.9770
G01 X17.0607 Y7.9957
G01 X17.0466 Y8.0056
G01 X17.0213 Y8.0206
G01 X16.9952 Y8.0329
G01 X16.9693 Y8.0422
G01 X16.9407 Y8.0495
G01 X16.9116 Y8.0539
G01 X16.8822 Y8.0555
G01 X16.5561 Y8.0555
G01 X16.5561 Y8.3820
G01 X16.5557 Y8.3980
G01 X16.5530 Y8.4248
G01 X16.5501 Y8.4418
G01 X16.5435 Y8.4679
G01 X16.5382 Y8.4843
G01 X16.5278 Y8.5092
G01 X16.5201 Y8.5246
G01 X16.5062 Y8.5477
G01 X16.4963 Y8.5618
G01 X16.4792 Y8.5826
G01 X13.9273 Y11.1351
G01 X13.9073 Y11.1532
G01 X13.8838 Y11.1709
G01 X13.8692 Y11.1800
G01 X13.8453 Y11.1928
G01 X13.8183 Y11.2042
G01 X13.8019 Y11.2095
G01 X13.7746 Y11.2163
G01 X13.7466 Y11.2205
G01 X13.7160 Y11.2221
G01 X10.9220 Y11.2221
G01 X10.8938 Y11.2208
G01 X10.8768 Y11.2187
G01 X10.8503 Y11.2134
G01 X10.8221 Y11.2050
G01 X10.7927 Y11.1928
G01 X10.7669 Y11.1789
G01 X10.7430 Y11.1629
G01 X10.7195 Y11.1435
G01 X10.4079 Y10.8323
G01 X10.3898 Y10.8123
G01 X10.3807 Y10.8008
G01 X10.3630 Y10.7742
G01 X10.3492 Y10.7482
G01 X10.3388 Y10.7233
G01 X10.3342 Y10.7093
G01 X10.3264 Y10.6783
G01 X10.3225 Y10.6516
G01 X10.3213 Y10.6370
G01 X10.3209 Y10.1725
G01 X10.3000 Y10.1681
G01 X10.2753 Y10.1606
G01 X10.2599 Y10.1546
G01 X10.2366 Y10.1436
G01 X10.2222 Y10.1355
G01 X10.1995 Y10.1203
G01 X10.1877 Y10.1110
G01 X10.1686 Y10.0937
G01 X10.1572 Y10.0817
G01 X10.1402 Y10.0610
G01 X10.1313 Y10.0482
G01 X10.1180 Y10.0261
G01 X10.1106 Y10.0113
G01 X10.1007 Y9.9875
G01 X10.0955 Y9.9718
G01 X10.0905 Y9.9521
G01 X7.5010 Y9.9521
G01 X7.5010 Y10.8080
G01 X7.5001 Y10.8172
G01 X7.4976 Y10.8262
G01 X7.4932 Y10.8348
G01 X7.4872 Y10.8425
G01 X7.4798 Y10.8489
G01 X7.4713 Y10.8537
G01 X7.4625 Y10.8567
G01 X7.4510 Y10.8580
G01 X6.6510 Y10.8580
G01 X6.6395 Y10.8567
G01 X6.6307 Y10.8537
G01 X6.6242 Y10.8502
G01 X6.6183 Y10.8459
G01 X6.6131 Y10.8407
G01 X6.6088 Y10.8348
G01 X6.6044 Y10.8262
G01 X6.6019 Y10.8172
G01 X6.6011 Y10.8103
G01 X6.6010 Y10.1581
G01 X4.0160 Y10.1581
G01 X3.9857 Y10.1566
G01 X3.9587 Y10.1526
G01 X3.9419 Y10.1488
G01 X3.9161 Y10.1410
G01 X3.9000 Y10.1348
G01 X3.8756 Y10.1233
G01 X3.8503 Y10.1082
G01 X3.8362 Y10.0983
G01 X3.8154 Y10.0812
G01 X3.2823 Y9.5488
G01 X3.2612 Y9.5636
G01 X3.2094 Y9.5964
G01 X3.1517 Y9.6291
G01 X3.0947 Y9.6577
G01 X3.0369 Y9.6833
G01 X2.9791 Y9.7056
G01 X2.9185 Y9.7257
G01 X2.8547 Y9.7433
G01 X2.7937 Y9.7570
G01 X2.7320 Y9.7677
G01 X2.6686 Y9.7756
G01 X2.6026 Y9.7805
G01 X2.5400 Y9.7820
G01 X2.4774 Y9.7805
G01 X2.4116 Y9.7756
G01 X2.3480 Y9.7677
G01 X2.2863 Y9.7570
G01 X2.2253 Y9.7433
G01 X2.1638 Y9.7264
G01 X2.1032 Y9.7064
G01 X2.0414 Y9.6826
G01 X1.9832 Y9.6567
G01 X1.9283 Y9.6291
G01 X1.8708 Y9.5965
G01 X1.8188 Y9.5636
G01 X1.7666 Y9.5269
G01 X1.7146 Y9.4863
G01 X1.6661 Y9.4444
G01 X1.6208 Y9.4012
G01 X1.5776 Y9.3559
G01 X1.5343 Y9.3058
G01 X1.4960 Y9.2566
G01 X1.4598 Y9.2053
G01 X1.4243 Y9.1493
G01 X1.3929 Y9.0937
G01 X1.3653 Y9.0388
G01 X1.3385 Y8.9783
G01 X1.3164 Y8.9211
G01 X1.2963 Y8.8605
G01 X1.2787 Y8.7967
G01 X1.2650 Y8.7357
G01 X1.2543 Y8.6740
G01 X1.2462 Y8.6082
G01 X1.2415 Y8.5446
G00 Z1.9990
G00 X1.1816 Y8.5460
G01 F100.00
G01 Z-0.0700
G01 F500.00
G01 X1.1800 Y8.4820
G01 X1.1800 Y8.2820
G01 X1.1815 Y8.2180
G01 X1.1863 Y8.1514
G01 X1.1944 Y8.0851
G01 X1.2062 Y8.0166
G01 X1.2214 Y7.9489
G01 X1.2394 Y7.8846
G01 X1.2604 Y7.8213
G01 X1.2830 Y7.7628
G01 X1.3095 Y7.7030
G01 X1.3393 Y7.6433
G01 X1.3746 Y7.5810
G01 X1.4107 Y7.5242
G01 X1.4493 Y7.4697
G01 X1.4900 Y7.4177
G01 X1.5305 Y7.3707
G01 X1.5764 Y7.3223
G01 X1.6247 Y7.2761
G01 X1.6793 Y7.2290
G01 X1.7294 Y7.1900
G01 X1.7822 Y7.1527
G01 X1.8385 Y7.1169
G01 X1.8965 Y7.0839
G01 X1.9610 Y7.0515
G01 X2.0208 Y7.0250
G01 X2.0793 Y7.0024
G01 X2.1426 Y6.9814
G01 X2.2069 Y6.9634
G01 X2.2773 Y6.9476
G01 X2.3431 Y6.9364
G01 X2.4040 Y6.9288
G01 X2.4706 Y6.9238
G01 X2.5400 Y6.9220
G01 X2.6040 Y6.9235
G01 X2.6753 Y6.9288
G01 X2.7422 Y6.9371
G01 X2.8054 Y6.9482
G01 X2.8678 Y6.9621
G01 X2.9322 Y6.9798
G01 X2.9956 Y7.0006
G01 X3.0592 Y7.0250
G01 X3.1236 Y7.0536
G01 X3.1835 Y7.0839
G01 X3.2410 Y7.1166
G01 X3.2933 Y7.1497
G01 X3.3480 Y7.1881
G01 X3.4043 Y7.2320
G01 X3.4513 Y7.2725
G01 X3.5017 Y7.3203
G01 X3.5495 Y7.3707
G01 X3.5896 Y7.4172
G01 X3.6307 Y7.4697
G01 X3.6693 Y7.5242
G01 X3.7051 Y7.5805
G01 X3.7381 Y7.6385
G01 X3.7684 Y7.6984
G01 X3.7975 Y7.7641
G01 X3.8196 Y7.8213
G01 X3.8406 Y7.8846
G01 X3.8586 Y7.9489
G01 X3.8738 Y8.0166
G01 X3.8856 Y8.0851
G01 X3.8932 Y8.1460
G01 X3.8982 Y8.2126
G01 X3.9000 Y8.2793
G01 X3.9000 Y8.4820
G01 X3.8982 Y8.5514
G01 X3.8932 Y8.6173
G01 X3.8856 Y8.6789
G01 X3.8744 Y8.7447
G01 X3.8586 Y8.8151
G01 X3.8422 Y8.8742
G01 X3.8214 Y8.9376
G01 X3.7954 Y9.0049
G01 X3.7705 Y9.0610
G01 X3.7565 Y9.0892
G01 X4.1652 Y9.4979
G01 X6.5410 Y9.4979
G01 X6.5410 Y8.9080
G01 X6.5421 Y8.8927
G01 X6.5468 Y8.8728
G01 X6.5528 Y8.8585
G01 X6.5581 Y8.8491
G01 X6.5643 Y8.8403
G01 X6.5751 Y8.8283
G01 X6.5833 Y8.8213
G01 X6.5921 Y8.8151
G01 X6.6063 Y8.8075
G01 X6.6257 Y8.8010
G01 X6.6459 Y8.7981
G01 X7.4510 Y8.7980
G01 X7.4663 Y8.7991
G01 X7.4813 Y8.8022
G01 X7.4957 Y8.8075
G01 X7.5053 Y8.8123
G01 X7.5187 Y8.8213
G01 X7.5269 Y8.8283
G01 X7.5377 Y8.8403
G01 X7.5439 Y8.8491
G01 X7.5492 Y8.8585
G01 X7.5552 Y8.8728
G01 X7.5580 Y8.8827
G01 X7.5605 Y8.8978
G01 X7.5610 Y9.2919
G01 X10.0459 Y9.2919
G01 X10.0557 Y9.2684
G01 X10.0633 Y9.2531
G01 X10.0741 Y9.2340
G01 X10.0836 Y9.2192
G01 X10.1007 Y9.1962
G01 X10.1117 Y9.1832
G01 X10.1253 Y9.1688
G01 X10.1397 Y9.1552
G01 X10.1662 Y9.1338
G01 X10.1901 Y9.1179
G01 X10.2048 Y9.1093
G01 X10.2203 Y9.1014
G01 X10.2393 Y9.0929
G01 X10.2565 Y9.0864
G01 X10.2840 Y9.0781
G01 X10.3031 Y9.0737
G01 X10.3227 Y9.0704
G01 X10.3396 Y9.0684
G01 X10.3683 Y9.0670
G01 X10.8710 Y9.0670
G01 X10.9071 Y9.0689
G01 X10.9389 Y9.0737
G01 X10.9693 Y9.0812
G01 X10.9906 Y9.0883
G01 X11.0217 Y9.1014
G01 X11.0515 Y9.1176
G01 X11.0758 Y9.1338
G01 X11.0930 Y9.1472
G01 X11.1167 Y9.1688
G01 X11.1379 Y9.1920
G01 X11.1517 Y9.2097
G01 X11.1704 Y9.2382
G01 X11.1841 Y9.2638
G01 X11.1972 Y9.2949
G01 X11.2043 Y9.3162
G01 X11.2118 Y9.3466
G01 X11.2165 Y9.3778
G01 X11.2185 Y9.4145
G01 X11.2185 Y9.8922
G01 X11.2171 Y9.9209
G01 X11.2143 Y9.9432
G01 X11.2113 Y9.9599
G01 X11.2043 Y9.9878
G01 X11.1972 Y10.0091
G01 X11.1910 Y10.0250
G01 X11.1787 Y10.0509
G01 X11.1704 Y10.0658
G01 X11.1614 Y10.0803
G01 X11.1485 Y10.0987
G01 X11.1303 Y10.1208
G01 X11.1186 Y10.1333
G01 X11.1023 Y10.1488
G01 X11.0893 Y10.1598
G01 X11.0663 Y10.1769
G01 X11.0519 Y10.1861
G01 X11.0372 Y10.1947
G01 X11.0171 Y10.2048
G01 X11.0027 Y10.2111
G01 X10.9811 Y10.2190
G01 X10.9811 Y10.4718
G01 X11.0712 Y10.5619
G01 X13.5668 Y10.5619
G01 X15.8959 Y8.2328
G01 X15.8959 Y8.1155
G01 X15.6310 Y8.1155
G01 X15.6106 Y8.1149
G01 X15.5755 Y8.1112
G01 X15.5462 Y8.1053
G01 X15.5239 Y8.0992
G01 X15.4945 Y8.0886
G01 X15.4749 Y8.0799
G01 X15.4589 Y8.0717
G01 X15.4288 Y8.0533
G01 X15.4144 Y8.0430
G01 X15.3913 Y8.0240
G01 X15.3661 Y7.9992
G01 X15.3422 Y7.9704
G01 X15.3302 Y7.9532
G01 X15.3209 Y7.9382
G01 X15.3044 Y7.9070
G01 X15.2930 Y7.8793
G01 X15.2873 Y7.8626
G01 X15.2812 Y7.8403
G01 X15.2753 Y7.8110
G01 X15.2725 Y7.7881
G01 X15.2710 Y7.7582
G01 X15.2710 Y6.8305
G01 X15.2716 Y6.8101
G01 X15.2753 Y6.7750
G01 X15.2812 Y6.7457
G01 X15.2912 Y6.7118
G01 X15.3044 Y6.6790
G01 X15.3148 Y6.6584
G01 X15.3332 Y6.6283
G01 X15.3540 Y6.6006
G01 X15.3746 Y6.5779
G01 X15.4006 Y6.5540
G01 X15.4288 Y6.5327
G01 X15.4589 Y6.5143
G01 X15.4795 Y6.5039
G01 X15.5123 Y6.4907
G01 X15.5462 Y6.4807
G01 X15.5755 Y6.4748
G01 X15.6106 Y6.4711
G01 X15.6310 Y6.4705
G01 X16.8810 Y6.4705
G01 X16.9183 Y6.4725
G01 X16.9513 Y6.4774
G01 X16.9829 Y6.4852
G01 X17.0048 Y6.4925
G01 X17.0371 Y6.5061
G01 X17.0679 Y6.5229
G01 X17.0933 Y6.5398
G01 X17.1109 Y6.5535
G01 X17.1356 Y6.5759
G01 X17.1575 Y6.6001
G01 X17.1717 Y6.6182
G01 X17.1911 Y6.6478
G01 X17.2054 Y6.6744
G01 X17.2190 Y6.7067
G01 X17.2263 Y6.7286
G01 X17.2341 Y6.7602
G01 X17.2390 Y6.7925
G01 X17.2410 Y6.8305
G01 X17.2410 Y7.7555
G01 X17.2404 Y7.7759
G01 X17.2375 Y7.8056
G01 X17.2341 Y7.8258
G01 X17.2263 Y7.8574
G01 X17.2190 Y7.8793
G01 X17.2076 Y7.9070
G01 X17.1972 Y7.9276
G01 X17.1818 Y7.9532
G01 X17.1685 Y7.9721
G01 X17.1495 Y7.9952
G01 X17.1336 Y8.0119
G01 X17.1114 Y8.0320
G01 X17.0832 Y8.0533
G01 X17.0531 Y8.0717
G01 X17.0325 Y8.0821
G01 X16.9997 Y8.0953
G01 X16.9711 Y8.1040
G01 X16.9365 Y8.1112
G01 X16.9136 Y8.1140
G01 X16.8960 Y8.1152
G01 X16.6161 Y8.1155
G01 X16.6161 Y8.3847
G01 X16.6142 Y8.4193
G01 X16.6097 Y8.4496
G01 X16.6060 Y8.4669
G01 X16.5998 Y8.4891
G01 X16.5892 Y8.5186
G01 X16.5805 Y8.5381
G01 X16.5723 Y8.5541
G01 X16.5569 Y8.5798
G01 X16.5436 Y8.5987
G01 X16.5246 Y8.6218
G01 X16.5106 Y8.6366
G01 X13.9687 Y11.1785
G01 X13.9465 Y11.1986
G01 X13.9183 Y11.2199
G01 X13.8988 Y11.2322
G01 X13.8721 Y11.2465
G01 X13.8399 Y11.2601
G01 X13.8179 Y11.2674
G01 X13.7864 Y11.2752
G01 X13.7540 Y11.2801
G01 X13.7160 Y11.2821
G01 X10.9220 Y11.2821
G01 X10.8894 Y11.2806
G01 X10.8665 Y11.2778
G01 X10.8371 Y11.2720
G01 X10.8032 Y11.2620
G01 X10.7854 Y11.2552
G01 X10.7659 Y11.2465
G01 X10.7350 Y11.2298
G01 X10.7070 Y11.2109
G01 X10.6782 Y11.1870
G01 X10.3645 Y10.8737
G01 X10.3409 Y10.8474
G01 X10.3231 Y10.8233
G01 X10.3135 Y10.8084
G01 X10.3022 Y10.7884
G01 X10.2943 Y10.7725
G01 X10.2829 Y10.7449
G01 X10.2772 Y10.7281
G01 X10.2678 Y10.6914
G01 X10.2624 Y10.6536
G01 X10.2609 Y10.6210
G01 X10.2609 Y10.2190
G01 X10.2393 Y10.2111
G01 X10.2249 Y10.2048
G01 X10.2096 Y10.1972
G01 X10.1905 Y10.1864
G01 X10.1618 Y10.1670
G01 X10.1397 Y10.1488
G01 X10.1272 Y10.1371
G01 X10.1041 Y10.1120
G01 X10.0922 Y10.0970
G01 X10.0806 Y10.0803
G01 X10.0633 Y10.0509
G01 X10.0557 Y10.0356
G01 X10.0459 Y10.0121
G01 X7.5610 Y10.0121
G01 X7.5609 Y10.8131
G01 X7.5580 Y10.8333
G01 X7.5515 Y10.8527
G01 X7.5467 Y10.8623
G01 X7.5409 Y10.8714
G01 X7.5343 Y10.8799
G01 X7.5269 Y10.8877
G01 X7.5187 Y10.8947
G01 X7.5099 Y10.9009
G01 X7.4957 Y10.9085
G01 X7.4763 Y10.9150
G01 X7.4561 Y10.9179
G01 X6.6510 Y10.9180
G01 X6.6408 Y10.9175
G01 X6.6257 Y10.9150
G01 X6.6110 Y10.9105
G01 X6.5967 Y10.9037
G01 X6.5833 Y10.8947
G01 X6.5713 Y10.8839
G01 X6.5611 Y10.8714
G01 X6.5528 Y10.8575
G01 X6.5468 Y10.8432
G01 X6.5421 Y10.8233
G01 X6.5410 Y10.8080
G01 X6.5410 Y10.2181
G01 X4.0160 Y10.2181
G01 X3.9787 Y10.2162
G01 X3.9484 Y10.2117
G01 X3.9259 Y10.2066
G01 X3.8972 Y10.1980
G01 X3.8794 Y10.1912
G01 X3.8486 Y10.1768
G01 X3.8290 Y10.1658
G01 X3.8037 Y10.1488
G01 X3.7860 Y10.1351
G01 X3.7614 Y10.1126
G01 X3.2747 Y9.6260
G01 X3.2368 Y9.6499
G01 X3.1835 Y9.6801
G01 X3.1236 Y9.7104
G01 X3.0592 Y9.7390
G01 X2.9956 Y9.7634
G01 X2.9374 Y9.7826
G01 X2.8731 Y9.8006
G01 X2.8080 Y9.8153
G01 X2.7422 Y9.8269
G01 X2.6706 Y9.8357
G01 X2.6040 Y9.8405
G01 X2.5400 Y9.8420
G01 X2.4760 Y9.8405
G01 X2.4047 Y9.8352
G01 X2.3378 Y9.8269
G01 X2.2746 Y9.8158
G01 X2.2122 Y9.8019
G01 X2.1478 Y9.7842
G01 X2.0844 Y9.7634
G01 X2.0171 Y9.7374
G01 X1.9564 Y9.7104
G01 X1.9013 Y9.6827
G01 X1.8390 Y9.6474
G01 X1.7867 Y9.6143
G01 X1.7320 Y9.5759
G01 X1.6757 Y9.5320
G01 X1.6247 Y9.4879
G01 X1.5783 Y9.4437
G01 X1.5341 Y9.3973
G01 X1.4870 Y9.3427
G01 X1.4480 Y9.2926
G01 X1.4107 Y9.2398
G01 X1.3721 Y9.1788
G01 X1.3393 Y9.1207
G01 X1.3116 Y9.0656
G01 X1.2825 Y8.9999
G01 X1.2604 Y8.9427
G01 X1.2394 Y8.8794
G01 X1.2201 Y8.8098
G01 X1.2062 Y8.7474
G01 X1.1951 Y8.6842
G01 X1.1863 Y8.6126
G01 X1.1816 Y8.5460
G00 Z1.9990
G00 X1.1216 Y8.5475
G01 F100.00
G01 Z-0.0700
G01 F500.00
G01 X1.1200 Y8.4820
G01 X1.1200 Y8.2820
G01 X1.1216 Y8.2165
G01 X1.1265 Y8.1470
G01 X1.1348 Y8.0778
G01 X1.1473 Y8.0048
G01 X1.1636 Y7.9329
G01 X1.1824 Y7.8658
G01 X1.2045 Y7.7997
G01 X1.2273 Y7.7405
G01 X1.2546 Y7.6787
G01 X1.2858 Y7.6163
G01 X1.3238 Y7.5491
G01 X1.3617 Y7.4896
G01 X1.4000 Y7.4354
G01 X1.4397 Y7.3844
G01 X1.4851 Y7.3315
G01 X1.5359 Y7.2779
G01 X1.5895 Y7.2271
G01 X1.6424 Y7.1817
G01 X1.6934 Y7.1420
G01 X1.7476 Y7.1037
G01 X1.8064 Y7.0662
G01 X1.8670 Y7.0317
G01 X1.9367 Y6.9966
G01 X1.9985 Y6.9693
G01 X2.0577 Y6.9465
G01 X2.1238 Y6.9244
G01 X2.1909 Y6.9056
G01 X2.2671 Y6.8885
G01 X2.3358 Y6.8768
G01 X2.3967 Y6.8693
G01 X2.4662 Y6.8640
G01 X2.5400 Y6.8620
G01 X2.6055 Y6.8636
G01 X2.6823 Y6.8692
G01 X2.7525 Y6.8780
G01 X2.8172 Y6.8893
G01 X2.8810 Y6.9036
G01 X2.9482 Y6.9220
G01 X3.0144 Y6.9437
G01 X3.0815 Y6.9693
G01 X3.1505 Y7.0000
G01 X3.2130 Y7.0317
G01 X3.2729 Y7.0658
G01 X3.3254 Y7.0990
G01 X3.3825 Y7.1390
G01 X3.4432 Y7.1863
G01 X3.4905 Y7.2271
G01 X3.5441 Y7.2779
G01 X3.5949 Y7.3315
G01 X3.6350 Y7.3780
G01 X3.6780 Y7.4328
G01 X3.7183 Y7.4896
G01 X3.7558 Y7.5484
G01 X3.7903 Y7.6090
G01 X3.8220 Y7.6715
G01 X3.8527 Y7.7405
G01 X3.8783 Y7.8076
G01 X3.9000 Y7.8738
G01 X3.9184 Y7.9410
G01 X3.9327 Y8.0048
G01 X3.9440 Y8.0695
G01 X3.9535 Y8.1470
G01 X3.9584 Y8.2165
G01 X3.9600 Y8.2820
G01 X3.9600 Y8.4820
G01 X3.9584 Y8.5475
G01 X3.9528 Y8.6243
G01 X3.9440 Y8.6945
G01 X3.9327 Y8.7592
G01 X3.9184 Y8.8230
G01 X3.9000 Y8.8902
G01 X3.8755 Y8.9643
G01 X3.8527 Y9.0235
G01 X3.8291 Y9.0770
G01 X4.1900 Y9.4379
G01 X6.4810 Y9.4379
G01 X6.4810 Y8.9080
G01 X6.4826 Y8.8844
G01 X6.4856 Y8.8689
G01 X6.4899 Y8.8537
G01 X6.4957 Y8.8390
G01 X6.5074 Y8.8170
G01 X6.5223 Y8.7969
G01 X6.5399 Y8.7793
G01 X6.5600 Y8.7644
G01 X6.5744 Y8.7562
G01 X6.5892 Y8.7496
G01 X6.6119 Y8.7426
G01 X6.6274 Y8.7396
G01 X6.6431 Y8.7382
G01 X7.4510 Y8.7380
G01 X7.4668 Y8.7387
G01 X7.4901 Y8.7426
G01 X7.5128 Y8.7496
G01 X7.5276 Y8.7562
G01 X7.5420 Y8.7644
G01 X7.5621 Y8.7793
G01 X7.5741 Y8.7908
G01 X7.5850 Y8.8034
G01 X7.5989 Y8.8241
G01 X7.6063 Y8.8390
G01 X7.6144 Y8.8612
G01 X7.6181 Y8.8766
G01 X7.6203 Y8.8922
G01 X7.6210 Y8.9080
G01 X7.6210 Y9.2319
G01 X10.0068 Y9.2319
G01 X10.0194 Y9.2086
G01 X10.0299 Y9.1916
G01 X10.0534 Y9.1592
G01 X10.0663 Y9.1440
G01 X10.0829 Y9.1264
G01 X10.1005 Y9.1098
G01 X10.1157 Y9.0969
G01 X10.1412 Y9.0780
G01 X10.1580 Y9.0672
G01 X10.1934 Y9.0477
G01 X10.2170 Y9.0372
G01 X10.2377 Y9.0295
G01 X10.2760 Y9.0182
G01 X10.2956 Y9.0141
G01 X10.3269 Y9.0094
G01 X10.3668 Y9.0071
G01 X10.8710 Y9.0070
G01 X10.8952 Y9.0077
G01 X10.9141 Y9.0093
G01 X10.9507 Y9.0149
G01 X10.9853 Y9.0234
G01 X11.0122 Y9.0323
G01 X11.0486 Y9.0477
G01 X11.0834 Y9.0667
G01 X11.1104 Y9.0847
G01 X11.1319 Y9.1015
G01 X11.1591 Y9.1264
G01 X11.1833 Y9.1528
G01 X11.2008 Y9.1751
G01 X11.2226 Y9.2086
G01 X11.2378 Y9.2369
G01 X11.2532 Y9.2733
G01 X11.2621 Y9.3002
G01 X11.2706 Y9.3348
G01 X11.2761 Y9.3704
G01 X11.2778 Y9.3903
G01 X11.2785 Y9.4145
G01 X11.2784 Y9.8937
G01 X11.2769 Y9.9253
G01 X11.2747 Y9.9452
G01 X11.2706 Y9.9692
G01 X11.2652 Y9.9925
G01 X11.2532 Y10.0307
G01 X11.2458 Y10.0493
G01 X11.2323 Y10.0779
G01 X11.2121 Y10.1124
G01 X11.1978 Y10.1330
G01 X11.1840 Y10.1504
G01 X11.1701 Y10.1662
G01 X11.1562 Y10.1806
G01 X11.1415 Y10.1942
G01 X11.1171 Y10.2143
G01 X11.1008 Y10.2260
G01 X11.0769 Y10.2411
G01 X11.0594 Y10.2508
G01 X11.0411 Y10.2598
G01 X11.0411 Y10.4470
G01 X11.0960 Y10.5019
G01 X13.5420 Y10.5019
G01 X15.8359 Y8.2080
G01 X15.8359 Y8.1755
G01 X15.6268 Y8.1754
G01 X15.6062 Y8.1747
G01 X15.5735 Y8.1715
G01 X15.5489 Y8.1674
G01 X15.5330 Y8.1639
G01 X15.5131 Y8.1586
G01 X15.4935 Y8.1523
G01 X15.4722 Y8.1443
G01 X15.4552 Y8.1369
G01 X15.4294 Y8.1239
G01 X15.4122 Y8.1140
G01 X15.3942 Y8.1024
G01 X15.3622 Y8.0782
G01 X15.3340 Y8.0525
G01 X15.3170 Y8.0344
G01 X15.3037 Y8.0187
G01 X15.2912 Y8.0023
G01 X15.2795 Y7.9853
G01 X15.2687 Y7.9678
G01 X15.2587 Y7.9498
G01 X15.2422 Y7.9143
G01 X15.2342 Y7.8930
G01 X15.2279 Y7.8734
G01 X15.2226 Y7.8535
G01 X15.2162 Y7.8212
G01 X15.2127 Y7.7925
G01 X15.2111 Y7.7597
G01 X15.2110 Y6.8305
G01 X15.2127 Y6.7935
G01 X15.2150 Y6.7730
G01 X15.2183 Y6.7527
G01 X15.2247 Y6.7244
G01 X15.2342 Y6.6930
G01 X15.2422 Y6.6717
G01 X15.2496 Y6.6547
G01 X15.2626 Y6.6289
G01 X15.2725 Y6.6117
G01 X15.2841 Y6.5937
G01 X15.3083 Y6.5617
G01 X15.3340 Y6.5335
G01 X15.3614 Y6.5085
G01 X15.3801 Y6.4937
G01 X15.3942 Y6.4836
G01 X15.4115 Y6.4724
G01 X15.4294 Y6.4621
G01 X15.4552 Y6.4491
G01 X15.4856 Y6.4365
G01 X15.5051 Y6.4298
G01 X15.5249 Y6.4242
G01 X15.5532 Y6.4178
G01 X15.5735 Y6.4145
G01 X15.5940 Y6.4122
G01 X15.6310 Y6.4105
G01 X16.8810 Y6.4105
G01 X16.9058 Y6.4113
G01 X16.9385 Y6.4145
G01 X16.9631 Y6.4186
G01 X16.9790 Y6.4221
G01 X17.0069 Y6.4298
G01 X17.0398 Y6.4417
G01 X17.0643 Y6.4527
G01 X17.0998 Y6.4720
G01 X17.1278 Y6.4907
G01 X17.1442 Y6.5032
G01 X17.1599 Y6.5165
G01 X17.1809 Y6.5365
G01 X17.1950 Y6.5516
G01 X17.2083 Y6.5673
G01 X17.2279 Y6.5937
G01 X17.2433 Y6.6182
G01 X17.2590 Y6.6476
G01 X17.2750 Y6.6851
G01 X17.2841 Y6.7126
G01 X17.2929 Y6.7484
G01 X17.2985 Y6.7852
G01 X17.3002 Y6.8057
G01 X17.3010 Y6.8305
G01 X17.3010 Y7.7555
G01 X17.3002 Y7.7803
G01 X17.2970 Y7.8130
G01 X17.2929 Y7.8376
G01 X17.2841 Y7.8734
G01 X17.2750 Y7.9009
G01 X17.2624 Y7.9313
G01 X17.2494 Y7.9571
G01 X17.2325 Y7.9853
G01 X17.2158 Y8.0090
G01 X17.1950 Y8.0344
G01 X17.1750 Y8.0554
G01 X17.1599 Y8.0695
G01 X17.1442 Y8.0828
G01 X17.1178 Y8.1024
G01 X17.0933 Y8.1178
G01 X17.0639 Y8.1336
G01 X17.0398 Y8.1443
G01 X17.0069 Y8.1562
G01 X16.9790 Y8.1639
G01 X16.9588 Y8.1682
G01 X16.9263 Y8.1730
G01 X16.9058 Y8.1747
G01 X16.8810 Y8.1755
G01 X16.6761 Y8.1755
G01 X16.6758 Y8.3984
G01 X16.6745 Y8.4190
G01 X16.6721 Y8.4395
G01 X16.6680 Y8.4641
G01 X16.6645 Y8.4800
G01 X16.6568 Y8.5079
G01 X16.6501 Y8.5274
G01 X16.6375 Y8.5578
G01 X16.6284 Y8.5763
G01 X16.6146 Y8.6008
G01 X16.6030 Y8.6188
G01 X16.5834 Y8.6453
G01 X16.5645 Y8.6672
G01 X14.0101 Y11.2220
G01 X13.9857 Y11.2441
G01 X13.9670 Y11.2589
G01 X13.9528 Y11.2690
G01 X13.9284 Y11.2845
G01 X13.8990 Y11.3002
G01 X13.8614 Y11.3161
G01 X13.8339 Y11.3252
G01 X13.7981 Y11.3340
G01 X13.7613 Y11.3396
G01 X13.7408 Y11.3414
G01 X13.7160 Y11.3421
G01 X10.9220 Y11.3421
G01 X10.8850 Y11.3405
G01 X10.8562 Y11.3369
G01 X10.8240 Y11.3305
G01 X10.8041 Y11.3252
G01 X10.7844 Y11.3189
G01 X10.7631 Y11.3109
G01 X10.7390 Y11.3002
G01 X10.7031 Y11.2806
G01 X10.6710 Y11.2589
G01 X10.6531 Y11.2448
G01 X10.6368 Y11.2305
G01 X10.3210 Y10.9151
G01 X10.3069 Y10.9000
G01 X10.2936 Y10.8843
G01 X10.2740 Y10.8578
G01 X10.2628 Y10.8405
G01 X10.2525 Y10.8227
G01 X10.2428 Y10.8040
G01 X10.2321 Y10.7799
G01 X10.2241 Y10.7586
G01 X10.2178 Y10.7389
G01 X10.2125 Y10.7190
G01 X10.2061 Y10.6868
G01 X10.2034 Y10.6663
G01 X10.2016 Y10.6458
G01 X10.2009 Y10.6210
G01 X10.2009 Y10.2598
G01 X10.1753 Y10.2469
G01 X10.1586 Y10.2373
G01 X10.1412 Y10.2260
G01 X10.1101 Y10.2025
G01 X10.0858 Y10.1806
G01 X10.0663 Y10.1600
G01 X10.0442 Y10.1330
G01 X10.0237 Y10.1025
G01 X10.0068 Y10.0721
G01 X7.6210 Y10.0721
G01 X7.6208 Y10.8159
G01 X7.6181 Y10.8394
G01 X7.6144 Y10.8548
G01 X7.6094 Y10.8698
G01 X7.6028 Y10.8846
G01 X7.5946 Y10.8990
G01 X7.5850 Y10.9126
G01 X7.5741 Y10.9252
G01 X7.5621 Y10.9367
G01 X7.5420 Y10.9516
G01 X7.5276 Y10.9598
G01 X7.5128 Y10.9664
G01 X7.4901 Y10.9734
G01 X7.4746 Y10.9764
G01 X7.4589 Y10.9778
G01 X6.6510 Y10.9780
G01 X6.6352 Y10.9773
G01 X6.6119 Y10.9734
G01 X6.5892 Y10.9664
G01 X6.5671 Y10.9559
G01 X6.5464 Y10.9420
G01 X6.5279 Y10.9252
G01 X6.5121 Y10.9060
G01 X6.4992 Y10.8846
G01 X6.4899 Y10.8623
G01 X6.4839 Y10.8394
G01 X6.4817 Y10.8238
G01 X6.4810 Y10.8080
G01 X6.4810 Y10.2781
G01 X4.0160 Y10.2781
G01 X3.9912 Y10.2774
G01 X3.9717 Y10.2758
G01 X3.9381 Y10.2708
G01 X3.9099 Y10.2645
G01 X3.8784 Y10.2549
G01 X3.8571 Y10.2469
G01 X3.8330 Y10.2362
G01 X3.8036 Y10.2205
G01 X3.7792 Y10.2050
G01 X3.7527 Y10.1854
G01 X3.7370 Y10.1721
G01 X3.7189 Y10.1551
G01 X3.2661 Y9.7023
G01 X3.2057 Y9.7362
G01 X3.1509 Y9.7638
G01 X3.0872 Y9.7923
G01 X3.0144 Y9.8203
G01 X2.9482 Y9.8420
G01 X2.8810 Y9.8604
G01 X2.8172 Y9.8747
G01 X2.7525 Y9.8860
G01 X2.6833 Y9.8947
G01 X2.6138 Y9.9000
G01 X2.5400 Y9.9020
G01 X2.4745 Y9.9004
G01 X2.3977 Y9.8948
G01 X2.3275 Y9.8860
G01 X2.2628 Y9.8747
G01 X2.1990 Y9.8604
G01 X2.1318 Y9.8420
G01 X2.0656 Y9.8203
G01 X1.9928 Y9.7923
G01 X1.9295 Y9.7640
G01 X1.8743 Y9.7362
G01 X1.8071 Y9.6982
G01 X1.7546 Y9.6650
G01 X1.6975 Y9.6250
G01 X1.6368 Y9.5777
G01 X1.5833 Y9.5313
G01 X1.5359 Y9.4861
G01 X1.4907 Y9.4387
G01 X1.4397 Y9.3796
G01 X1.4000 Y9.3286
G01 X1.3617 Y9.2744
G01 X1.3199 Y9.2084
G01 X1.2858 Y9.1477
G01 X1.2580 Y9.0925
G01 X1.2265 Y9.0215
G01 X1.2045 Y8.9643
G01 X1.1824 Y8.8982
G01 X1.1616 Y8.8230
G01 X1.1473 Y8.7592
G01 X1.1360 Y8.6945
G01 X1.1265 Y8.6170
G01 X1.1216 Y8.5475
G00 Z1.9990
G00 X1.0617 Y8.5490
G01 F100.00
G01 Z-0.0700
G01 F500.00
G01 X1.0600 Y8.4820
G01 X1.0600 Y8.2820
G01 X1.0616 Y8.2150
G01 X1.0666 Y8.1426
G01 X1.0753 Y8.0704
G01 X1.0885 Y7.9930
G01 X1.1058 Y7.9169
G01 X1.1254 Y7.8470
G01 X1.1485 Y7.7781
G01 X1.1716 Y7.7182
G01 X1.1997 Y7.6544
G01 X1.2322 Y7.5893
G01 X1.2729 Y7.5173
G01 X1.3126 Y7.4551
G01 X1.3520 Y7.3994
G01 X1.3924 Y7.3475
G01 X1.4397 Y7.2923
G01 X1.4935 Y7.2355
G01 X1.5503 Y7.1817
G01 X1.6055 Y7.1344
G01 X1.6574 Y7.0940
G01 X1.7131 Y7.0546
G01 X1.7743 Y7.0155
G01 X1.8374 Y6.9795
G01 X1.9124 Y6.9417
G01 X1.9762 Y6.9136
G01 X2.0361 Y6.8905
G01 X2.1050 Y6.8674
G01 X2.1749 Y6.8478
G01 X2.2568 Y6.8294
G01 X2.3284 Y6.8173
G01 X2.3893 Y6.8097
G01 X2.4617 Y6.8041
G01 X2.5400 Y6.8020
G01 X2.6070 Y6.8036
G01 X2.6893 Y6.8096
G01 X2.7627 Y6.8189
G01 X2.8290 Y6.8305
G01 X2.8941 Y6.8450
G01 X2.9642 Y6.8642
G01 X3.0333 Y6.8867
G01 X3.1011 Y6.9126
G01 X3.1676 Y6.9417
G01 X3.2327 Y6.9742
G01 X3.3047 Y7.0149
G01 X3.3669 Y7.0546
G01 X3.4261 Y7.0967
G01 X3.4821 Y7.1407
G01 X3.5297 Y7.1817
G01 X3.5865 Y7.2355
G01 X3.6328 Y7.2840
G01 X3.6804 Y7.3388
G01 X3.7280 Y7.3994
G01 X3.7737 Y7.4645
G01 X3.8123 Y7.5260
G01 X3.8478 Y7.5893
G01 X3.8803 Y7.6544
G01 X3.9084 Y7.7182
G01 X3.9315 Y7.7781
G01 X3.9546 Y7.8470
G01 X3.9742 Y7.9169
G01 X3.9926 Y7.9988
G01 X4.0047 Y8.0704
G01 X4.0123 Y8.1313
G01 X4.0179 Y8.2037
G01 X4.0200 Y8.2820
G01 X4.0200 Y8.4820
G01 X4.0184 Y8.5490
G01 X4.0134 Y8.6214
G01 X4.0047 Y8.6936
G01 X3.9904 Y8.7763
G01 X3.9770 Y8.8361
G01 X3.9578 Y8.9062
G01 X3.9315 Y8.9859
G01 X3.9084 Y9.0458
G01 X3.9006 Y9.0636
G01 X4.2149 Y9.3779
G01 X6.4210 Y9.3779
G01 X6.4210 Y8.9080
G01 X6.4220 Y8.8867
G01 X6.4250 Y8.8655
G01 X6.4331 Y8.8345
G01 X6.4408 Y8.8146
G01 X6.4456 Y8.8044
G01 X6.4568 Y8.7848
G01 X6.4630 Y8.7755
G01 X6.4769 Y8.7577
G01 X6.4844 Y8.7494
G01 X6.4924 Y8.7414
G01 X6.5094 Y8.7267
G01 X6.5278 Y8.7138
G01 X6.5375 Y8.7080
G01 X6.5474 Y8.7026
G01 X6.5675 Y8.6937
G01 X6.5877 Y8.6869
G01 X6.6085 Y8.6820
G01 X6.6403 Y8.6782
G01 X7.4617 Y8.6782
G01 X7.4935 Y8.6820
G01 X7.5143 Y8.6869
G01 X7.5345 Y8.6937
G01 X7.5546 Y8.7026
G01 X7.5742 Y8.7138
G01 X7.5926 Y8.7267
G01 X7.6096 Y8.7414
G01 X7.6251 Y8.7577
G01 X7.6390 Y8.7755
G01 X7.6510 Y8.7945
G01 X7.6612 Y8.8146
G01 X7.6721 Y8.8447
G01 X7.6788 Y8.8760
G01 X7.6808 Y8.8973
G01 X7.6810 Y9.1719
G01 X9.9714 Y9.1719
G01 X9.9962 Y9.1350
G01 X10.0123 Y9.1147
G01 X10.0284 Y9.0964
G01 X10.0404 Y9.0839
G01 X10.0613 Y9.0644
G01 X10.0915 Y9.0397
G01 X10.1160 Y9.0227
G01 X10.1355 Y9.0107
G01 X10.1556 Y8.9996
G01 X10.1763 Y8.9895
G01 X10.1947 Y8.9815
G01 X10.2188 Y8.9725
G01 X10.2407 Y8.9656
G01 X10.2629 Y8.9597
G01 X10.2853 Y8.9549
G01 X10.3196 Y8.9499
G01 X10.3424 Y8.9479
G01 X10.3654 Y8.9471
G01 X10.8710 Y8.9470
G01 X10.8996 Y8.9479
G01 X10.9211 Y8.9497
G01 X10.9567 Y8.9549
G01 X10.9901 Y8.9624
G01 X11.0121 Y8.9688
G01 X11.0338 Y8.9763
G01 X11.0657 Y8.9895
G01 X11.0963 Y9.0049
G01 X11.1152 Y9.0159
G01 X11.1354 Y9.0290
G01 X11.1505 Y9.0397
G01 X11.1708 Y9.0558
G01 X11.1975 Y9.0800
G01 X11.2211 Y9.1048
G01 X11.2458 Y9.1350
G01 X11.2690 Y9.1694
G01 X11.2859 Y9.1991
G01 X11.3040 Y9.2382
G01 X11.3167 Y9.2734
G01 X11.3231 Y9.2954
G01 X11.3283 Y9.3178
G01 X11.3342 Y9.3515
G01 X11.3376 Y9.3859
G01 X11.3385 Y9.4145
G01 X11.3385 Y9.8895
G01 X11.3376 Y9.9181
G01 X11.3358 Y9.9396
G01 X11.3295 Y9.9809
G01 X11.3231 Y10.0086
G01 X11.3167 Y10.0306
G01 X11.3092 Y10.0523
G01 X11.3007 Y10.0736
G01 X11.2914 Y10.0939
G01 X11.2806 Y10.1148
G01 X11.2628 Y10.1445
G01 X11.2498 Y10.1634
G01 X11.2359 Y10.1817
G01 X11.2211 Y10.1992
G01 X11.2016 Y10.2201
G01 X11.1807 Y10.2396
G01 X11.1632 Y10.2544
G01 X11.1449 Y10.2683
G01 X11.1260 Y10.2813
G01 X11.1011 Y10.2964
G01 X11.1011 Y10.4221
G01 X11.1209 Y10.4419
G01 X13.5171 Y10.4419
G01 X15.7235 Y8.2355
G01 X15.6310 Y8.2355
G01 X15.6018 Y8.2346
G01 X15.5662 Y8.2311
G01 X15.5318 Y8.2251
G01 X15.5089 Y8.2197
G01 X15.4863 Y8.2131
G01 X15.4499 Y8.2000
G01 X15.4097 Y8.1814
G01 X15.3891 Y8.1701
G01 X15.3691 Y8.1577
G01 X15.3496 Y8.1443
G01 X15.3309 Y8.1301
G01 X15.3129 Y8.1149
G01 X15.2916 Y8.0949
G01 X15.2636 Y8.0643
G01 X15.2462 Y8.0424
G01 X15.2351 Y8.0268
G01 X15.2223 Y8.0071
G01 X15.2104 Y7.9867
G01 X15.1947 Y7.9556
G01 X15.1865 Y7.9366
G01 X15.1772 Y7.9119
G01 X15.1701 Y7.8894
G01 X15.1641 Y7.8666
G01 X15.1571 Y7.8315
G01 X15.1539 Y7.8082
G01 X15.1519 Y7.7847
G01 X15.1510 Y7.7555
G01 X15.1510 Y6.8305
G01 X15.1528 Y6.7891
G01 X15.1554 Y6.7657
G01 X15.1592 Y6.7424
G01 X15.1668 Y6.7084
G01 X15.1734 Y6.6858
G01 X15.1810 Y6.6635
G01 X15.1898 Y6.6416
G01 X15.1993 Y6.6208
G01 X15.2104 Y6.5993
G01 X15.2217 Y6.5799
G01 X15.2422 Y6.5491
G01 X15.2564 Y6.5304
G01 X15.2716 Y6.5124
G01 X15.2956 Y6.4871
G01 X15.3129 Y6.4711
G01 X15.3309 Y6.4559
G01 X15.3597 Y6.4346
G01 X15.3794 Y6.4218
G01 X15.3998 Y6.4099
G01 X15.4309 Y6.3942
G01 X15.4640 Y6.3805
G01 X15.4863 Y6.3729
G01 X15.5089 Y6.3663
G01 X15.5429 Y6.3587
G01 X15.5662 Y6.3549
G01 X15.5896 Y6.3523
G01 X15.6310 Y6.3505
G01 X16.8810 Y6.3505
G01 X16.9102 Y6.3514
G01 X16.9458 Y6.3549
G01 X16.9691 Y6.3587
G01 X16.9921 Y6.3636
G01 X17.0257 Y6.3729
G01 X17.0621 Y6.3860
G01 X17.0913 Y6.3991
G01 X17.1122 Y6.4099
G01 X17.1316 Y6.4212
G01 X17.1624 Y6.4417
G01 X17.1811 Y6.4559
G01 X17.1991 Y6.4711
G01 X17.2244 Y6.4951
G01 X17.2404 Y6.5124
G01 X17.2556 Y6.5304
G01 X17.2769 Y6.5592
G01 X17.2956 Y6.5886
G01 X17.3127 Y6.6208
G01 X17.3222 Y6.6416
G01 X17.3310 Y6.6635
G01 X17.3419 Y6.6966
G01 X17.3517 Y6.7366
G01 X17.3581 Y6.7778
G01 X17.3601 Y6.8013
G01 X17.3610 Y6.8305
G01 X17.3610 Y7.7555
G01 X17.3592 Y7.7969
G01 X17.3549 Y7.8315
G01 X17.3479 Y7.8666
G01 X17.3386 Y7.9002
G01 X17.3266 Y7.9339
G01 X17.3127 Y7.9652
G01 X17.3016 Y7.9867
G01 X17.2832 Y8.0174
G01 X17.2631 Y8.0459
G01 X17.2404 Y8.0736
G01 X17.2204 Y8.0949
G01 X17.1991 Y8.1149
G01 X17.1679 Y8.1403
G01 X17.1429 Y8.1577
G01 X17.1122 Y8.1761
G01 X17.0811 Y8.1918
G01 X17.0480 Y8.2055
G01 X17.0149 Y8.2164
G01 X16.9921 Y8.2224
G01 X16.9570 Y8.2294
G01 X16.9224 Y8.2337
G01 X16.8810 Y8.2355
G01 X16.7361 Y8.2355
G01 X16.7361 Y8.3820
G01 X16.7352 Y8.4112
G01 X16.7334 Y8.4333
G01 X16.7300 Y8.4580
G01 X16.7269 Y8.4759
G01 X16.7203 Y8.5041
G01 X16.7099 Y8.5384
G01 X16.7006 Y8.5631
G01 X16.6878 Y8.5918
G01 X16.6767 Y8.6133
G01 X16.6583 Y8.6440
G01 X16.6449 Y8.6634
G01 X16.6244 Y8.6898
G01 X16.6079 Y8.7086
G01 X14.0426 Y11.2739
G01 X14.0162 Y11.2967
G01 X13.9874 Y11.3180
G01 X13.9676 Y11.3309
G01 X13.9473 Y11.3427
G01 X13.9161 Y11.3584
G01 X13.8971 Y11.3666
G01 X13.8724 Y11.3759
G01 X13.8381 Y11.3863
G01 X13.8041 Y11.3939
G01 X13.7687 Y11.3992
G01 X13.7452 Y11.4012
G01 X13.7160 Y11.4021
G01 X10.9220 Y11.4021
G01 X10.8806 Y11.4003
G01 X10.8460 Y11.3960
G01 X10.8108 Y11.3890
G01 X10.7880 Y11.3830
G01 X10.7656 Y11.3759
G01 X10.7409 Y11.3666
G01 X10.7219 Y11.3584
G01 X10.7007 Y11.3480
G01 X10.6800 Y11.3367
G01 X10.6600 Y11.3243
G01 X10.6406 Y11.3109
G01 X10.6218 Y11.2967
G01 X10.6038 Y11.2815
G01 X10.5825 Y11.2615
G01 X10.2776 Y10.9565
G01 X10.2615 Y10.9392
G01 X10.2463 Y10.9212
G01 X10.2321 Y10.9024
G01 X10.2187 Y10.8830
G01 X10.2003 Y10.8523
G01 X10.1894 Y10.8314
G01 X10.1796 Y10.8099
G01 X10.1709 Y10.7880
G01 X10.1600 Y10.7550
G01 X10.1540 Y10.7322
G01 X10.1491 Y10.7091
G01 X10.1453 Y10.6859
G01 X10.1418 Y10.6502
G01 X10.1409 Y10.6210
G01 X10.1409 Y10.2964
G01 X10.1160 Y10.2813
G01 X10.0915 Y10.2643
G01 X10.0712 Y10.2482
G01 X10.0445 Y10.2240
G01 X10.0209 Y10.1992
G01 X10.0061 Y10.1817
G01 X9.9855 Y10.1539
G01 X9.9715 Y10.1321
G01 X7.6810 Y10.1321
G01 X7.6810 Y10.8080
G01 X7.6800 Y10.8293
G01 X7.6770 Y10.8505
G01 X7.6721 Y10.8713
G01 X7.6653 Y10.8915
G01 X7.6564 Y10.9116
G01 X7.6452 Y10.9312
G01 X7.6323 Y10.9496
G01 X7.6176 Y10.9666
G01 X7.6013 Y10.9821
G01 X7.5835 Y10.9960
G01 X7.5742 Y11.0022
G01 X7.5546 Y11.0134
G01 X7.5345 Y11.0223
G01 X7.5040 Y11.0318
G01 X7.4830 Y11.0358
G01 X7.4617 Y11.0378
G01 X6.6510 Y11.0380
G01 X6.6190 Y11.0358
G01 X6.5980 Y11.0318
G01 X6.5675 Y11.0223
G01 X6.5474 Y11.0134
G01 X6.5375 Y11.0080
G01 X6.5278 Y11.0022
G01 X6.5094 Y10.9893
G01 X6.5007 Y10.9821
G01 X6.4844 Y10.9666
G01 X6.4697 Y10.9496
G01 X6.4568 Y10.9312
G01 X6.4510 Y10.9215
G01 X6.4456 Y10.9116
G01 X6.4367 Y10.8915
G01 X6.4272 Y10.8610
G01 X6.4220 Y10.8293
G01 X6.4210 Y10.8080
G01 X6.4210 Y10.3381
G01 X4.0160 Y10.3381
G01 X3.9868 Y10.3372
G01 X3.9647 Y10.3354
G01 X3.9279 Y10.3299
G01 X3.8939 Y10.3223
G01 X3.8596 Y10.3119
G01 X3.8349 Y10.3026
G01 X3.8062 Y10.2898
G01 X3.7740 Y10.2727
G01 X3.7446 Y10.2540
G01 X3.7158 Y10.2327
G01 X3.6978 Y10.2175
G01 X3.6765 Y10.1975
G01 X3.2560 Y9.7770
G01 X3.2327 Y9.7898
G01 X3.1773 Y9.8177
G01 X3.1038 Y9.8504
G01 X3.0333 Y9.8773
G01 X2.9642 Y9.8998
G01 X2.8941 Y9.9190
G01 X2.8290 Y9.9335
G01 X2.7627 Y9.9451
G01 X2.6794 Y9.9554
G01 X2.6070 Y9.9604
G01 X2.5400 Y9.9620
G01 X2.4730 Y9.9604
G01 X2.4006 Y9.9554
G01 X2.3284 Y9.9467
G01 X2.2510 Y9.9335
G01 X2.1749 Y9.9162
G01 X2.1050 Y9.8966
G01 X2.0361 Y9.8735
G01 X1.9762 Y9.8504
G01 X1.9124 Y9.8223
G01 X1.8374 Y9.7845
G01 X1.7753 Y9.7491
G01 X1.7225 Y9.7157
G01 X1.6539 Y9.6673
G01 X1.5979 Y9.6233
G01 X1.5503 Y9.5823
G01 X1.4935 Y9.5285
G01 X1.4397 Y9.4717
G01 X1.3996 Y9.4252
G01 X1.3547 Y9.3681
G01 X1.3063 Y9.2995
G01 X1.2735 Y9.2477
G01 X1.2375 Y9.1846
G01 X1.2043 Y9.1193
G01 X1.1706 Y9.0431
G01 X1.1485 Y8.9859
G01 X1.1254 Y8.9170
G01 X1.1030 Y8.8361
G01 X1.0885 Y8.7710
G01 X1.0769 Y8.7047
G01 X1.0666 Y8.6214
G01 X1.0617 Y8.5490
G00 Z1.9990
G00 X1.0017 Y8.5504
G01 F100.00
G01 Z-0.0700
G01 F500.00
G01 X1.0000 Y8.4820
G01 X1.0001 Y8.2749
G01 X1.0023 Y8.1993
G01 X1.0080 Y8.1257
G01 X1.0178 Y8.0490
G01 X1.0311 Y7.9746
G01 X1.0445 Y7.9147
G01 X1.0643 Y7.8418
G01 X1.0877 Y7.7699
G01 X1.1159 Y7.6959
G01 X1.1506 Y7.6179
G01 X1.1853 Y7.5498
G01 X1.2221 Y7.4854
G01 X1.2636 Y7.4206
G01 X1.3040 Y7.3634
G01 X1.3451 Y7.3106
G01 X1.3942 Y7.2531
G01 X1.4511 Y7.1931
G01 X1.5111 Y7.1362
G01 X1.5686 Y7.0871
G01 X1.6214 Y7.0460
G01 X1.6786 Y7.0056
G01 X1.7422 Y6.9648
G01 X1.8078 Y6.9273
G01 X1.8880 Y6.8869
G01 X1.9539 Y6.8579
G01 X2.0145 Y6.8345
G01 X2.0862 Y6.8105
G01 X2.1589 Y6.7900
G01 X2.2466 Y6.7703
G01 X2.3211 Y6.7577
G01 X2.3820 Y6.7502
G01 X2.4573 Y6.7443
G01 X2.5400 Y6.7420
G01 X2.6085 Y6.7436
G01 X2.6963 Y6.7500
G01 X2.7730 Y6.7598
G01 X2.8407 Y6.7716
G01 X2.9073 Y6.7865
G01 X2.9802 Y6.8063
G01 X3.0521 Y6.8297
G01 X3.1227 Y6.8566
G01 X3.1920 Y6.8869
G01 X3.2596 Y6.9206
G01 X3.3366 Y6.9641
G01 X3.4014 Y7.0056
G01 X3.4630 Y7.0494
G01 X3.5211 Y7.0950
G01 X3.5689 Y7.1362
G01 X3.6289 Y7.1931
G01 X3.6762 Y7.2426
G01 X3.7259 Y7.2996
G01 X3.7760 Y7.3634
G01 X3.8243 Y7.4324
G01 X3.8645 Y7.4964
G01 X3.9014 Y7.5624
G01 X3.9351 Y7.6300
G01 X3.9641 Y7.6959
G01 X3.9875 Y7.7565
G01 X4.0115 Y7.8282
G01 X4.0320 Y7.9009
G01 X4.0517 Y7.9886
G01 X4.0643 Y8.0631
G01 X4.0718 Y8.1240
G01 X4.0777 Y8.1993
G01 X4.0800 Y8.2820
G01 X4.0800 Y8.4820
G01 X4.0784 Y8.5505
G01 X4.0732 Y8.6259
G01 X4.0643 Y8.7009
G01 X4.0503 Y8.7827
G01 X4.0320 Y8.8631
G01 X4.0115 Y8.9358
G01 X3.9923 Y8.9941
G01 X3.9713 Y9.0495
G01 X4.2397 Y9.3179
G01 X6.3610 Y9.3179
G01 X6.3613 Y8.8945
G01 X6.3638 Y8.8677
G01 X6.3688 Y8.8412
G01 X6.3762 Y8.8153
G01 X6.3808 Y8.8027
G01 X6.3921 Y8.7774
G01 X6.3988 Y8.7649
G01 X6.4061 Y8.7527
G01 X6.4224 Y8.7295
G01 X6.4410 Y8.7080
G01 X6.4510 Y8.6980
G01 X6.4615 Y8.6884
G01 X6.4839 Y8.6710
G01 X6.5079 Y8.6558
G01 X6.5204 Y8.6491
G01 X6.5332 Y8.6430
G01 X6.5583 Y8.6332
G01 X6.5712 Y8.6292
G01 X6.5974 Y8.6230
G01 X6.6241 Y8.6193
G01 X6.6375 Y8.6183
G01 X7.4645 Y8.6183
G01 X7.4913 Y8.6208
G01 X7.5178 Y8.6258
G01 X7.5437 Y8.6332
G01 X7.5688 Y8.6430
G01 X7.5941 Y8.6558
G01 X7.6181 Y8.6710
G01 X7.6405 Y8.6884
G01 X7.6610 Y8.7080
G01 X7.6796 Y8.7295
G01 X7.6959 Y8.7527
G01 X7.7099 Y8.7774
G01 X7.7212 Y8.8027
G01 X7.7258 Y8.8153
G01 X7.7332 Y8.8412
G01 X7.7382 Y8.8677
G01 X7.7407 Y8.8945
G01 X7.7410 Y9.1119
G01 X9.9390 Y9.1119
G01 X9.9667 Y9.0758
G01 X9.9850 Y9.0550
G01 X10.0031 Y9.0365
G01 X10.0221 Y9.0189
G01 X10.0419 Y9.0023
G01 X10.0625 Y8.9866
G01 X10.0839 Y8.9720
G01 X10.1060 Y8.9585
G01 X10.1287 Y8.9460
G01 X10.1519 Y8.9347
G01 X10.1724 Y8.9258
G01 X10.2111 Y8.9119
G01 X10.2359 Y8.9046
G01 X10.2611 Y8.8986
G01 X10.2866 Y8.8938
G01 X10.3122 Y8.8903
G01 X10.3380 Y8.8881
G01 X10.3710 Y8.8870
G01 X10.8710 Y8.8870
G01 X10.9040 Y8.8881
G01 X10.9413 Y8.8918
G01 X10.9742 Y8.8972
G01 X11.0173 Y8.9077
G01 X11.0554 Y8.9203
G01 X11.0794 Y8.9300
G01 X11.1022 Y8.9404
G01 X11.1259 Y8.9527
G01 X11.1471 Y8.9650
G01 X11.1795 Y8.9866
G01 X11.2097 Y9.0102
G01 X11.2440 Y9.0415
G01 X11.2742 Y9.0744
G01 X11.2989 Y9.1060
G01 X11.3135 Y9.1274
G01 X11.3270 Y9.1495
G01 X11.3451 Y9.1833
G01 X11.3555 Y9.2061
G01 X11.3652 Y9.2301
G01 X11.3778 Y9.2682
G01 X11.3883 Y9.3113
G01 X11.3937 Y9.3442
G01 X11.3974 Y9.3815
G01 X11.3985 Y9.4145
G01 X11.3985 Y9.8895
G01 X11.3974 Y9.9225
G01 X11.3954 Y9.9466
G01 X11.3917 Y9.9739
G01 X11.3869 Y9.9994
G01 X11.3809 Y10.0246
G01 X11.3736 Y10.0494
G01 X11.3610 Y10.0848
G01 X11.3451 Y10.1207
G01 X11.3270 Y10.1545
G01 X11.3135 Y10.1766
G01 X11.2938 Y10.2050
G01 X11.2753 Y10.2282
G01 X11.2570 Y10.2490
G01 X11.2305 Y10.2755
G01 X11.2111 Y10.2927
G01 X11.1865 Y10.3123
G01 X11.1611 Y10.3299
G01 X11.1611 Y10.3819
G01 X12.0069 Y10.3819
G01 X11.9769 Y10.3693
G01 X11.9537 Y10.3580
G01 X11.9199 Y10.3390
G01 X11.8971 Y10.3241
G01 X11.8805 Y10.3123
G01 X11.8559 Y10.2927
G01 X11.8365 Y10.2755
G01 X11.8100 Y10.2490
G01 X11.7928 Y10.2296
G01 X11.7732 Y10.2050
G01 X11.7535 Y10.1766
G01 X11.7400 Y10.1545
G01 X11.7275 Y10.1318
G01 X11.7115 Y10.0979
G01 X11.7018 Y10.0739
G01 X11.6892 Y10.0358
G01 X11.6801 Y9.9994
G01 X11.6753 Y9.9739
G01 X11.6718 Y9.9483
G01 X11.6689 Y9.9083
G01 X11.6685 Y9.4145
G01 X11.6704 Y9.3699
G01 X11.6753 Y9.3301
G01 X11.6827 Y9.2933
G01 X11.6934 Y9.2546
G01 X11.7018 Y9.2301
G01 X11.7115 Y9.2061
G01 X11.7219 Y9.1833
G01 X11.7342 Y9.1596
G01 X11.7465 Y9.1384
G01 X11.7614 Y9.1156
G01 X11.7732 Y9.0990
G01 X11.7917 Y9.0758
G01 X11.8230 Y9.0415
G01 X11.8471 Y9.0189
G01 X11.8669 Y9.0023
G01 X11.8875 Y8.9866
G01 X11.9089 Y8.9720
G01 X11.9310 Y8.9585
G01 X11.9537 Y8.9460
G01 X11.9769 Y8.9347
G01 X11.9974 Y8.9258
G01 X12.0361 Y8.9119
G01 X12.0609 Y8.9046
G01 X12.0861 Y8.8986
G01 X12.1116 Y8.8938
G01 X12.1372 Y8.8903
G01 X12.1630 Y8.8881
G01 X12.1960 Y8.8870
G01 X12.4471 Y8.8870
G01 X12.4909 Y8.8433
G01 X12.4909 Y8.7946
G01 X12.4686 Y8.7887
G01 X12.4433 Y8.7807
G01 X12.4053 Y8.7661
G01 X12.3703 Y8.7495
G01 X12.3470 Y8.7368
G01 X12.3245 Y8.7229
G01 X12.2912 Y8.6994
G01 X12.2718 Y8.6840
G01 X12.2506 Y8.6653
G01 X12.2232 Y8.6379
G01 X12.2057 Y8.6180
G01 X12.1891 Y8.5973
G01 X12.1656 Y8.5640
G01 X12.1457 Y8.5308
G01 X12.1274 Y8.4944
G01 X12.1125 Y8.4586
G01 X12.1039 Y8.4335
G01 X12.0930 Y8.3943
G01 X12.0855 Y8.3563
G01 X12.0805 Y8.3158
G01 X12.0785 Y8.2700
G01 X12.0785 Y6.9700
G01 X12.0805 Y6.9242
G01 X12.0834 Y6.8978
G01 X12.0876 Y6.8716
G01 X12.0965 Y6.8319
G01 X12.1078 Y6.7948
G01 X12.1224 Y6.7568
G01 X12.1390 Y6.7218
G01 X12.1583 Y6.6875
G01 X12.1806 Y6.6541
G01 X12.2045 Y6.6233
G01 X12.2232 Y6.6021
G01 X12.2506 Y6.5747
G01 X12.2815 Y6.5481
G01 X12.3126 Y6.5250
G01 X12.3470 Y6.5032
G01 X12.3819 Y6.4846
G01 X12.4151 Y6.4698
G01 X12.4550 Y6.4554
G01 X12.4909 Y6.4454
G01 X12.4909 Y5.9785
G01 X12.4561 Y5.9697
G01 X12.4174 Y5.9570
G01 X12.3816 Y5.9421
G01 X12.3452 Y5.9238
G01 X12.3120 Y5.9039
G01 X12.2831 Y5.8838
G01 X12.2487 Y5.8558
G01 X12.2242 Y5.8328
G01 X12.2012 Y5.8083
G01 X12.1732 Y5.7739
G01 X12.1531 Y5.7450
G01 X12.1332 Y5.7118
G01 X12.1149 Y5.6754
G01 X12.1000 Y5.6396
G01 X12.0873 Y5.6009
G01 X12.0805 Y5.5753
G01 X12.0730 Y5.5373
G01 X12.0694 Y5.5110
G01 X12.0671 Y5.4846
G01 X12.0660 Y5.4510
G01 X12.0660 Y4.2010
G01 X12.0680 Y4.1552
G01 X12.0709 Y4.1288
G01 X12.0751 Y4.1026
G01 X12.0840 Y4.0629
G01 X12.0953 Y4.0258
G01 X12.1058 Y3.9976
G01 X12.1149 Y3.9766
G01 X12.1332 Y3.9402
G01 X12.1458 Y3.9185
G01 X12.1610 Y3.8951
G01 X12.1732 Y3.8781
G01 X12.1920 Y3.8543
G01 X12.2192 Y3.8243
G01 X12.2487 Y3.7962
G01 X12.2690 Y3.7791
G01 X12.2901 Y3.7631
G01 X12.3120 Y3.7481
G01 X12.3345 Y3.7342
G01 X12.3694 Y3.7156
G01 X12.3928 Y3.7049
G01 X12.4174 Y3.6950
G01 X12.4561 Y3.6823
G01 X12.5004 Y3.6714
G01 X12.5460 Y3.6644
G01 X12.5724 Y3.6621
G01 X12.6060 Y3.6610
G01 X13.4254 Y3.6614
G01 X13.4643 Y3.6642
G01 X13.5116 Y3.6714
G01 X13.5559 Y3.6823
G01 X13.5946 Y3.6950
G01 X13.6304 Y3.7099
G01 X13.6668 Y3.7282
G01 X13.7000 Y3.7481
G01 X13.7289 Y3.7682
G01 X13.7633 Y3.7962
G01 X13.7878 Y3.8192
G01 X13.8108 Y3.8437
G01 X13.8388 Y3.8781
G01 X13.8589 Y3.9070
G01 X13.8788 Y3.9402
G01 X13.8971 Y3.9766
G01 X13.9120 Y4.0124
G01 X13.9247 Y4.0511
G01 X13.9341 Y4.0887
G01 X13.9411 Y4.1288
G01 X13.9449 Y4.1674
G01 X13.9460 Y4.2010
G01 X13.9460 Y5.4510
G01 X13.9440 Y5.4968
G01 X13.9390 Y5.5373
G01 X13.9315 Y5.5753
G01 X13.9247 Y5.6009
G01 X13.9120 Y5.6396
G01 X13.8971 Y5.6754
G01 X13.8788 Y5.7118
G01 X13.8589 Y5.7450
G01 X13.8388 Y5.7739
G01 X13.8188 Y5.7990
G01 X13.7928 Y5.8277
G01 X13.7739 Y5.8463
G01 X13.7430 Y5.8729
G01 X13.7119 Y5.8960
G01 X13.6775 Y5.9178
G01 X13.6426 Y5.9364
G01 X13.6094 Y5.9512
G01 X13.5711 Y5.9651
G01 X13.5711 Y6.4454
G01 X13.6070 Y6.4554
G01 X13.6469 Y6.4698
G01 X13.6801 Y6.4846
G01 X13.7150 Y6.5032
G01 X13.7494 Y6.5250
G01 X13.7708 Y6.5406
G01 X13.8008 Y6.5652
G01 X13.8303 Y6.5933
G01 X13.8563 Y6.6220
G01 X13.8814 Y6.6541
G01 X13.9029 Y6.6863
G01 X13.9230 Y6.7218
G01 X13.9396 Y6.7568
G01 X13.9542 Y6.7948
G01 X13.9655 Y6.8319
G01 X13.9731 Y6.8644
G01 X13.9801 Y6.9100
G01 X13.9824 Y6.9364
G01 X13.9835 Y6.9700
G01 X13.9835 Y8.2700
G01 X13.9815 Y8.3158
G01 X13.9765 Y8.3563
G01 X13.9690 Y8.3943
G01 X13.9581 Y8.4335
G01 X13.9437 Y8.4734
G01 X13.9289 Y8.5066
G01 X13.9103 Y8.5415
G01 X13.8885 Y8.5759
G01 X13.8654 Y8.6070
G01 X13.8388 Y8.6379
G01 X13.8114 Y8.6653
G01 X13.7805 Y8.6919
G01 X13.7494 Y8.7150
G01 X13.7150 Y8.7368
G01 X13.6801 Y8.7554
G01 X13.6469 Y8.7702
G01 X13.6070 Y8.7846
G01 X13.5711 Y8.7946
G01 X13.5711 Y9.0670
G01 X13.5700 Y9.1006
G01 X13.5677 Y9.1270
G01 X13.5620 Y9.1654
G01 X13.5566 Y9.1913
G01 X13.5498 Y9.2170
G01 X13.5371 Y9.2556
G01 X13.5272 Y9.2802
G01 X13.5161 Y9.3043
G01 X13.5039 Y9.3278
G01 X13.4913 Y9.3496
G01 X13.4761 Y9.3729
G01 X13.4605 Y9.3944
G01 X13.4439 Y9.4151
G01 X13.4179 Y9.4438
G01 X13.2235 Y9.6384
G01 X13.2235 Y9.8895
G01 X13.2216 Y9.9341
G01 X13.2167 Y9.9739
G01 X13.2093 Y10.0107
G01 X13.2028 Y10.0358
G01 X13.1950 Y10.0605
G01 X13.1805 Y10.0979
G01 X13.1701 Y10.1207
G01 X13.1578 Y10.1444
G01 X13.1455 Y10.1656
G01 X13.1306 Y10.1884
G01 X13.1188 Y10.2050
G01 X13.1003 Y10.2282
G01 X13.0820 Y10.2490
G01 X13.0639 Y10.2675
G01 X13.0449 Y10.2851
G01 X13.0251 Y10.3017
G01 X13.0045 Y10.3174
G01 X12.9831 Y10.3320
G01 X12.9610 Y10.3455
G01 X12.9383 Y10.3580
G01 X12.9151 Y10.3693
G01 X12.8851 Y10.3819
G01 X13.4923 Y10.3819
G01 X15.5810 Y8.2931
G01 X15.5588 Y8.2906
G01 X15.5326 Y8.2864
G01 X15.4929 Y8.2775
G01 X15.4558 Y8.2662
G01 X15.4276 Y8.2557
G01 X15.4066 Y8.2466
G01 X15.3702 Y8.2283
G01 X15.3485 Y8.2157
G01 X15.3251 Y8.2005
G01 X15.2940 Y8.1774
G01 X15.2631 Y8.1508
G01 X15.2442 Y8.1322
G01 X15.2262 Y8.1128
G01 X15.1982 Y8.0784
G01 X15.1716 Y8.0392
G01 X15.1515 Y8.0037
G01 X15.1349 Y7.9687
G01 X15.1203 Y7.9307
G01 X15.1123 Y7.9054
G01 X15.1055 Y7.8798
G01 X15.0980 Y7.8418
G01 X15.0930 Y7.8013
G01 X15.0910 Y7.7555
G01 X15.0910 Y6.8305
G01 X15.0921 Y6.7969
G01 X15.0959 Y6.7583
G01 X15.1001 Y6.7321
G01 X15.1055 Y6.7062
G01 X15.1123 Y6.6806
G01 X15.1203 Y6.6553
G01 X15.1308 Y6.6271
G01 X15.1399 Y6.6061
G01 X15.1582 Y6.5697
G01 X15.1708 Y6.5480
G01 X15.1860 Y6.5246
G01 X15.1982 Y6.5076
G01 X15.2170 Y6.4838
G01 X15.2492 Y6.4487
G01 X15.2737 Y6.4257
G01 X15.2940 Y6.4086
G01 X15.3251 Y6.3855
G01 X15.3595 Y6.3637
G01 X15.3944 Y6.3451
G01 X15.4310 Y6.3290
G01 X15.4675 Y6.3159
G01 X15.5067 Y6.3050
G01 X15.5447 Y6.2975
G01 X15.5710 Y6.2939
G01 X15.5974 Y6.2916
G01 X15.6310 Y6.2905
G01 X16.8810 Y6.2905
G01 X16.9268 Y6.2925
G01 X16.9673 Y6.2975
G01 X17.0053 Y6.3050
G01 X17.0309 Y6.3118
G01 X17.0562 Y6.3198
G01 X17.0942 Y6.3344
G01 X17.1292 Y6.3510
G01 X17.1635 Y6.3703
G01 X17.1869 Y6.3855
G01 X17.2039 Y6.3977
G01 X17.2383 Y6.4257
G01 X17.2678 Y6.4538
G01 X17.2858 Y6.4732
G01 X17.3029 Y6.4935
G01 X17.3260 Y6.5246
G01 X17.3478 Y6.5590
G01 X17.3664 Y6.5939
G01 X17.3771 Y6.6173
G01 X17.3870 Y6.6419
G01 X17.3997 Y6.6806
G01 X17.4106 Y6.7249
G01 X17.4176 Y6.7705
G01 X17.4199 Y6.7969
G01 X17.4210 Y6.8305
G01 X17.4210 Y7.7555
G01 X17.4190 Y7.8013
G01 X17.4140 Y7.8418
G01 X17.4065 Y7.8798
G01 X17.3956 Y7.9190
G01 X17.3825 Y7.9555
G01 X17.3664 Y7.9921
G01 X17.3538 Y8.0163
G01 X17.3339 Y8.0495
G01 X17.3104 Y8.0828
G01 X17.2858 Y8.1128
G01 X17.2628 Y8.1373
G01 X17.2383 Y8.1603
G01 X17.2039 Y8.1883
G01 X17.1750 Y8.2084
G01 X17.1418 Y8.2283
G01 X17.1176 Y8.2409
G01 X17.0844 Y8.2557
G01 X17.0562 Y8.2662
G01 X17.0191 Y8.2775
G01 X16.9866 Y8.2851
G01 X16.9532 Y8.2906
G01 X16.9268 Y8.2935
G01 X16.9004 Y8.2951
G01 X16.7961 Y8.2955
G01 X16.7960 Y8.3891
G01 X16.7950 Y8.4156
G01 X16.7929 Y8.4403
G01 X16.7891 Y8.4683
G01 X16.7843 Y8.4943
G01 X16.7781 Y8.5201
G01 X16.7669 Y8.5572
G01 X16.7563 Y8.5854
G01 X16.7472 Y8.6065
G01 X16.7356 Y8.6303
G01 X16.7163 Y8.6646
G01 X16.7011 Y8.6879
G01 X16.6855 Y8.7094
G01 X16.6689 Y8.7301
G01 X16.6429 Y8.7588
G01 X14.0839 Y11.3174
G01 X14.0531 Y11.3440
G01 X14.0219 Y11.3671
G01 X13.9997 Y11.3815
G01 X13.9768 Y11.3949
G01 X13.9405 Y11.4132
G01 X13.9194 Y11.4223
G01 X13.8912 Y11.4329
G01 X13.8541 Y11.4441
G01 X13.8217 Y11.4517
G01 X13.7760 Y11.4587
G01 X13.7496 Y11.4610
G01 X13.7160 Y11.4621
G01 X10.9220 Y11.4621
G01 X10.8761 Y11.4601
G01 X10.8357 Y11.4551
G01 X10.7977 Y11.4476
G01 X10.7584 Y11.4367
G01 X10.7334 Y11.4281
G01 X10.7088 Y11.4182
G01 X10.6854 Y11.4075
G01 X10.6612 Y11.3949
G01 X10.6394 Y11.3823
G01 X10.6161 Y11.3671
G01 X10.5849 Y11.3440
G01 X10.5646 Y11.3269
G01 X10.5401 Y11.3039
G01 X10.2341 Y10.9978
G01 X10.2161 Y10.9784
G01 X10.1990 Y10.9581
G01 X10.1830 Y10.9370
G01 X10.1680 Y10.9151
G01 X10.1481 Y10.8818
G01 X10.1359 Y10.8583
G01 X10.1248 Y10.8342
G01 X10.1149 Y10.8096
G01 X10.1063 Y10.7846
G01 X10.0989 Y10.7591
G01 X10.0927 Y10.7333
G01 X10.0879 Y10.7073
G01 X10.0829 Y10.6669
G01 X10.0810 Y10.6281
G01 X10.0809 Y10.3300
G01 X10.0625 Y10.3174
G01 X10.0419 Y10.3017
G01 X10.0221 Y10.2851
G01 X10.0031 Y10.2675
G01 X9.9850 Y10.2490
G01 X9.9678 Y10.2296
G01 X9.9516 Y10.2094
G01 X9.9390 Y10.1921
G01 X7.7410 Y10.1921
G01 X7.7410 Y10.8080
G01 X7.7407 Y10.8215
G01 X7.7382 Y10.8483
G01 X7.7332 Y10.8748
G01 X7.7258 Y10.9007
G01 X7.7160 Y10.9258
G01 X7.7032 Y10.9511
G01 X7.6880 Y10.9751
G01 X7.6706 Y10.9975
G01 X7.6510 Y11.0180
G01 X7.6295 Y11.0366
G01 X7.6063 Y11.0529
G01 X7.5941 Y11.0602
G01 X7.5816 Y11.0669
G01 X7.5563 Y11.0782
G01 X7.5437 Y11.0828
G01 X7.5178 Y11.0902
G01 X7.4913 Y11.0952
G01 X7.4645 Y11.0977
G01 X6.6510 Y11.0980
G01 X6.6241 Y11.0967
G01 X6.6107 Y11.0952
G01 X6.5842 Y11.0902
G01 X6.5583 Y11.0828
G01 X6.5457 Y11.0782
G01 X6.5204 Y11.0669
G01 X6.5079 Y11.0602
G01 X6.4957 Y11.0529
G01 X6.4725 Y11.0366
G01 X6.4510 Y11.0180
G01 X6.4314 Y10.9975
G01 X6.4224 Y10.9865
G01 X6.4061 Y10.9633
G01 X6.3921 Y10.9386
G01 X6.3860 Y10.9258
G01 X6.3762 Y10.9007
G01 X6.3688 Y10.8748
G01 X6.3660 Y10.8616
G01 X6.3623 Y10.8349
G01 X6.3613 Y10.8215
G01 X6.3610 Y10.3981
G01 X4.0160 Y10.3981
G01 X3.9824 Y10.3970
G01 X3.9577 Y10.3949
G01 X3.9176 Y10.3890
G01 X3.8779 Y10.3801
G01 X3.8408 Y10.3689
G01 X3.8126 Y10.3583
G01 X3.7794 Y10.3435
G01 X3.7552 Y10.3309
G01 X3.7219 Y10.3110
G01 X3.6930 Y10.2909
G01 X3.6586 Y10.2629
G01 X3.6341 Y10.2399
G01 X3.2450 Y9.8508
G01 X3.1920 Y9.8771
G01 X3.1359 Y9.9020
G01 X3.0655 Y9.9295
G01 X2.9938 Y9.9535
G01 X2.9073 Y9.9775
G01 X2.8407 Y9.9924
G01 X2.7589 Y10.0063
G01 X2.6980 Y10.0138
G01 X2.6227 Y10.0197
G01 X2.5471 Y10.0219
G01 X2.4715 Y10.0204
G01 X2.3837 Y10.0140
G01 X2.3070 Y10.0042
G01 X2.2326 Y9.9909
G01 X2.1589 Y9.9740
G01 X2.0862 Y9.9535
G01 X2.0145 Y9.9295
G01 X1.9539 Y9.9061
G01 X1.8880 Y9.8771
G01 X1.8078 Y9.8367
G01 X1.7434 Y9.7999
G01 X1.6904 Y9.7663
G01 X1.6170 Y9.7146
G01 X1.5589 Y9.6690
G01 X1.5111 Y9.6278
G01 X1.4511 Y9.5709
G01 X1.3942 Y9.5109
G01 X1.3541 Y9.4644
G01 X1.3074 Y9.4050
G01 X1.2557 Y9.3316
G01 X1.2228 Y9.2798
G01 X1.1853 Y9.2142
G01 X1.1506 Y9.1461
G01 X1.1146 Y9.0647
G01 X1.0925 Y9.0075
G01 X1.0685 Y8.9358
G01 X1.0445 Y8.8493
G01 X1.0297 Y8.7827
G01 X1.0178 Y8.7150
G01 X1.0068 Y8.6259
G01 X1.0017 Y8.5504
G00 Z1.9990
G00 X5.4110 Y7.8080
G01 F100.00
G01 Z-0.0700
G01 F500.00
G01 X5.4113 Y5.8945
G01 X5.4138 Y5.8677
G01 X5.4160 Y5.8544
G01 X5.4188 Y5.8412
G01 X5.4262 Y5.8153
G01 X5.4360 Y5.7902
G01 X5.4421 Y5.7774
G01 X5.4561 Y5.7527
G01 X5.4724 Y5.7295
G01 X5.4910 Y5.7080
G01 X5.5010 Y5.6980
G01 X5.5115 Y5.6884
G01 X5.5339 Y5.6710
G01 X5.5609 Y5.6542
G01 X5.5609 Y5.4529
G01 X5.5424 Y5.4335
G01 X5.5250 Y5.4111
G01 X5.5098 Y5.3871
G01 X5.4970 Y5.3618
G01 X5.4872 Y5.3367
G01 X5.4798 Y5.3108
G01 X5.4748 Y5.2843
G01 X5.4723 Y5.2575
G01 X5.4720 Y3.3440
G01 X5.4733 Y3.3171
G01 X5.4770 Y3.2904
G01 X5.4798 Y3.2772
G01 X5.4872 Y3.2513
G01 X5.4918 Y3.2387
G01 X5.5031 Y3.2134
G01 X5.5098 Y3.2009
G01 X5.5250 Y3.1769
G01 X5.5334 Y3.1655
G01 X5.5424 Y3.1545
G01 X5.5620 Y3.1340
G01 X5.5835 Y3.1154
G01 X5.5949 Y3.1070
G01 X5.6189 Y3.0918
G01 X5.6314 Y3.0851
G01 X5.6442 Y3.0790
G01 X5.6693 Y3.0692
G01 X5.6952 Y3.0618
G01 X5.7084 Y3.0590
G01 X5.7351 Y3.0553
G01 X5.7620 Y3.0540
G01 X6.5620 Y3.0540
G01 X6.5889 Y3.0553
G01 X6.6156 Y3.0590
G01 X6.6288 Y3.0618
G01 X6.6547 Y3.0692
G01 X6.6798 Y3.0790
G01 X6.6926 Y3.0851
G01 X6.7173 Y3.0991
G01 X6.7291 Y3.1070
G01 X6.7515 Y3.1244
G01 X6.7620 Y3.1340
G01 X6.7816 Y3.1545
G01 X6.7990 Y3.1769
G01 X6.8069 Y3.1887
G01 X6.8209 Y3.2134
G01 X6.8322 Y3.2387
G01 X6.8408 Y3.2642
G01 X6.8470 Y3.2904
G01 X6.8507 Y3.3171
G01 X6.8517 Y3.3305
G01 X6.8520 Y5.2440
G01 X6.8507 Y5.2709
G01 X6.8470 Y5.2976
G01 X6.8408 Y5.3238
G01 X6.8322 Y5.3493
G01 X6.8270 Y5.3618
G01 X6.8209 Y5.3746
G01 X6.8069 Y5.3993
G01 X6.7906 Y5.4225
G01 X6.7816 Y5.4335
G01 X6.7720 Y5.4440
G01 X6.7515 Y5.4636
G01 X6.7291 Y5.4810
G01 X6.7173 Y5.4889
G01 X6.6926 Y5.5029
G01 X6.6798 Y5.5090
G01 X6.6547 Y5.5188
G01 X6.6411 Y5.5230
G01 X6.6411 Y5.6542
G01 X6.6681 Y5.6710
G01 X6.6905 Y5.6884
G01 X6.7010 Y5.6980
G01 X6.7110 Y5.7080
G01 X6.7296 Y5.7295
G01 X6.7459 Y5.7527
G01 X6.7599 Y5.7774
G01 X6.7660 Y5.7902
G01 X6.7758 Y5.8153
G01 X6.7832 Y5.8412
G01 X6.7860 Y5.8544
G01 X6.7882 Y5.8677
G01 X6.7907 Y5.8945
G01 X6.7910 Y7.8080
G01 X6.7897 Y7.8349
G01 X6.7860 Y7.8616
G01 X6.7832 Y7.8748
G01 X6.7758 Y7.9007
G01 X6.7712 Y7.9133
G01 X6.7599 Y7.9386
G01 X6.7532 Y7.9511
G01 X6.7380 Y7.9751
G01 X6.7296 Y7.9865
G01 X6.7110 Y8.0080
G01 X6.7010 Y8.0180
G01 X6.6905 Y8.0276
G01 X6.6681 Y8.0450
G01 X6.6441 Y8.0602
G01 X6.6316 Y8.0669
G01 X6.6188 Y8.0730
G01 X6.5937 Y8.0828
G01 X6.5678 Y8.0902
G01 X6.5546 Y8.0930
G01 X6.5279 Y8.0967
G01 X6.5010 Y8.0980
G01 X5.6875 Y8.0977
G01 X5.6607 Y8.0952
G01 X5.6342 Y8.0902
G01 X5.6083 Y8.0828
G01 X5.5832 Y8.0730
G01 X5.5579 Y8.0602
G01 X5.5339 Y8.0450
G01 X5.5115 Y8.0276
G01 X5.4910 Y8.0080
G01 X5.4724 Y7.9865
G01 X5.4561 Y7.9633
G01 X5.4421 Y7.9386
G01 X5.4308 Y7.9133
G01 X5.4222 Y7.8878
G01 X5.4160 Y7.8616
G01 X5.4123 Y7.8349
G01 X5.4110 Y7.8080
G00 Z1.9990
G00 X5.4710 Y7.8080
G01 F100.00
G01 Z-0.0700
G01 F500.00
G01 X5.4710 Y5.9080
G01 X5.4720 Y5.8867
G01 X5.4772 Y5.8550
G01 X5.4867 Y5.8245
G01 X5.4956 Y5.8044
G01 X5.5010 Y5.7945
G01 X5.5130 Y5.7755
G01 X5.5197 Y5.7664
G01 X5.5344 Y5.7494
G01 X5.5424 Y5.7414
G01 X5.5594 Y5.7267
G01 X5.5685 Y5.7200
G01 X5.5875 Y5.7080
G01 X5.5974 Y5.7026
G01 X5.6209 Y5.6925
G01 X5.6209 Y5.4256
G01 X5.6034 Y5.4106
G01 X5.5879 Y5.3943
G01 X5.5807 Y5.3856
G01 X5.5678 Y5.3672
G01 X5.5566 Y5.3476
G01 X5.5477 Y5.3275
G01 X5.5409 Y5.3073
G01 X5.5342 Y5.2760
G01 X5.5322 Y5.2547
G01 X5.5320 Y3.3440
G01 X5.5342 Y3.3120
G01 X5.5382 Y3.2910
G01 X5.5477 Y3.2605
G01 X5.5566 Y3.2404
G01 X5.5620 Y3.2305
G01 X5.5740 Y3.2115
G01 X5.5807 Y3.2024
G01 X5.5879 Y3.1937
G01 X5.6034 Y3.1774
G01 X5.6117 Y3.1699
G01 X5.6295 Y3.1560
G01 X5.6485 Y3.1440
G01 X5.6584 Y3.1386
G01 X5.6686 Y3.1338
G01 X5.6885 Y3.1261
G01 X5.7090 Y3.1202
G01 X5.7300 Y3.1162
G01 X5.7620 Y3.1140
G01 X6.5620 Y3.1140
G01 X6.5940 Y3.1162
G01 X6.6150 Y3.1202
G01 X6.6355 Y3.1261
G01 X6.6554 Y3.1338
G01 X6.6755 Y3.1440
G01 X6.6852 Y3.1498
G01 X6.7036 Y3.1627
G01 X6.7206 Y3.1774
G01 X6.7361 Y3.1937
G01 X6.7433 Y3.2024
G01 X6.7500 Y3.2115
G01 X6.7620 Y3.2305
G01 X6.7722 Y3.2506
G01 X6.7799 Y3.2705
G01 X6.7858 Y3.2910
G01 X6.7898 Y3.3120
G01 X6.7920 Y3.3440
G01 X6.7920 Y5.2440
G01 X6.7910 Y5.2653
G01 X6.7880 Y5.2865
G01 X6.7831 Y5.3073
G01 X6.7763 Y5.3275
G01 X6.7674 Y5.3476
G01 X6.7562 Y5.3672
G01 X6.7433 Y5.3856
G01 X6.7286 Y5.4026
G01 X6.7206 Y5.4106
G01 X6.7036 Y5.4253
G01 X6.6852 Y5.4382
G01 X6.6656 Y5.4494
G01 X6.6554 Y5.4542
G01 X6.6355 Y5.4619
G01 X6.6150 Y5.4678
G01 X6.5940 Y5.4718
G01 X6.5811 Y5.4732
G01 X6.5811 Y5.6925
G01 X6.5944 Y5.6978
G01 X6.6145 Y5.7080
G01 X6.6335 Y5.7200
G01 X6.6426 Y5.7267
G01 X6.6596 Y5.7414
G01 X6.6676 Y5.7494
G01 X6.6751 Y5.7577
G01 X6.6890 Y5.7755
G01 X6.7010 Y5.7945
G01 X6.7064 Y5.8044
G01 X6.7112 Y5.8146
G01 X6.7189 Y5.8345
G01 X6.7270 Y5.8655
G01 X6.7308 Y5.8973
G01 X6.7310 Y7.8080
G01 X6.7288 Y7.8400
G01 X6.7248 Y7.8610
G01 X6.7153 Y7.8915
G01 X6.7064 Y7.9116
G01 X6.7010 Y7.9215
G01 X6.6952 Y7.9312
G01 X6.6823 Y7.9496
G01 X6.6676 Y7.9666
G01 X6.6596 Y7.9746
G01 X6.6513 Y7.9821
G01 X6.6335 Y7.9960
G01 X6.6242 Y8.0022
G01 X6.6046 Y8.0134
G01 X6.5944 Y8.0182
G01 X6.5745 Y8.0259
G01 X6.5435 Y8.0340
G01 X6.5223 Y8.0370
G01 X6.5010 Y8.0380
G01 X5.6903 Y8.0378
G01 X5.6690 Y8.0358
G01 X5.6480 Y8.0318
G01 X5.6275 Y8.0259
G01 X5.6076 Y8.0182
G01 X5.5875 Y8.0080
G01 X5.5685 Y7.9960
G01 X5.5507 Y7.9821
G01 X5.5344 Y7.9666
G01 X5.5197 Y7.9496
G01 X5.5068 Y7.9312
G01 X5.4956 Y7.9116
G01 X5.4867 Y7.8915
G01 X5.4799 Y7.8713
G01 X5.4750 Y7.8505
G01 X5.4720 Y7.8293
G01 X5.4710 Y7.8080
G00 Z1.9990
G00 X5.5310 Y7.8080
G01 F100.00
G01 Z-0.0700
G01 F500.00
G01 X5.5310 Y5.9080
G01 X5.5317 Y5.8922
G01 X5.5339 Y5.8766
G01 X5.5376 Y5.8612
G01 X5.5457 Y5.8390
G01 X5.5531 Y5.8241
G01 X5.5621 Y5.8100
G01 X5.5779 Y5.7908
G01 X5.5899 Y5.7793
G01 X5.6030 Y5.7691
G01 X5.6244 Y5.7562
G01 X5.6392 Y5.7496
G01 X5.6542 Y5.7446
G01 X5.6696 Y5.7409
G01 X5.6809 Y5.7392
G01 X5.6809 Y5.3933
G01 X5.6640 Y5.3829
G01 X5.6448 Y5.3671
G01 X5.6333 Y5.3551
G01 X5.6184 Y5.3350
G01 X5.6102 Y5.3206
G01 X5.6009 Y5.2983
G01 X5.5949 Y5.2754
G01 X5.5922 Y5.2519
G01 X5.5920 Y3.3440
G01 X5.5927 Y3.3282
G01 X5.5966 Y3.3049
G01 X5.6036 Y3.2822
G01 X5.6141 Y3.2601
G01 X5.6280 Y3.2394
G01 X5.6448 Y3.2209
G01 X5.6640 Y3.2051
G01 X5.6854 Y3.1922
G01 X5.7077 Y3.1829
G01 X5.7229 Y3.1786
G01 X5.7384 Y3.1756
G01 X5.7620 Y3.1740
G01 X6.5620 Y3.1740
G01 X6.5778 Y3.1747
G01 X6.6011 Y3.1786
G01 X6.6163 Y3.1829
G01 X6.6310 Y3.1887
G01 X6.6530 Y3.2004
G01 X6.6666 Y3.2100
G01 X6.6792 Y3.2209
G01 X6.6960 Y3.2394
G01 X6.7099 Y3.2601
G01 X6.7173 Y3.2750
G01 X6.7231 Y3.2897
G01 X6.7291 Y3.3126
G01 X6.7313 Y3.3282
G01 X6.7320 Y3.3440
G01 X6.7320 Y5.2440
G01 X6.7313 Y5.2598
G01 X6.7291 Y5.2754
G01 X6.7231 Y5.2983
G01 X6.7173 Y5.3130
G01 X6.7099 Y5.3279
G01 X6.7009 Y5.3420
G01 X6.6907 Y5.3551
G01 X6.6792 Y5.3671
G01 X6.6600 Y5.3829
G01 X6.6459 Y5.3919
G01 X6.6310 Y5.3993
G01 X6.6163 Y5.4051
G01 X6.6011 Y5.4094
G01 X6.5856 Y5.4124
G01 X6.5699 Y5.4138
G01 X6.5211 Y5.4140
G01 X6.5211 Y5.7392
G01 X6.5324 Y5.7409
G01 X6.5478 Y5.7446
G01 X6.5628 Y5.7496
G01 X6.5776 Y5.7562
G01 X6.5990 Y5.7691
G01 X6.6121 Y5.7793
G01 X6.6241 Y5.7908
G01 X6.6350 Y5.8034
G01 X6.6446 Y5.8170
G01 X6.6563 Y5.8390
G01 X6.6621 Y5.8537
G01 X6.6664 Y5.8689
G01 X6.6694 Y5.8844
G01 X6.6708 Y5.9001
G01 X6.6710 Y7.8080
G01 X6.6703 Y7.8238
G01 X6.6664 Y7.8471
G01 X6.6594 Y7.8698
G01 X6.6489 Y7.8919
G01 X6.6350 Y7.9126
G01 X6.6182 Y7.9311
G01 X6.5990 Y7.9469
G01 X6.5776 Y7.9598
G01 X6.5553 Y7.9691
G01 X6.5401 Y7.9734
G01 X6.5246 Y7.9764
G01 X6.5010 Y7.9780
G01 X5.6931 Y7.9778
G01 X5.6774 Y7.9764
G01 X5.6619 Y7.9734
G01 X5.6467 Y7.9691
G01 X5.6320 Y7.9633
G01 X5.6171 Y7.9559
G01 X5.6030 Y7.9469
G01 X5.5899 Y7.9367
G01 X5.5779 Y7.9252
G01 X5.5670 Y7.9126
G01 X5.5574 Y7.8990
G01 X5.5492 Y7.8846
G01 X5.5426 Y7.8698
G01 X5.5376 Y7.8548
G01 X5.5339 Y7.8394
G01 X5.5317 Y7.8238
G01 X5.5310 Y7.8080
G00 Z1.9990
G00 X5.5910 Y7.8080
G01 F100.00
G01 Z-0.0700
G01 F500.00
G01 X5.5915 Y5.8978
G01 X5.5929 Y5.8877
G01 X5.5968 Y5.8728
G01 X5.6028 Y5.8585
G01 X5.6081 Y5.8491
G01 X5.6143 Y5.8403
G01 X5.6251 Y5.8283
G01 X5.6333 Y5.8213
G01 X5.6421 Y5.8151
G01 X5.6515 Y5.8098
G01 X5.6610 Y5.8055
G01 X5.6807 Y5.7999
G01 X5.6959 Y5.7981
G01 X5.7409 Y5.7980
G01 X5.7409 Y5.3519
G01 X5.7220 Y5.3465
G01 X5.7077 Y5.3397
G01 X5.6986 Y5.3339
G01 X5.6901 Y5.3273
G01 X5.6787 Y5.3159
G01 X5.6691 Y5.3029
G01 X5.6638 Y5.2935
G01 X5.6595 Y5.2840
G01 X5.6539 Y5.2643
G01 X5.6521 Y5.2491
G01 X5.6520 Y3.3440
G01 X5.6531 Y3.3287
G01 X5.6550 Y3.3187
G01 X5.6615 Y3.2993
G01 X5.6691 Y3.2851
G01 X5.6787 Y3.2721
G01 X5.6901 Y3.2607
G01 X5.7031 Y3.2511
G01 X5.7173 Y3.2435
G01 X5.7317 Y3.2382
G01 X5.7518 Y3.2345
G01 X6.5620 Y3.2340
G01 X6.5773 Y3.2351
G01 X6.5873 Y3.2370
G01 X6.6067 Y3.2435
G01 X6.6209 Y3.2511
G01 X6.6339 Y3.2607
G01 X6.6453 Y3.2721
G01 X6.6549 Y3.2851
G01 X6.6602 Y3.2945
G01 X6.6645 Y3.3040
G01 X6.6690 Y3.3187
G01 X6.6719 Y3.3389
G01 X6.6719 Y5.2491
G01 X6.6701 Y5.2643
G01 X6.6662 Y5.2792
G01 X6.6602 Y5.2935
G01 X6.6549 Y5.3029
G01 X6.6487 Y5.3117
G01 X6.6379 Y5.3237
G01 X6.6254 Y5.3339
G01 X6.6115 Y5.3422
G01 X6.5923 Y5.3498
G01 X6.5722 Y5.3535
G01 X6.4611 Y5.3540
G01 X6.4611 Y5.7980
G01 X6.5061 Y5.7981
G01 X6.5213 Y5.7999
G01 X6.5410 Y5.8055
G01 X6.5505 Y5.8098
G01 X6.5599 Y5.8151
G01 X6.5687 Y5.8213
G01 X6.5769 Y5.8283
G01 X6.5877 Y5.8403
G01 X6.5939 Y5.8491
G01 X6.5992 Y5.8585
G01 X6.6052 Y5.8728
G01 X6.6091 Y5.8877
G01 X6.6105 Y5.8978
G01 X6.6110 Y7.8080
G01 X6.6099 Y7.8233
G01 X6.6080 Y7.8333
G01 X6.6015 Y7.8527
G01 X6.5939 Y7.8669
G01 X6.5843 Y7.8799
G01 X6.5729 Y7.8913
G01 X6.5599 Y7.9009
G01 X6.5457 Y7.9085
G01 X6.5263 Y7.9150
G01 X6.5112 Y7.9175
G01 X5.6959 Y7.9179
G01 X5.6757 Y7.9150
G01 X5.6563 Y7.9085
G01 X5.6467 Y7.9037
G01 X5.6376 Y7.8979
G01 X5.6291 Y7.8913
G01 X5.6213 Y7.8839
G01 X5.6143 Y7.8757
G01 X5.6081 Y7.8669
G01 X5.6028 Y7.8575
G01 X5.5985 Y7.8480
G01 X5.5929 Y7.8283
G01 X5.5910 Y7.8080
G00 Z1.9990
G00 X5.6510 Y7.8080
G01 F100.00
G01 Z-0.0700
G01 F500.00
G01 X5.6512 Y5.9034
G01 X5.6529 Y5.8942
G01 X5.6553 Y5.8877
G01 X5.6588 Y5.8812
G01 X5.6631 Y5.8753
G01 X5.6683 Y5.8701
G01 X5.6742 Y5.8658
G01 X5.6807 Y5.8623
G01 X5.6872 Y5.8599
G01 X5.7010 Y5.8580
G01 X5.8009 Y5.8580
G01 X5.8009 Y5.2940
G01 X5.7574 Y5.2938
G01 X5.7460 Y5.2914
G01 X5.7373 Y5.2875
G01 X5.7275 Y5.2802
G01 X5.7198 Y5.2708
G01 X5.7146 Y5.2600
G01 X5.7121 Y5.2463
G01 X5.7120 Y3.3440
G01 X5.7129 Y3.3348
G01 X5.7154 Y3.3258
G01 X5.7185 Y3.3193
G01 X5.7241 Y3.3113
G01 X5.7293 Y3.3061
G01 X5.7352 Y3.3018
G01 X5.7438 Y3.2974
G01 X5.7505 Y3.2953
G01 X5.7597 Y3.2941
G01 X6.5620 Y3.2940
G01 X6.5712 Y3.2949
G01 X6.5802 Y3.2974
G01 X6.5867 Y3.3005
G01 X6.5928 Y3.3046
G01 X6.5999 Y3.3113
G01 X6.6042 Y3.3172
G01 X6.6086 Y3.3258
G01 X6.6111 Y3.3348
G01 X6.6120 Y3.3440
G01 X6.6118 Y5.2486
G01 X6.6101 Y5.2578
G01 X6.6077 Y5.2643
G01 X6.6042 Y5.2708
G01 X6.5999 Y5.2767
G01 X6.5947 Y5.2819
G01 X6.5888 Y5.2862
G01 X6.5823 Y5.2897
G01 X6.5735 Y5.2927
G01 X6.5620 Y5.2940
G01 X6.4011 Y5.2940
G01 X6.4011 Y5.8580
G01 X6.5010 Y5.8580
G01 X6.5102 Y5.8589
G01 X6.5170 Y5.8606
G01 X6.5235 Y5.8634
G01 X6.5298 Y5.8671
G01 X6.5355 Y5.8718
G01 X6.5404 Y5.8772
G01 X6.5445 Y5.8833
G01 X6.5476 Y5.8898
G01 X6.5497 Y5.8965
G01 X6.5509 Y5.9057
G01 X6.5510 Y7.8080
G01 X6.5501 Y7.8172
G01 X6.5476 Y7.8262
G01 X6.5445 Y7.8327
G01 X6.5389 Y7.8407
G01 X6.5337 Y7.8459
G01 X6.5278 Y7.8502
G01 X6.5192 Y7.8546
G01 X6.5102 Y7.8571
G01 X6.5033 Y7.8579
G01 X5.7010 Y7.8580
G01 X5.6918 Y7.8571
G01 X5.6828 Y7.8546
G01 X5.6742 Y7.8502
G01 X5.6665 Y7.8442
G01 X5.6601 Y7.8368
G01 X5.6553 Y7.8283
G01 X5.6519 Y7.8172
G01 X5.6510 Y7.8080
G00 Z1.9990
G00 X7.6010 Y5.8580
G01 F100.00
G01 Z-0.0700
G01 F500.00
G01 X8.4010 Y5.8580
G01 X8.4102 Y5.8589
G01 X8.4170 Y5.8606
G01 X8.4235 Y5.8634
G01 X8.4298 Y5.8671
G01 X8.4389 Y5.8753
G01 X8.4445 Y5.8833
G01 X8.4491 Y5.8942
G01 X8.4509 Y5.9057
G01 X8.4510 Y6.5579
G01 X8.6372 Y6.5579
G01 X8.6642 Y6.5592
G01 X8.6788 Y6.5610
G01 X8.7077 Y6.5666
G01 X8.7359 Y6.5750
G01 X8.7632 Y6.5862
G01 X8.7892 Y6.6000
G01 X8.8158 Y6.6177
G01 X8.8366 Y6.6348
G01 X8.8473 Y6.6449
G01 X9.1935 Y6.9911
G01 X9.1938 Y6.9565
G01 X9.1950 Y6.9397
G01 X9.1993 Y6.9114
G01 X9.2061 Y6.8841
G01 X9.2115 Y6.8678
G01 X9.2228 Y6.8407
G01 X9.2367 Y6.8149
G01 X9.2527 Y6.7911
G01 X9.2704 Y6.7695
G01 X9.2911 Y6.7485
G01 X9.3138 Y6.7298
G01 X9.3279 Y6.7199
G01 X9.3510 Y6.7060
G01 X9.3776 Y6.6933
G01 X9.3936 Y6.6871
G01 X9.4218 Y6.6787
G01 X9.4483 Y6.6734
G01 X9.4629 Y6.6716
G01 X9.4935 Y6.6700
G01 X10.3185 Y6.6700
G01 X10.3467 Y6.6713
G01 X10.3637 Y6.6734
G01 X10.3902 Y6.6787
G01 X10.4154 Y6.6861
G01 X11.1299 Y5.9717
G01 X11.1299 Y3.5560
G01 X11.1314 Y3.5257
G01 X11.1354 Y3.4987
G01 X11.1392 Y3.4819
G01 X11.1470 Y3.4561
G01 X11.1592 Y3.4266
G01 X11.1720 Y3.4028
G01 X11.1811 Y3.3882
G01 X11.1972 Y3.3666
G01 X11.2085 Y3.3535
G01 X12.1549 Y2.4067
G01 X12.1549 Y2.2740
G01 X12.1165 Y2.2737
G01 X12.0872 Y2.2709
G01 X12.0583 Y2.2653
G01 X12.0301 Y2.2569
G01 X12.0028 Y2.2457
G01 X11.9768 Y2.2319
G01 X11.9511 Y2.2148
G01 X11.9295 Y2.1971
G01 X11.9085 Y2.1764
G01 X11.8892 Y2.1529
G01 X11.8733 Y2.1293
G01 X11.8593 Y2.1032
G01 X11.8480 Y2.0762
G01 X11.8393 Y2.0481
G01 X11.8334 Y2.0192
G01 X11.8304 Y1.9899
G01 X11.8300 Y1.0740
G01 X11.8315 Y1.0437
G01 X11.8358 Y1.0154
G01 X11.8426 Y0.9881
G01 X11.8480 Y0.9718
G01 X11.8583 Y0.9468
G01 X11.8660 Y0.9315
G01 X11.8799 Y0.9084
G01 X11.8892 Y0.8951
G01 X11.9069 Y0.8735
G01 X11.9179 Y0.8619
G01 X11.9295 Y0.8509
G01 X11.9511 Y0.8332
G01 X11.9644 Y0.8239
G01 X11.9875 Y0.8100
G01 X12.0028 Y0.8023
G01 X12.0278 Y0.7920
G01 X12.0441 Y0.7866
G01 X12.0703 Y0.7800
G01 X12.0994 Y0.7756
G01 X12.1300 Y0.7740
G01 X12.7812 Y0.7740
G01 X12.8103 Y0.7755
G01 X12.8386 Y0.7798
G01 X12.8683 Y0.7873
G01 X12.8959 Y0.7973
G01 X12.9225 Y0.8100
G01 X12.9477 Y0.8253
G01 X12.9710 Y0.8427
G01 X12.9921 Y0.8619
G01 X13.0111 Y0.8827
G01 X13.0287 Y0.9063
G01 X13.0440 Y0.9315
G01 X13.0567 Y0.9581
G01 X13.0629 Y0.9741
G01 X13.0713 Y1.0023
G01 X13.0766 Y1.0288
G01 X13.0787 Y1.0458
G01 X13.0800 Y1.0740
G01 X13.0800 Y1.2239
G01 X13.9835 Y1.2242
G01 X14.0152 Y1.2273
G01 X14.0417 Y1.2326
G01 X14.0559 Y1.2365
G01 X14.0860 Y1.2472
G01 X14.0994 Y1.2532
G01 X14.1232 Y1.2660
G01 X14.1498 Y1.2837
G01 X14.1706 Y1.3008
G01 X14.1822 Y1.3118
G01 X16.4259 Y3.5555
G01 X16.8822 Y3.5555
G01 X16.9092 Y3.5568
G01 X16.9262 Y3.5589
G01 X16.9527 Y3.5642
G01 X16.9693 Y3.5688
G01 X16.9947 Y3.5779
G01 X17.0102 Y3.5848
G01 X17.0235 Y3.5915
G01 X17.0466 Y3.6054
G01 X17.0720 Y3.6242
G01 X17.0834 Y3.6340
G01 X17.1025 Y3.6531
G01 X17.1137 Y3.6661
G01 X17.1297 Y3.6878
G01 X17.1461 Y3.7152
G01 X17.1527 Y3.7283
G01 X17.1630 Y3.7533
G01 X17.1684 Y3.7696
G01 X17.1750 Y3.7958
G01 X17.1794 Y3.8249
G01 X17.1810 Y3.8555
G01 X17.1810 Y4.7805
G01 X17.1797 Y4.8087
G01 X17.1752 Y4.8391
G01 X17.1684 Y4.8664
G01 X17.1584 Y4.8947
G01 X17.1450 Y4.9230
G01 X17.1297 Y4.9482
G01 X17.1212 Y4.9602
G01 X17.1041 Y4.9810
G01 X17.0834 Y5.0020
G01 X17.0599 Y5.0213
G01 X17.0363 Y5.0372
G01 X17.0213 Y5.0456
G01 X16.9969 Y5.0572
G01 X16.9809 Y5.0634
G01 X16.9527 Y5.0718
G01 X16.9262 Y5.0771
G01 X16.9092 Y5.0792
G01 X16.8822 Y5.0805
G01 X15.6298 Y5.0805
G01 X15.6004 Y5.0789
G01 X15.5858 Y5.0771
G01 X15.5593 Y5.0718
G01 X15.5311 Y5.0634
G01 X15.5018 Y5.0512
G01 X15.4885 Y5.0445
G01 X15.4654 Y5.0306
G01 X15.4400 Y5.0118
G01 X15.4286 Y5.0020
G01 X15.4095 Y4.9829
G01 X15.3902 Y4.9594
G01 X15.3809 Y4.9461
G01 X15.3670 Y4.9230
G01 X15.3536 Y4.8947
G01 X15.3481 Y4.8804
G01 X15.3403 Y4.8546
G01 X15.3341 Y4.8233
G01 X15.3314 Y4.7964
G01 X15.3310 Y4.7805
G01 X15.3314 Y3.8396
G01 X15.3344 Y3.8103
G01 X15.3397 Y3.7838
G01 X15.3443 Y3.7672
G01 X15.3536 Y3.7413
G01 X15.3659 Y3.7152
G01 X15.3742 Y3.7004
G01 X15.3902 Y3.6766
G01 X15.4079 Y3.6550
G01 X15.4197 Y3.6425
G01 X15.4416 Y3.6228
G01 X15.4633 Y3.6068
G01 X15.4885 Y3.5915
G01 X15.5038 Y3.5838
G01 X15.5311 Y3.5726
G01 X15.5569 Y3.5648
G01 X15.5813 Y3.5597
G01 X13.8457 Y1.8241
G01 X13.0800 Y1.8241
G01 X13.0797 Y1.9875
G01 X13.0785 Y2.0043
G01 X13.0745 Y2.0313
G01 X13.0667 Y2.0623
G01 X13.0567 Y2.0899
G01 X13.0440 Y2.1165
G01 X13.0301 Y2.1396
G01 X13.0217 Y2.1517
G01 X13.0015 Y2.1764
G01 X12.9824 Y2.1955
G01 X12.9694 Y2.2067
G01 X12.9477 Y2.2227
G01 X12.9353 Y2.2307
G01 X12.9072 Y2.2457
G01 X12.8822 Y2.2560
G01 X12.8683 Y2.2607
G01 X12.8373 Y2.2685
G01 X12.8106 Y2.2724
G01 X12.7959 Y2.2736
G01 X12.7551 Y2.2740
G01 X12.7551 Y2.5310
G01 X12.7547 Y2.5470
G01 X12.7520 Y2.5738
G01 X12.7458 Y2.6051
G01 X12.7380 Y2.6309
G01 X12.7325 Y2.6453
G01 X12.7191 Y2.6736
G01 X12.7052 Y2.6967
G01 X12.6959 Y2.7100
G01 X12.6782 Y2.7316
G01 X12.6672 Y2.7432
G01 X11.7301 Y3.6803
G01 X11.7301 Y6.0960
G01 X11.7297 Y6.1120
G01 X11.7270 Y6.1388
G01 X11.7241 Y6.1558
G01 X11.7175 Y6.1819
G01 X11.7068 Y6.2120
G01 X11.7008 Y6.2254
G01 X11.6880 Y6.2492
G01 X11.6703 Y6.2758
G01 X11.6532 Y6.2966
G01 X11.6431 Y6.3073
G01 X10.6185 Y7.3319
G01 X10.6185 Y8.2700
G01 X10.6170 Y8.3003
G01 X10.6127 Y8.3286
G01 X10.6059 Y8.3559
G01 X10.6005 Y8.3722
G01 X10.5902 Y8.3972
G01 X10.5825 Y8.4125
G01 X10.5686 Y8.4356
G01 X10.5593 Y8.4489
G01 X10.5416 Y8.4705
G01 X10.5306 Y8.4821
G01 X10.5190 Y8.4931
G01 X10.4974 Y8.5108
G01 X10.4841 Y8.5201
G01 X10.4610 Y8.5340
G01 X10.4457 Y8.5417
G01 X10.4207 Y8.5520
G01 X10.4044 Y8.5574
G01 X10.3782 Y8.5640
G01 X10.3491 Y8.5684
G01 X10.3185 Y8.5700
G01 X9.4776 Y8.5696
G01 X9.4507 Y8.5669
G01 X9.4349 Y8.5642
G01 X9.4076 Y8.5574
G01 X9.3913 Y8.5520
G01 X9.3663 Y8.5417
G01 X9.3510 Y8.5340
G01 X9.3279 Y8.5201
G01 X9.3146 Y8.5108
G01 X9.2930 Y8.4931
G01 X9.2720 Y8.4724
G01 X9.2527 Y8.4489
G01 X9.2368 Y8.4253
G01 X9.2228 Y8.3993
G01 X9.2115 Y8.3722
G01 X9.2028 Y8.3441
G01 X9.1990 Y8.3273
G01 X9.1948 Y8.2982
G01 X9.1935 Y8.2700
G01 X9.1935 Y7.8396
G01 X8.5117 Y7.1581
G01 X8.4510 Y7.1581
G01 X8.4509 Y7.8103
G01 X8.4491 Y7.8218
G01 X8.4445 Y7.8327
G01 X8.4372 Y7.8425
G01 X8.4298 Y7.8489
G01 X8.4235 Y7.8526
G01 X8.4170 Y7.8554
G01 X8.4102 Y7.8571
G01 X8.4010 Y7.8580
G01 X7.6010 Y7.8580
G01 X7.5918 Y7.8571
G01 X7.5828 Y7.8546
G01 X7.5742 Y7.8502
G01 X7.5665 Y7.8442
G01 X7.5601 Y7.8368
G01 X7.5553 Y7.8283
G01 X7.5523 Y7.8195
G01 X7.5510 Y7.8080
G01 X7.5510 Y5.9080
G01 X7.5523 Y5.8965
G01 X7.5553 Y5.8877
G01 X7.5601 Y5.8792
G01 X7.5665 Y5.8718
G01 X7.5742 Y5.8658
G01 X7.5828 Y5.8614
G01 X7.5918 Y5.8589
G01 X7.6010 Y5.8580
G00 Z1.9990
G00 X7.6010 Y5.7980
G01 F100.00
G01 Z-0.0700
G01 F500.00
G01 X8.4061 Y5.7981
G01 X8.4213 Y5.7999
G01 X8.4362 Y5.8038
G01 X8.4505 Y5.8098
G01 X8.4644 Y5.8181
G01 X8.4729 Y5.8247
G01 X8.4807 Y5.8321
G01 X8.4877 Y5.8403
G01 X8.4967 Y5.8537
G01 X8.5015 Y5.8633
G01 X8.5068 Y5.8777
G01 X8.5099 Y5.8927
G01 X8.5109 Y5.9029
G01 X8.5110 Y6.4979
G01 X8.6387 Y6.4979
G01 X8.6686 Y6.4994
G01 X8.6915 Y6.5022
G01 X8.7209 Y6.5080
G01 X8.7548 Y6.5180
G01 X8.7875 Y6.5313
G01 X8.8188 Y6.5478
G01 X8.8338 Y6.5571
G01 X8.8510 Y6.5691
G01 X8.8798 Y6.5930
G01 X9.1499 Y6.8626
G01 X9.1604 Y6.8335
G01 X9.1691 Y6.8139
G01 X9.1773 Y6.7979
G01 X9.1927 Y6.7723
G01 X9.2060 Y6.7534
G01 X9.2250 Y6.7303
G01 X9.2389 Y6.7154
G01 X9.2538 Y6.7015
G01 X9.2769 Y6.6825
G01 X9.2958 Y6.6692
G01 X9.3214 Y6.6538
G01 X9.3374 Y6.6456
G01 X9.3570 Y6.6369
G01 X9.3748 Y6.6302
G01 X9.4034 Y6.6215
G01 X9.4232 Y6.6169
G01 X9.4555 Y6.6120
G01 X9.4935 Y6.6100
G01 X10.3185 Y6.6100
G01 X10.3558 Y6.6120
G01 X10.3740 Y6.6143
G01 X10.3978 Y6.6189
G01 X11.0699 Y5.9468
G01 X11.0699 Y3.5560
G01 X11.0718 Y3.5187
G01 X11.0768 Y3.4856
G01 X11.0814 Y3.4659
G01 X11.0900 Y3.4372
G01 X11.0984 Y3.4157
G01 X11.1112 Y3.3886
G01 X11.1222 Y3.3690
G01 X11.1321 Y3.3537
G01 X11.1499 Y3.3296
G01 X11.1650 Y3.3122
G01 X12.0949 Y2.3818
G01 X12.0949 Y2.3323
G01 X12.0597 Y2.3271
G01 X12.0229 Y2.3177
G01 X11.9898 Y2.3055
G01 X11.9579 Y2.2902
G01 X11.9278 Y2.2718
G01 X11.9001 Y2.2510
G01 X11.8754 Y2.2286
G01 X11.8500 Y2.2003
G01 X11.8322 Y2.1762
G01 X11.8138 Y2.1461
G01 X11.8034 Y2.1255
G01 X11.7902 Y2.0927
G01 X11.7802 Y2.0588
G01 X11.7743 Y2.0295
G01 X11.7715 Y2.0066
G01 X11.7700 Y1.9767
G01 X11.7700 Y1.0740
G01 X11.7720 Y1.0367
G01 X11.7743 Y1.0185
G01 X11.7802 Y0.9892
G01 X11.7863 Y0.9669
G01 X11.7920 Y0.9502
G01 X11.8034 Y0.9225
G01 X11.8138 Y0.9019
G01 X11.8292 Y0.8763
G01 X11.8412 Y0.8591
G01 X11.8615 Y0.8343
G01 X11.8774 Y0.8176
G01 X11.8996 Y0.7975
G01 X11.9151 Y0.7852
G01 X11.9426 Y0.7666
G01 X11.9627 Y0.7553
G01 X11.9898 Y0.7425
G01 X12.0113 Y0.7342
G01 X12.0399 Y0.7255
G01 X12.0597 Y0.7209
G01 X12.0920 Y0.7160
G01 X12.1300 Y0.7140
G01 X12.7827 Y0.7140
G01 X12.8173 Y0.7160
G01 X12.8503 Y0.7209
G01 X12.8819 Y0.7287
G01 X12.9165 Y0.7409
G01 X12.9473 Y0.7553
G01 X12.9777 Y0.7732
G01 X12.9966 Y0.7865
G01 X13.0237 Y0.8091
G01 X13.0449 Y0.8303
G01 X13.0675 Y0.8574
G01 X13.0874 Y0.8866
G01 X13.0987 Y0.9067
G01 X13.1115 Y0.9338
G01 X13.1198 Y0.9553
