(G-CODE GENERATED BY FLATCAM v8.96 - www.flatcam.org - Version Date: 2019/08/23)

(Name: jouleThief-Edge_Cuts.gbr_iso_cnc)
(Type: G-code from Geometry)
(Units: MM)

(Created on Saturday, 09 January 2021 at 17:01)

(TOOL DIAMETER: 0.1 mm)
(Feedrate: 500.0 mm/min)
(Feedrate_Z: 100.0 mm/min)
(Feedrate rapids 79.9998 mm/min)

(Z_Cut: -0.07 mm)
(Z_Move: 1.999 mm)
(Z Toolchange: 12.7 mm)
(X,Y Toolchange: 0.0000, 0.0000 mm)
(Z Start: None mm)
(Z End: 12.7 mm)
(Steps per circle: 128)
(Postprocessor Geometry: default)

(X range:   -0.0701 ...   17.8424  mm)
(Y range:   -0.3150 ...   12.2621  mm)

(Spindle Speed: 1000 RPM)

G21
G90
G94

G01 F500.00
G00 Z1.9990

M03 S1000
G00 X0.3290 Y3.3147
G01 F100.00
G01 Z-0.0700
G01 F500.00
G01 X0.3449 Y3.1484
G01 X0.3691 Y2.9813
G01 X0.4014 Y2.8156
G01 X0.4416 Y2.6517
G01 X0.4897 Y2.4899
G01 X0.5456 Y2.3306
G01 X0.6091 Y2.1742
G01 X0.6801 Y2.0211
G01 X0.7584 Y1.8715
G01 X0.8439 Y1.7260
G01 X0.9362 Y1.5847
G01 X1.0354 Y1.4481
G01 X1.1410 Y1.3164
G01 X1.2528 Y1.1900
G01 X1.3706 Y1.0691
G01 X1.4942 Y0.9541
G01 X1.6231 Y0.8452
G01 X1.7572 Y0.7426
G01 X1.8961 Y0.6466
G01 X2.0394 Y0.5575
G01 X2.1869 Y0.4754
G01 X2.3382 Y0.4006
G01 X2.4929 Y0.3331
G01 X2.6507 Y0.2732
G01 X2.8113 Y0.2210
G01 X2.9741 Y0.1766
G01 X3.1389 Y0.1402
G01 X3.3053 Y0.1117
G01 X3.4729 Y0.0914
G01 X3.6413 Y0.0791
G01 X3.8109 Y0.0750
G01 X14.4741 Y0.0750
G01 X14.6269 Y0.0909
G01 X14.7809 Y0.1144
G01 X14.9335 Y0.1453
G01 X15.0845 Y0.1835
G01 X15.2334 Y0.2289
G01 X15.3800 Y0.2815
G01 X15.5239 Y0.3410
G01 X15.6648 Y0.4074
G01 X15.8023 Y0.4804
G01 X15.9362 Y0.5600
G01 X16.0660 Y0.6460
G01 X16.1916 Y0.7381
G01 X16.3126 Y0.8361
G01 X16.4288 Y0.9398
G01 X16.5398 Y1.0490
G01 X16.6454 Y1.1634
G01 X16.7455 Y1.2828
G01 X16.8397 Y1.4068
G01 X16.9278 Y1.5352
G01 X17.0096 Y1.6677
G01 X17.0849 Y1.8040
G01 X17.1536 Y1.9437
G01 X17.2156 Y2.0866
G01 X17.2705 Y2.2323
G01 X17.3184 Y2.3805
G01 X17.3592 Y2.5308
G01 X17.3926 Y2.6829
G01 X17.4187 Y2.8364
G01 X17.4374 Y2.9910
G01 X17.4486 Y3.1463
G01 X17.4524 Y3.3029
G01 X17.4510 Y8.6324
G01 X17.4351 Y8.7987
G01 X17.4109 Y8.9657
G01 X17.3786 Y9.1314
G01 X17.3384 Y9.2954
G01 X17.2903 Y9.4572
G01 X17.2344 Y9.6164
G01 X17.1709 Y9.7728
G01 X17.0999 Y9.9260
G01 X17.0216 Y10.0755
G01 X16.9361 Y10.2211
G01 X16.8438 Y10.3624
G01 X16.7446 Y10.4990
G01 X16.6390 Y10.6307
G01 X16.5272 Y10.7571
G01 X16.4094 Y10.8780
G01 X16.2858 Y10.9930
G01 X16.1569 Y11.1019
G01 X16.0228 Y11.2045
G01 X15.8839 Y11.3004
G01 X15.7406 Y11.3895
G01 X15.5931 Y11.4716
G01 X15.4418 Y11.5465
G01 X15.2871 Y11.6140
G01 X15.1293 Y11.6739
G01 X14.9687 Y11.7261
G01 X14.8059 Y11.7705
G01 X14.6411 Y11.8069
G01 X14.4747 Y11.8353
G01 X14.3071 Y11.8557
G01 X14.1388 Y11.8679
G01 X13.9691 Y11.8720
G01 X3.5596 Y11.8630
G01 X3.3933 Y11.8471
G01 X3.2263 Y11.8229
G01 X3.0606 Y11.7906
G01 X2.8966 Y11.7504
G01 X2.7348 Y11.7023
G01 X2.5756 Y11.6464
G01 X2.4192 Y11.5829
G01 X2.2660 Y11.5119
G01 X2.1165 Y11.4336
G01 X1.9709 Y11.3481
G01 X1.8296 Y11.2558
G01 X1.6930 Y11.1566
G01 X1.5613 Y11.0510
G01 X1.4349 Y10.9392
G01 X1.3140 Y10.8214
G01 X1.1990 Y10.6978
G01 X1.0901 Y10.5689
G01 X0.9875 Y10.4348
G01 X0.8916 Y10.2959
G01 X0.8025 Y10.1526
G01 X0.7204 Y10.0051
G01 X0.6455 Y9.8538
G01 X0.5780 Y9.6991
G01 X0.5181 Y9.5413
G01 X0.4659 Y9.3807
G01 X0.4215 Y9.2179
G01 X0.3851 Y9.0531
G01 X0.3567 Y8.8867
G01 X0.3363 Y8.7191
G01 X0.3241 Y8.5508
G01 X0.3200 Y8.3812
G01 X0.3290 Y3.3147
G00 Z1.9990
G00 X0.3890 Y3.3176
G01 F100.00
G01 Z-0.0700
G01 F500.00
G01 X0.4045 Y3.1555
G01 X0.4283 Y2.9914
G01 X0.4600 Y2.8285
G01 X0.4995 Y2.6674
G01 X0.5468 Y2.5084
G01 X0.6017 Y2.3518
G01 X0.6641 Y2.1981
G01 X0.7339 Y2.0476
G01 X0.8109 Y1.9007
G01 X0.8949 Y1.7576
G01 X0.9857 Y1.6188
G01 X1.0831 Y1.4845
G01 X1.1869 Y1.3551
G01 X1.2968 Y1.2308
G01 X1.4126 Y1.1120
G01 X1.5340 Y0.9990
G01 X1.6607 Y0.8919
G01 X1.7925 Y0.7911
G01 X1.9290 Y0.6968
G01 X2.0699 Y0.6092
G01 X2.2148 Y0.5286
G01 X2.3635 Y0.4550
G01 X2.5156 Y0.3887
G01 X2.6707 Y0.3298
G01 X2.8284 Y0.2785
G01 X2.9885 Y0.2349
G01 X3.1505 Y0.1991
G01 X3.3140 Y0.1711
G01 X3.4787 Y0.1511
G01 X3.6442 Y0.1391
G01 X3.8116 Y0.1350
G01 X14.4710 Y0.1350
G01 X14.6193 Y0.1504
G01 X14.7704 Y0.1735
G01 X14.9202 Y0.2038
G01 X15.0683 Y0.2413
G01 X15.2145 Y0.2859
G01 X15.3584 Y0.3375
G01 X15.4997 Y0.3959
G01 X15.6379 Y0.4610
G01 X15.7729 Y0.5328
G01 X15.9043 Y0.6109
G01 X16.0317 Y0.6952
G01 X16.1550 Y0.7856
G01 X16.2737 Y0.8818
G01 X16.3877 Y0.9836
G01 X16.4967 Y1.0908
G01 X16.6004 Y1.2031
G01 X16.6986 Y1.3202
G01 X16.7910 Y1.4419
G01 X16.8775 Y1.5679
G01 X16.9578 Y1.6980
G01 X17.0317 Y1.8317
G01 X17.0992 Y1.9689
G01 X17.1599 Y2.1091
G01 X17.2139 Y2.2521
G01 X17.2609 Y2.3976
G01 X17.3009 Y2.5451
G01 X17.3337 Y2.6944
G01 X17.3593 Y2.8450
G01 X17.3777 Y2.9968
G01 X17.3887 Y3.1492
G01 X17.3924 Y3.3036
G01 X17.3910 Y8.6295
G01 X17.3755 Y8.7915
G01 X17.3517 Y8.9557
G01 X17.3200 Y9.1185
G01 X17.2805 Y9.2797
G01 X17.2332 Y9.4387
G01 X17.1783 Y9.5952
G01 X17.1159 Y9.7489
G01 X17.0461 Y9.8994
G01 X16.9691 Y10.0464
G01 X16.8851 Y10.1895
G01 X16.7943 Y10.3283
G01 X16.6969 Y10.4626
G01 X16.5931 Y10.5920
G01 X16.4832 Y10.7162
G01 X16.3674 Y10.8350
G01 X16.2460 Y10.9481
G01 X16.1193 Y11.0551
G01 X15.9875 Y11.1559
G01 X15.8510 Y11.2502
G01 X15.7101 Y11.3378
G01 X15.5652 Y11.4185
G01 X15.4165 Y11.4921
G01 X15.2644 Y11.5584
G01 X15.1093 Y11.6173
G01 X14.9516 Y11.6686
G01 X14.7915 Y11.7122
G01 X14.6295 Y11.7480
G01 X14.4660 Y11.7760
G01 X14.3013 Y11.7960
G01 X14.1358 Y11.8080
G01 X13.9684 Y11.8120
G01 X3.5625 Y11.8030
G01 X3.4005 Y11.7875
G01 X3.2363 Y11.7637
G01 X3.0735 Y11.7320
G01 X2.9123 Y11.6925
G01 X2.7533 Y11.6452
G01 X2.5968 Y11.5903
G01 X2.4431 Y11.5279
G01 X2.2926 Y11.4581
G01 X2.1456 Y11.3811
G01 X2.0025 Y11.2971
G01 X1.8637 Y11.2063
G01 X1.7294 Y11.1089
G01 X1.6000 Y11.0051
G01 X1.4758 Y10.8952
G01 X1.3570 Y10.7794
G01 X1.2439 Y10.6580
G01 X1.1369 Y10.5313
G01 X1.0361 Y10.3995
G01 X0.9418 Y10.2630
G01 X0.8542 Y10.1221
G01 X0.7735 Y9.9772
G01 X0.6999 Y9.8285
G01 X0.6336 Y9.6764
G01 X0.5747 Y9.5213
G01 X0.5234 Y9.3636
G01 X0.4798 Y9.2035
G01 X0.4440 Y9.0415
G01 X0.4160 Y8.8780
G01 X0.3960 Y8.7133
G01 X0.3840 Y8.5478
G01 X0.3800 Y8.3805
G01 X0.3890 Y3.3176
G00 Z1.9990
G00 X0.4490 Y3.3206
G01 F100.00
G01 Z-0.0700
G01 F500.00
G01 X0.4641 Y3.1627
G01 X0.4875 Y3.0014
G01 X0.5186 Y2.8414
G01 X0.5575 Y2.6831
G01 X0.6039 Y2.5269
G01 X0.6579 Y2.3731
G01 X0.7192 Y2.2221
G01 X0.7877 Y2.0742
G01 X0.8634 Y1.9298
G01 X0.9459 Y1.7892
G01 X1.0351 Y1.6528
G01 X1.1308 Y1.5209
G01 X1.2328 Y1.3937
G01 X1.3408 Y1.2717
G01 X1.4545 Y1.1549
G01 X1.5738 Y1.0439
G01 X1.6984 Y0.9387
G01 X1.8278 Y0.8397
G01 X1.9619 Y0.7470
G01 X2.1003 Y0.6610
G01 X2.2427 Y0.5817
G01 X2.3888 Y0.5094
G01 X2.5382 Y0.4443
G01 X2.6906 Y0.3864
G01 X2.8456 Y0.3360
G01 X3.0029 Y0.2932
G01 X3.1620 Y0.2580
G01 X3.3227 Y0.2305
G01 X3.4845 Y0.2108
G01 X3.6471 Y0.1990
G01 X3.8124 Y0.1950
G01 X14.4679 Y0.1950
G01 X14.6117 Y0.2100
G01 X14.7599 Y0.2326
G01 X14.9069 Y0.2624
G01 X15.0522 Y0.2992
G01 X15.1957 Y0.3429
G01 X15.3368 Y0.3935
G01 X15.4754 Y0.4508
G01 X15.6110 Y0.5147
G01 X15.7435 Y0.5851
G01 X15.8723 Y0.6617
G01 X15.9974 Y0.7445
G01 X16.1183 Y0.8331
G01 X16.2348 Y0.9275
G01 X16.3467 Y1.0274
G01 X16.4536 Y1.1325
G01 X16.5553 Y1.2427
G01 X16.6517 Y1.3576
G01 X16.7423 Y1.4771
G01 X16.8272 Y1.6007
G01 X16.9060 Y1.7283
G01 X16.9785 Y1.8595
G01 X17.0447 Y1.9941
G01 X17.1043 Y2.1317
G01 X17.1572 Y2.2720
G01 X17.2034 Y2.4146
G01 X17.2426 Y2.5594
G01 X17.2748 Y2.7058
G01 X17.2999 Y2.8537
G01 X17.3179 Y3.0025
G01 X17.3287 Y3.1521
G01 X17.3324 Y3.3043
G01 X17.3310 Y8.6267
G01 X17.3159 Y8.7844
G01 X17.2925 Y8.9457
G01 X17.2614 Y9.1057
G01 X17.2225 Y9.2639
G01 X17.1761 Y9.4202
G01 X17.1221 Y9.5740
G01 X17.0608 Y9.7250
G01 X16.9923 Y9.8729
G01 X16.9166 Y10.0173
G01 X16.8341 Y10.1578
G01 X16.7449 Y10.2942
G01 X16.6492 Y10.4262
G01 X16.5472 Y10.5533
G01 X16.4392 Y10.6754
G01 X16.3255 Y10.7921
G01 X16.2062 Y10.9032
G01 X16.0817 Y11.0084
G01 X15.9522 Y11.1074
G01 X15.8181 Y11.2000
G01 X15.6797 Y11.2861
G01 X15.5373 Y11.3654
G01 X15.3912 Y11.4377
G01 X15.2418 Y11.5028
G01 X15.0894 Y11.5607
G01 X14.9344 Y11.6111
G01 X14.7771 Y11.6539
G01 X14.6180 Y11.6891
G01 X14.4573 Y11.7166
G01 X14.2955 Y11.7362
G01 X14.1329 Y11.7480
G01 X13.9677 Y11.7520
G01 X3.5654 Y11.7430
G01 X3.4076 Y11.7279
G01 X3.2463 Y11.7045
G01 X3.0863 Y11.6734
G01 X2.9281 Y11.6345
G01 X2.7718 Y11.5881
G01 X2.6180 Y11.5341
G01 X2.4670 Y11.4728
G01 X2.3191 Y11.4043
G01 X2.1747 Y11.3286
G01 X2.0342 Y11.2461
G01 X1.8978 Y11.1569
G01 X1.7658 Y11.0612
G01 X1.6387 Y10.9592
G01 X1.5166 Y10.8512
G01 X1.3999 Y10.7375
G01 X1.2888 Y10.6182
G01 X1.1836 Y10.4937
G01 X1.0846 Y10.3642
G01 X0.9920 Y10.2301
G01 X0.9059 Y10.0917
G01 X0.8266 Y9.9493
G01 X0.7543 Y9.8032
G01 X0.6892 Y9.6538
G01 X0.6313 Y9.5014
G01 X0.5809 Y9.3464
G01 X0.5381 Y9.1891
G01 X0.5029 Y9.0300
G01 X0.4754 Y8.8693
G01 X0.4558 Y8.7075
G01 X0.4440 Y8.5449
G01 X0.4400 Y8.3798
G01 X0.4490 Y3.3206
G00 Z1.9990
G00 X0.5090 Y3.3235
G01 F100.00
G01 Z-0.0700
G01 F500.00
G01 X0.5237 Y3.1699
G01 X0.5467 Y3.0114
G01 X0.5772 Y2.8543
G01 X0.6154 Y2.6988
G01 X0.6610 Y2.5454
G01 X0.7140 Y2.3943
G01 X0.7742 Y2.2460
G01 X0.8416 Y2.1007
G01 X0.9158 Y1.9589
G01 X0.9969 Y1.8209
G01 X1.0845 Y1.6869
G01 X1.1785 Y1.5573
G01 X1.2787 Y1.4324
G01 X1.3847 Y1.3125
G01 X1.4965 Y1.1979
G01 X1.6137 Y1.0888
G01 X1.7360 Y0.9855
G01 X1.8631 Y0.8882
G01 X1.9948 Y0.7972
G01 X2.1308 Y0.7127
G01 X2.2707 Y0.6348
G01 X2.4141 Y0.5638
G01 X2.5609 Y0.4998
G01 X2.7106 Y0.4430
G01 X2.8628 Y0.3935
G01 X3.0173 Y0.3514
G01 X3.1736 Y0.3168
G01 X3.3314 Y0.2899
G01 X3.4903 Y0.2706
G01 X3.6500 Y0.2590
G01 X3.8131 Y0.2550
G01 X14.4648 Y0.2550
G01 X14.6040 Y0.2695
G01 X14.7494 Y0.2917
G01 X14.8935 Y0.3209
G01 X15.0361 Y0.3570
G01 X15.1768 Y0.3999
G01 X15.3152 Y0.4495
G01 X15.4511 Y0.5057
G01 X15.5842 Y0.5684
G01 X15.7140 Y0.6374
G01 X15.8404 Y0.7125
G01 X15.9631 Y0.7937
G01 X16.0817 Y0.8807
G01 X16.1959 Y0.9732
G01 X16.3056 Y1.0712
G01 X16.4105 Y1.1743
G01 X16.5103 Y1.2823
G01 X16.6047 Y1.3951
G01 X16.6937 Y1.5122
G01 X16.7769 Y1.6335
G01 X16.8541 Y1.7586
G01 X16.9253 Y1.8873
G01 X16.9902 Y2.0193
G01 X17.0487 Y2.1542
G01 X17.1006 Y2.2918
G01 X17.1458 Y2.4317
G01 X17.1843 Y2.5737
G01 X17.2159 Y2.7173
G01 X17.2405 Y2.8623
G01 X17.2582 Y3.0083
G01 X17.2688 Y3.1550
G01 X17.2724 Y3.3050
G01 X17.2710 Y8.6238
G01 X17.2563 Y8.7772
G01 X17.2333 Y8.9356
G01 X17.2028 Y9.0928
G01 X17.1646 Y9.2482
G01 X17.1190 Y9.4017
G01 X17.0660 Y9.5528
G01 X17.0058 Y9.7011
G01 X16.9384 Y9.8463
G01 X16.8642 Y9.9881
G01 X16.7831 Y10.1262
G01 X16.6955 Y10.2602
G01 X16.6015 Y10.3898
G01 X16.5013 Y10.5147
G01 X16.3953 Y10.6346
G01 X16.2835 Y10.7492
G01 X16.1663 Y10.8583
G01 X16.0440 Y10.9616
G01 X15.9169 Y11.0589
G01 X15.7852 Y11.1499
G01 X15.6492 Y11.2344
G01 X15.5093 Y11.3122
G01 X15.3659 Y11.3832
G01 X15.2191 Y11.4472
G01 X15.0694 Y11.5040
G01 X14.9172 Y11.5535
G01 X14.7627 Y11.5956
G01 X14.6064 Y11.6302
G01 X14.4486 Y11.6572
G01 X14.2897 Y11.6765
G01 X14.1300 Y11.6881
G01 X13.9670 Y11.6920
G01 X3.5683 Y11.6830
G01 X3.4148 Y11.6683
G01 X3.2564 Y11.6453
G01 X3.0992 Y11.6148
G01 X2.9438 Y11.5766
G01 X2.7903 Y11.5310
G01 X2.6392 Y11.4780
G01 X2.4909 Y11.4178
G01 X2.3457 Y11.3504
G01 X2.2039 Y11.2762
G01 X2.0658 Y11.1951
G01 X1.9318 Y11.1075
G01 X1.8022 Y11.0135
G01 X1.6773 Y10.9133
G01 X1.5574 Y10.8073
G01 X1.4428 Y10.6955
G01 X1.3337 Y10.5783
G01 X1.2304 Y10.4560
G01 X1.1331 Y10.3289
G01 X1.0421 Y10.1972
G01 X0.9576 Y10.0612
G01 X0.8798 Y9.9213
G01 X0.8088 Y9.7779
G01 X0.7448 Y9.6311
G01 X0.6880 Y9.4814
G01 X0.6385 Y9.3292
G01 X0.5964 Y9.1747
G01 X0.5618 Y9.0184
G01 X0.5348 Y8.8606
G01 X0.5155 Y8.7017
G01 X0.5039 Y8.5420
G01 X0.5000 Y8.3791
G01 X0.5090 Y3.3235
G00 Z1.9990
G00 X0.5690 Y3.3264
G01 F100.00
G01 Z-0.0700
G01 F500.00
G01 X0.5833 Y3.1770
G01 X0.6058 Y3.0215
G01 X0.6359 Y2.8672
G01 X0.6733 Y2.7145
G01 X0.7181 Y2.5639
G01 X0.7701 Y2.4155
G01 X0.8293 Y2.2699
G01 X0.8954 Y2.1273
G01 X0.9683 Y1.9880
G01 X1.0479 Y1.8525
G01 X1.1339 Y1.7209
G01 X1.2262 Y1.5937
G01 X1.3246 Y1.4711
G01 X1.4287 Y1.3533
G01 X1.5384 Y1.2408
G01 X1.6535 Y1.1337
G01 X1.7736 Y1.0322
G01 X1.8984 Y0.9367
G01 X2.0277 Y0.8474
G01 X2.1612 Y0.7644
G01 X2.2986 Y0.6879
G01 X2.4394 Y0.6182
G01 X2.5835 Y0.5554
G01 X2.7305 Y0.4996
G01 X2.8800 Y0.4510
G01 X3.0316 Y0.4097
G01 X3.1851 Y0.3757
G01 X3.3400 Y0.3493
G01 X3.4961 Y0.3303
G01 X3.6529 Y0.3189
G01 X3.8138 Y0.3150
G01 X14.4617 Y0.3150
G01 X14.5964 Y0.3290
G01 X14.7389 Y0.3508
G01 X14.8802 Y0.3794
G01 X15.0200 Y0.4148
G01 X15.1579 Y0.4568
G01 X15.2936 Y0.5055
G01 X15.4269 Y0.5606
G01 X15.5573 Y0.6220
G01 X15.6846 Y0.6897
G01 X15.8085 Y0.7634
G01 X15.9288 Y0.8429
G01 X16.0450 Y0.9282
G01 X16.1571 Y1.0189
G01 X16.2646 Y1.1150
G01 X16.3674 Y1.2161
G01 X16.4652 Y1.3220
G01 X16.5578 Y1.4325
G01 X16.6450 Y1.5473
G01 X16.7266 Y1.6662
G01 X16.8023 Y1.7889
G01 X16.8721 Y1.9151
G01 X16.9357 Y2.0444
G01 X16.9931 Y2.1767
G01 X17.0440 Y2.3116
G01 X17.0883 Y2.4488
G01 X17.1260 Y2.5880
G01 X17.1570 Y2.7288
G01 X17.1811 Y2.8709
G01 X17.1984 Y3.0141
G01 X17.2088 Y3.1579
G01 X17.2124 Y3.3057
G01 X17.2110 Y8.6209
G01 X17.1967 Y8.7700
G01 X17.1742 Y8.9256
G01 X17.1441 Y9.0799
G01 X17.1067 Y9.2325
G01 X17.0619 Y9.3832
G01 X17.0099 Y9.5315
G01 X16.9507 Y9.6772
G01 X16.8846 Y9.8198
G01 X16.8117 Y9.9590
G01 X16.7321 Y10.0946
G01 X16.6461 Y10.2261
G01 X16.5538 Y10.3534
G01 X16.4554 Y10.4760
G01 X16.3513 Y10.5937
G01 X16.2416 Y10.7063
G01 X16.1265 Y10.8134
G01 X16.0064 Y10.9148
G01 X15.8816 Y11.0103
G01 X15.7523 Y11.0997
G01 X15.6188 Y11.1827
G01 X15.4814 Y11.2591
G01 X15.3406 Y11.3288
G01 X15.1965 Y11.3916
G01 X15.0495 Y11.4474
G01 X14.9000 Y11.4960
G01 X14.7484 Y11.5374
G01 X14.5949 Y11.5713
G01 X14.4400 Y11.5978
G01 X14.2839 Y11.6168
G01 X14.1271 Y11.6282
G01 X13.9663 Y11.6320
G01 X3.5712 Y11.6230
G01 X3.4220 Y11.6087
G01 X3.2664 Y11.5862
G01 X3.1121 Y11.5561
G01 X2.9595 Y11.5187
G01 X2.8088 Y11.4739
G01 X2.6605 Y11.4219
G01 X2.5148 Y11.3627
G01 X2.3722 Y11.2966
G01 X2.2330 Y11.2237
G01 X2.0974 Y11.1441
G01 X1.9659 Y11.0581
G01 X1.8386 Y10.9658
G01 X1.7160 Y10.8674
G01 X1.5983 Y10.7633
G01 X1.4857 Y10.6536
G01 X1.3786 Y10.5385
G01 X1.2772 Y10.4184
G01 X1.1817 Y10.2936
G01 X1.0923 Y10.1643
G01 X1.0093 Y10.0308
G01 X0.9329 Y9.8934
G01 X0.8632 Y9.7526
G01 X0.8004 Y9.6085
G01 X0.7446 Y9.4615
G01 X0.6960 Y9.3120
G01 X0.6546 Y9.1604
G01 X0.6207 Y9.0069
G01 X0.5942 Y8.8520
G01 X0.5752 Y8.6959
G01 X0.5638 Y8.5391
G01 X0.5600 Y8.3785
G01 X0.5690 Y3.3264
G00 Z1.9990
G00 X0.1699 Y8.3819
G01 F100.00
G01 Z-0.0700
G01 F500.00
G01 X0.1790 Y3.3097
G01 X0.1959 Y3.1311
G01 X0.2211 Y2.9568
G01 X0.2550 Y2.7828
G01 X0.2973 Y2.6107
G01 X0.3472 Y2.4431
G01 X0.4046 Y2.2792
G01 X0.4708 Y2.1161
G01 X0.5453 Y1.9552
G01 X0.6275 Y1.7982
G01 X0.7173 Y1.6454
G01 X0.8124 Y1.5001
G01 X0.9150 Y1.3585
G01 X1.0258 Y1.2202
G01 X1.1433 Y1.0874
G01 X1.2671 Y0.9605
G01 X1.3942 Y0.8422
G01 X1.5277 Y0.7294
G01 X1.6685 Y0.6216
G01 X1.8133 Y0.5215
G01 X1.9638 Y0.4279
G01 X2.1188 Y0.3418
G01 X2.2744 Y0.2648
G01 X2.4346 Y0.1948
G01 X2.5998 Y0.1321
G01 X2.7678 Y0.0774
G01 X2.9364 Y0.0314
G01 X3.1119 Y-0.0074
G01 X3.2842 Y-0.0368
G01 X3.4578 Y-0.0579
G01 X3.6334 Y-0.0707
G01 X3.8082 Y-0.0750
G01 X14.4781 Y-0.0750
G01 X14.6472 Y-0.0578
G01 X14.8065 Y-0.0334
G01 X14.9650 Y-0.0014
G01 X15.1253 Y0.0392
G01 X15.2823 Y0.0871
G01 X15.4346 Y0.1417
G01 X15.5840 Y0.2035
G01 X15.7336 Y0.2740
G01 X15.8764 Y0.3500
G01 X16.0154 Y0.4326
G01 X16.1533 Y0.5239
G01 X16.2837 Y0.6196
G01 X16.4084 Y0.7206
G01 X16.5309 Y0.8299
G01 X16.6488 Y0.9459
G01 X16.7585 Y1.0647
G01 X16.8616 Y1.1878
G01 X16.9623 Y1.3204
G01 X17.0531 Y1.4528
G01 X17.1382 Y1.5904
G01 X17.2182 Y1.7351
G01 X17.2906 Y1.8824
G01 X17.3549 Y2.0308
G01 X17.4118 Y2.1816
G01 X17.4621 Y2.3372
G01 X17.5044 Y2.4933
G01 X17.5402 Y2.6560
G01 X17.5673 Y2.8154
G01 X17.5868 Y2.9772
G01 X17.5985 Y3.1385
G01 X17.6024 Y3.3008
G01 X17.6010 Y8.6366
G01 X17.5838 Y8.8184
G01 X17.5587 Y8.9914
G01 X17.5249 Y9.1648
G01 X17.4827 Y9.3364
G01 X17.4328 Y9.5040
G01 X17.3754 Y9.6678
G01 X17.3088 Y9.8321
G01 X17.2337 Y9.9940
G01 X17.1525 Y10.1489
G01 X17.0646 Y10.2986
G01 X16.9670 Y10.4480
G01 X16.8628 Y10.5914
G01 X16.7534 Y10.7278
G01 X16.6383 Y10.8579
G01 X16.5147 Y10.9848
G01 X16.3840 Y11.1064
G01 X16.2514 Y11.2185
G01 X16.1125 Y11.3247
G01 X15.9667 Y11.4256
G01 X15.8162 Y11.5192
G01 X15.6612 Y11.6053
G01 X15.5056 Y11.6823
G01 X15.3454 Y11.7522
G01 X15.1802 Y11.8150
G01 X15.0122 Y11.8697
G01 X14.8436 Y11.9157
G01 X14.6681 Y11.9545
G01 X14.4958 Y11.9839
G01 X14.3210 Y12.0051
G01 X14.1466 Y12.0178
G01 X13.9705 Y12.0221
G01 X3.5553 Y12.0130
G01 X3.3736 Y11.9958
G01 X3.2006 Y11.9707
G01 X3.0272 Y11.9369
G01 X2.8568 Y11.8950
G01 X2.6892 Y11.8452
G01 X2.5231 Y11.7870
G01 X2.3610 Y11.7212
G01 X2.1980 Y11.6457
G01 X2.0431 Y11.5645
G01 X1.8913 Y11.4753
G01 X1.7450 Y11.3796
G01 X1.6025 Y11.2763
G01 X1.4651 Y11.1662
G01 X1.3341 Y11.0503
G01 X1.2055 Y10.9249
G01 X1.0864 Y10.7969
G01 X0.9728 Y10.6624
G01 X0.8666 Y10.5235
G01 X0.7664 Y10.3787
G01 X0.6735 Y10.2292
G01 X0.5884 Y10.0765
G01 X0.5087 Y9.9154
G01 X0.4389 Y9.7551
G01 X0.3764 Y9.5905
G01 X0.3223 Y9.4242
G01 X0.2760 Y9.2544
G01 X0.2380 Y9.0825
G01 X0.2085 Y8.9102
G01 X0.1868 Y8.7318
G01 X0.1742 Y8.5574
G01 X0.1699 Y8.3819
G00 Z1.9990
G00 X0.1099 Y8.3818
G01 F100.00
G01 Z-0.0700
G01 F500.00
G01 X0.1190 Y3.3072
G01 X0.1363 Y3.1239
G01 X0.1626 Y2.9430
G01 X0.1964 Y2.7699
G01 X0.2381 Y2.5999
G01 X0.2889 Y2.4283
G01 X0.3489 Y2.2569
G01 X0.4178 Y2.0875
G01 X0.4932 Y1.9252
G01 X0.5750 Y1.7691
G01 X0.6636 Y1.6181
G01 X0.7630 Y1.4660
G01 X0.8687 Y1.3202
G01 X0.9807 Y1.1806
G01 X1.1012 Y1.0447
G01 X1.2262 Y0.9166
G01 X1.3544 Y0.7973
G01 X1.4890 Y0.6835
G01 X1.6332 Y0.5731
G01 X1.7814 Y0.4707
G01 X1.9334 Y0.3762
G01 X2.0921 Y0.2880
G01 X2.2491 Y0.2104
G01 X2.4107 Y0.1398
G01 X2.5804 Y0.0753
G01 X2.7506 Y0.0199
G01 X2.9207 Y-0.0265
G01 X3.1018 Y-0.0666
G01 X3.2756 Y-0.0962
G01 X3.4532 Y-0.1178
G01 X3.6305 Y-0.1306
G01 X3.8081 Y-0.1350
G01 X14.4783 Y-0.1350
G01 X14.4915 Y-0.1343
G01 X14.6556 Y-0.1172
G01 X14.8170 Y-0.0925
G01 X14.9769 Y-0.0602
G01 X15.1415 Y-0.0186
G01 X15.3026 Y0.0306
G01 X15.4562 Y0.0857
G01 X15.6083 Y0.1487
G01 X15.7617 Y0.2211
G01 X15.9058 Y0.2977
G01 X16.0473 Y0.3818
G01 X16.1888 Y0.4755
G01 X16.3203 Y0.5721
G01 X16.4462 Y0.6740
G01 X16.5720 Y0.7861
G01 X16.6929 Y0.9052
G01 X16.8035 Y1.0251
G01 X16.9076 Y1.1492
G01 X17.0118 Y1.2865
G01 X17.1034 Y1.4201
G01 X17.1892 Y1.5589
G01 X17.2714 Y1.7073
G01 X17.3456 Y1.8586
G01 X17.4105 Y2.0083
G01 X17.4681 Y2.1611
G01 X17.5196 Y2.3201
G01 X17.5624 Y2.4776
G01 X17.5994 Y2.6459
G01 X17.6267 Y2.8068
G01 X17.6465 Y2.9714
G01 X17.6584 Y3.1356
G01 X17.6624 Y3.3001
G01 X17.6610 Y8.6374
G01 X17.6432 Y8.8270
G01 X17.6178 Y9.0015
G01 X17.5833 Y9.1784
G01 X17.5402 Y9.3535
G01 X17.4899 Y9.5224
G01 X17.4320 Y9.6877
G01 X17.3638 Y9.8560
G01 X17.2868 Y10.0218
G01 X17.2050 Y10.1780
G01 X17.1164 Y10.3290
G01 X17.0164 Y10.4820
G01 X16.9096 Y10.6290
G01 X16.7993 Y10.7665
G01 X16.6833 Y10.8976
G01 X16.5566 Y11.0278
G01 X16.4227 Y11.1523
G01 X16.2889 Y11.2652
G01 X16.1490 Y11.3724
G01 X15.9996 Y11.4757
G01 X15.8466 Y11.5709
G01 X15.6879 Y11.6591
G01 X15.5309 Y11.7367
G01 X15.3693 Y11.8072
G01 X15.1996 Y11.8718
G01 X15.0294 Y11.9272
G01 X14.8593 Y11.9736
G01 X14.6782 Y12.0136
G01 X14.5044 Y12.0433
G01 X14.3268 Y12.0648
G01 X14.1495 Y12.0777
G01 X13.9712 Y12.0821
G01 X3.5545 Y12.0730
G01 X3.3650 Y12.0552
G01 X3.1905 Y12.0298
G01 X3.0136 Y11.9953
G01 X2.8411 Y11.9530
G01 X2.6707 Y11.9023
G01 X2.5018 Y11.8431
G01 X2.3385 Y11.7768
G01 X2.1702 Y11.6988
G01 X2.0140 Y11.6170
G01 X1.8597 Y11.5263
G01 X1.7110 Y11.4291
G01 X1.5661 Y11.3240
G01 X1.4265 Y11.2121
G01 X1.2944 Y11.0953
G01 X1.1616 Y10.9658
G01 X1.0415 Y10.8367
G01 X0.9260 Y10.7000
G01 X0.8180 Y10.5588
G01 X0.7163 Y10.4116
G01 X0.6218 Y10.2597
G01 X0.5360 Y10.1056
G01 X0.4537 Y9.9394
G01 X0.3833 Y9.7778
G01 X0.3198 Y9.6105
G01 X0.2648 Y9.4414
G01 X0.2178 Y9.2688
G01 X0.1791 Y9.0940
G01 X0.1493 Y8.9203
G01 X0.1270 Y8.7361
G01 X0.1142 Y8.5603
G01 X0.1099 Y8.3818
G00 Z1.9990
G00 X0.0499 Y8.3817
G01 F100.00
G01 Z-0.0700
G01 F500.00
G01 X0.0591 Y3.3058
G01 X0.0768 Y3.1167
G01 X0.1037 Y2.9315
G01 X0.1378 Y2.7571
G01 X0.1798 Y2.5856
G01 X0.2314 Y2.4112
G01 X0.2928 Y2.2357
G01 X0.3633 Y2.0623
G01 X0.4400 Y1.8974
G01 X0.5226 Y1.7400
G01 X0.6119 Y1.5877
G01 X0.7135 Y1.4320
G01 X0.8210 Y1.2838
G01 X0.9348 Y1.1419
G01 X1.0582 Y1.0028
G01 X1.1853 Y0.8727
G01 X1.3145 Y0.7524
G01 X1.4503 Y0.6377
G01 X1.5979 Y0.5246
G01 X1.7485 Y0.4205
G01 X1.9030 Y0.3245
G01 X2.0655 Y0.2342
G01 X2.2238 Y0.1560
G01 X2.3867 Y0.0848
G01 X2.5605 Y0.0187
G01 X2.7334 Y-0.0376
G01 X2.9049 Y-0.0844
G01 X3.0917 Y-0.1257
G01 X3.2669 Y-0.1556
G01 X3.4474 Y-0.1775
G01 X3.6276 Y-0.1906
G01 X3.8073 Y-0.1950
G01 X14.4785 Y-0.1950
G01 X14.4971 Y-0.1941
G01 X14.6639 Y-0.1766
G01 X14.8275 Y-0.1516
G01 X14.9889 Y-0.1190
G01 X15.1576 Y-0.0764
G01 X15.3228 Y-0.0259
G01 X15.4778 Y0.0298
G01 X15.6326 Y0.0938
G01 X15.7899 Y0.1681
G01 X15.9352 Y0.2454
G01 X16.0792 Y0.3310
G01 X16.2242 Y0.4272
G01 X16.3570 Y0.5246
G01 X16.4840 Y0.6274
G01 X16.6130 Y0.7424
G01 X16.7369 Y0.8645
G01 X16.8486 Y0.9855
G01 X16.9536 Y1.1107
G01 X17.0613 Y1.2525
G01 X17.1537 Y1.3873
G01 X17.2403 Y1.5273
G01 X17.3246 Y1.6795
G01 X17.4007 Y1.8347
G01 X17.4661 Y1.9858
G01 X17.5245 Y2.1406
G01 X17.5771 Y2.3030
G01 X17.6203 Y2.4619
G01 X17.6585 Y2.6358
G01 X17.6860 Y2.7982
G01 X17.7062 Y2.9657
G01 X17.7183 Y3.1327
G01 X17.7224 Y3.2994
G01 X17.7210 Y8.6381
G01 X17.7201 Y8.6546
G01 X17.7026 Y8.8356
G01 X17.6770 Y9.0115
G01 X17.6418 Y9.1920
G01 X17.5977 Y9.3706
G01 X17.5470 Y9.5409
G01 X17.4886 Y9.7075
G01 X17.4188 Y9.8799
G01 X17.3400 Y10.0497
G01 X17.2574 Y10.2071
G01 X17.1681 Y10.3593
G01 X17.0658 Y10.5161
G01 X16.9564 Y10.6665
G01 X16.8452 Y10.8051
G01 X16.7282 Y10.9374
G01 X16.5985 Y11.0707
G01 X16.4614 Y11.1981
G01 X16.3265 Y11.3120
G01 X16.1854 Y11.4200
G01 X16.0325 Y11.5259
G01 X15.8771 Y11.6226
G01 X15.7145 Y11.7128
G01 X15.5562 Y11.7911
G01 X15.3933 Y11.8622
G01 X15.2195 Y11.9284
G01 X15.0466 Y11.9846
G01 X14.8751 Y12.0315
G01 X14.6883 Y12.0728
G01 X14.5131 Y12.1026
G01 X14.3326 Y12.1245
G01 X14.1524 Y12.1376
G01 X13.9719 Y12.1421
G01 X3.5537 Y12.1330
G01 X3.5374 Y12.1321
G01 X3.3564 Y12.1146
G01 X3.1805 Y12.0890
G01 X3.0000 Y12.0538
G01 X2.8254 Y12.0109
G01 X2.6522 Y11.9594
G01 X2.4806 Y11.8992
G01 X2.3159 Y11.8324
G01 X2.1423 Y11.7520
G01 X1.9849 Y11.6694
G01 X1.8281 Y11.5773
G01 X1.6769 Y11.4785
G01 X1.5297 Y11.3717
G01 X1.3878 Y11.2579
G01 X1.2546 Y11.1402
G01 X1.1177 Y11.0067
G01 X0.9966 Y10.8766
G01 X0.8793 Y10.7376
G01 X0.7695 Y10.5941
G01 X0.6661 Y10.4445
G01 X0.5701 Y10.2901
G01 X0.4835 Y10.1348
G01 X0.3987 Y9.9634
G01 X0.3277 Y9.8004
G01 X0.2632 Y9.6304
G01 X0.2074 Y9.4586
G01 X0.1595 Y9.2831
G01 X0.1202 Y9.1056
G01 X0.0902 Y8.9304
G01 X0.0671 Y8.7405
G01 X0.0543 Y8.5632
G01 X0.0499 Y8.3817
G00 Z1.9990
G00 X-0.0101 Y8.3815
G01 F100.00
G01 Z-0.0700
G01 F500.00
G01 X-0.0009 Y3.3044
G01 X0.0002 Y3.2867
G01 X0.0172 Y3.1096
G01 X0.0448 Y2.9201
G01 X0.0792 Y2.7442
G01 X0.1215 Y2.5713
G01 X0.1739 Y2.3941
G01 X0.2367 Y2.2144
G01 X0.3089 Y2.0371
G01 X0.3869 Y1.8696
G01 X0.4701 Y1.7109
G01 X0.5602 Y1.5573
G01 X0.6641 Y1.3979
G01 X0.7733 Y1.2474
G01 X0.8890 Y1.1033
G01 X1.0152 Y0.9609
G01 X1.1444 Y0.8288
G01 X1.2747 Y0.7076
G01 X1.4116 Y0.5919
G01 X1.5626 Y0.4760
G01 X1.7156 Y0.3703
G01 X1.8725 Y0.2728
G01 X2.0389 Y0.1804
G01 X2.1985 Y0.1016
G01 X2.3627 Y0.0298
G01 X2.5406 Y-0.0379
G01 X2.7162 Y-0.0951
G01 X2.8891 Y-0.1423
G01 X3.0816 Y-0.1848
G01 X3.2582 Y-0.2149
G01 X3.4416 Y-0.2372
G01 X3.6247 Y-0.2505
G01 X3.8066 Y-0.2550
G01 X14.4786 Y-0.2550
G01 X14.5030 Y-0.2538
G01 X14.6723 Y-0.2360
G01 X14.8380 Y-0.2106
G01 X15.0008 Y-0.1778
G01 X15.1737 Y-0.1342
G01 X15.3431 Y-0.0823
G01 X15.4994 Y-0.0262
G01 X15.6568 Y0.0389
G01 X15.8181 Y0.1151
G01 X15.9647 Y0.1931
G01 X16.1111 Y0.2802
G01 X16.2597 Y0.3788
G01 X16.3936 Y0.4771
G01 X16.5217 Y0.5808
G01 X16.6540 Y0.6986
G01 X16.7810 Y0.8238
G01 X16.8936 Y0.9458
G01 X16.9996 Y1.0722
G01 X17.1108 Y1.2186
G01 X17.2040 Y1.3546
G01 X17.2913 Y1.4958
G01 X17.3778 Y1.6518
G01 X17.4557 Y1.8108
G01 X17.5217 Y1.9633
G01 X17.5818 Y2.1227
G01 X17.6347 Y2.2860
G01 X17.6782 Y2.4462
G01 X17.7177 Y2.6258
G01 X17.7454 Y2.7895
G01 X17.7660 Y2.9599
G01 X17.7783 Y3.1298
G01 X17.7824 Y3.2987
G01 X17.7810 Y8.6389
G01 X17.7799 Y8.6603
G01 X17.7619 Y8.8442
G01 X17.7362 Y9.0215
G01 X17.7002 Y9.2056
G01 X17.6552 Y9.3877
G01 X17.6041 Y9.5594
G01 X17.5452 Y9.7274
G01 X17.4739 Y9.9038
G01 X17.3931 Y10.0775
G01 X17.3099 Y10.2362
G01 X17.2198 Y10.3897
G01 X17.1152 Y10.5501
G01 X17.0032 Y10.7040
G01 X16.8910 Y10.8438
G01 X16.7732 Y10.9771
G01 X16.6405 Y11.1136
G01 X16.5002 Y11.2439
G01 X16.3641 Y11.3587
G01 X16.2219 Y11.4677
G01 X16.0654 Y11.5761
G01 X15.9075 Y11.6743
G01 X15.7411 Y11.7666
G01 X15.5815 Y11.8455
G01 X15.4173 Y11.9172
G01 X15.2395 Y11.9850
G01 X15.0638 Y12.0421
G01 X14.8909 Y12.0893
G01 X14.6984 Y12.1319
G01 X14.5218 Y12.1620
G01 X14.3384 Y12.1843
G01 X14.1553 Y12.1976
G01 X13.9726 Y12.2021
G01 X3.5530 Y12.1930
G01 X3.5317 Y12.1919
G01 X3.3478 Y12.1739
G01 X3.1705 Y12.1482
G01 X2.9864 Y12.1122
G01 X2.8097 Y12.0688
G01 X2.6337 Y12.0165
G01 X2.4594 Y11.9553
G01 X2.2933 Y11.8880
G01 X2.1145 Y11.8051
G01 X1.9558 Y11.7219
G01 X1.7965 Y11.6283
G01 X1.6429 Y11.5279
G01 X1.4933 Y11.4194
G01 X1.3491 Y11.3038
G01 X1.2149 Y11.1852
G01 X1.0737 Y11.0476
G01 X0.9517 Y10.9164
G01 X0.8325 Y10.7752
G01 X0.7210 Y10.6294
G01 X0.6159 Y10.4774
G01 X0.5183 Y10.3205
G01 X0.4311 Y10.1640
G01 X0.3437 Y9.9874
G01 X0.2722 Y9.8231
G01 X0.2066 Y9.6503
G01 X0.1499 Y9.4758
G01 X0.1013 Y9.2975
G01 X0.0613 Y9.1171
G01 X0.0310 Y8.9405
G01 X0.0073 Y8.7448
G01 X-0.0056 Y8.5661
G01 X-0.0101 Y8.3815
G00 Z1.9990
G00 X-0.0701 Y8.3814
G01 F100.00
G01 Z-0.0700
G01 F500.00
G01 X-0.0609 Y3.3029
G01 X-0.0596 Y3.2810
G01 X-0.0424 Y3.1024
G01 X-0.0140 Y2.9086
G01 X0.0206 Y2.7313
G01 X0.0633 Y2.5570
G01 X0.1174 Y2.3737
G01 X0.1810 Y2.1921
G01 X0.2545 Y2.0118
G01 X0.3337 Y1.8417
G01 X0.4176 Y1.6818
G01 X0.5084 Y1.5270
G01 X0.6147 Y1.3639
G01 X0.7256 Y1.2110
G01 X0.8431 Y1.0646
G01 X0.9723 Y0.9190
G01 X1.1035 Y0.7849
G01 X1.2349 Y0.6627
G01 X1.3729 Y0.5460
G01 X1.5273 Y0.4275
G01 X1.6827 Y0.3202
G01 X1.8421 Y0.2211
G01 X2.0123 Y0.1267
G01 X2.1732 Y0.0471
G01 X2.3387 Y-0.0252
G01 X2.5206 Y-0.0945
G01 X2.6991 Y-0.1526
G01 X2.8733 Y-0.2002
G01 X3.0714 Y-0.2440
G01 X3.2495 Y-0.2743
G01 X3.4358 Y-0.2969
G01 X3.6218 Y-0.3104
G01 X3.8059 Y-0.3150
G01 X14.4788 Y-0.3150
G01 X14.5089 Y-0.3135
G01 X14.6806 Y-0.2954
G01 X14.8485 Y-0.2697
G01 X15.0127 Y-0.2366
G01 X15.1898 Y-0.1920
G01 X15.3633 Y-0.1388
G01 X15.5209 Y-0.0822
G01 X15.6811 Y-0.0160
G01 X15.8462 Y0.0621
G01 X15.9941 Y0.1408
G01 X16.1430 Y0.2294
G01 X16.2952 Y0.3304
G01 X16.4302 Y0.4295
G01 X16.5595 Y0.5342
G01 X16.6950 Y0.6548
G01 X16.8251 Y0.7831
G01 X16.9387 Y0.9062
G01 X17.0456 Y1.0336
G01 X17.1602 Y1.1846
G01 X17.2543 Y1.3218
G01 X17.3424 Y1.4643
G01 X17.4310 Y1.6240
G01 X17.5074 Y1.7795
G01 X17.5742 Y1.9332
G01 X17.6385 Y2.1029
G01 X17.6922 Y2.2689
G01 X17.7361 Y2.4305
G01 X17.7768 Y2.6157
G01 X17.8048 Y2.7809
G01 X17.8257 Y2.9541
G01 X17.8382 Y3.1270
G01 X17.8424 Y3.2979
G01 X17.8410 Y8.6396
G01 X17.8396 Y8.6660
G01 X17.8213 Y8.8528
G01 X17.7953 Y9.0316
G01 X17.7578 Y9.2226
G01 X17.7147 Y9.3980
G01 X17.6636 Y9.5700
G01 X17.5995 Y9.7538
G01 X17.5255 Y9.9352
G01 X17.4494 Y10.0991
G01 X17.3663 Y10.2581
G01 X17.2673 Y10.4271
G01 X17.1605 Y10.5899
G01 X17.0551 Y10.7351
G01 X16.9422 Y10.8761
G01 X16.8181 Y11.0169
G01 X16.6824 Y11.1565
G01 X16.5389 Y11.2898
G01 X16.4017 Y11.4055
G01 X16.2583 Y11.5153
G01 X16.0983 Y11.6262
G01 X15.9379 Y11.7260
G01 X15.7677 Y11.8204
G01 X15.6068 Y11.8999
G01 X15.4413 Y11.9722
G01 X15.2594 Y12.0416
G01 X15.0809 Y12.0996
G01 X14.9067 Y12.1472
G01 X14.7086 Y12.1910
G01 X14.5305 Y12.2214
G01 X14.3442 Y12.2440
G01 X14.1582 Y12.2575
G01 X13.9733 Y12.2621
G01 X3.5522 Y12.2530
G01 X3.5260 Y12.2516
G01 X3.3392 Y12.2333
G01 X3.1604 Y12.2073
G01 X2.9728 Y12.1706
G01 X2.7940 Y12.1267
G01 X2.6153 Y12.0735
G01 X2.4382 Y12.0115
G01 X2.2707 Y11.9436
G01 X2.0867 Y11.8583
G01 X1.9267 Y11.7744
G01 X1.7649 Y11.6793
G01 X1.6088 Y11.5773
G01 X1.4569 Y11.4671
G01 X1.3105 Y11.3497
G01 X1.1751 Y11.2301
G01 X1.0298 Y11.0885
G01 X0.9068 Y10.9562
G01 X0.7857 Y10.8128
G01 X0.6725 Y10.6647
G01 X0.5658 Y10.5103
G01 X0.4666 Y10.3510
G01 X0.3787 Y10.1932
G01 X0.2887 Y10.0113
G01 X0.2166 Y9.8457
G01 X0.1500 Y9.6702
G01 X0.0924 Y9.4929
G01 X0.0430 Y9.3119
G01 X0.0025 Y9.1286
G01 X-0.0281 Y8.9506
G01 X-0.0526 Y8.7492
G01 X-0.0656 Y8.5690
G01 X-0.0701 Y8.3814
G00 Z1.9990
M05
G00 Z1.9990
G00 Z12.70
G00 X0.0 Y0.0

M02