(G-CODE GENERATED BY FLATCAM v8.96 - www.flatcam.org - Version Date: 2019/08/23)

(Name: jouleThief-PTH.drl_cnc)
(Type: G-code from Excellon)
(Units: MM)

(Created on Saturday, 09 January 2021 at 17:01)

(Feedrate: 79.9998 mm/min)
(Feedrate rapids 800.0009 mm/min)

(Z_Cut: -1.85 mm)
(Z_Move: 1.999 mm)
(Z Toolchange: 12.7 mm)
(X,Y Toolchange: 0.0000, 0.0000 mm)
(Z Start: None mm)
(Z End: 12.7 mm)
(Steps per circle: 128)
(Postprocessor Excellon: default)

(X range:    2.1895 ...    2.8905  mm)
(Y range:    2.9515 ...    8.7325  mm)

(Spindle Speed: 1000.0 RPM)

G21
G90
G94

G01 F80.00
G00 Z1.9990

M03 S1000.0
G00 X2.5400 Y8.3820
G01 Z-1.8500
G01 Z0
G00 Z1.9990
G00 X2.5400 Y3.3020
G01 Z-1.8500
G01 Z0
G00 Z1.9990
M05
G00 Z12.70
G00 X0.0 Y0.0

M02