(G-CODE GENERATED BY FLATCAM v8.96 - www.flatcam.org - Version Date: 2019/08/23)

(Name: bpw-F_Cu.gbr_iso_cnc)
(Type: G-code from Geometry)
(Units: MM)

(Created on Friday, 08 January 2021 at 17:37)

(TOOL DIAMETER: 0.1 mm)
(Feedrate: 500.0 mm/min)
(Feedrate_Z: 100.0 mm/min)
(Feedrate rapids 79.9998 mm/min)

(Z_Cut: -0.07 mm)
(Z_Move: 1.999 mm)
(Z Toolchange: 12.7 mm)
(X,Y Toolchange: 0.0000, 0.0000 mm)
(Z Start: None mm)
(Z End: 12.7 mm)
(Steps per circle: 128)
(Postprocessor Geometry: default)

(X range:    0.4416 ...   13.8870  mm)
(Y range:    0.9978 ...   11.2718  mm)

(Spindle Speed: 1000 RPM)

G21
G90
G94

G01 F500.00
G00 Z1.9990

M03 S1000
G00 X1.3736 Y3.7984
G01 F100.00
G01 Z-0.0700
G01 F500.00
G01 X1.3648 Y3.7477
G01 X1.3587 Y3.6977
G01 X1.3549 Y3.6475
G01 X1.3536 Y3.5948
G01 X1.3548 Y3.5445
G01 X1.3587 Y3.4919
G01 X1.3650 Y3.4407
G01 X1.3738 Y3.3900
G01 X1.3848 Y3.3409
G01 X1.3988 Y3.2900
G01 X1.4150 Y3.2411
G01 X1.4335 Y3.1930
G01 X1.4544 Y3.1459
G01 X1.4776 Y3.0998
G01 X1.5030 Y3.0550
G01 X1.5306 Y3.0115
G01 X1.5602 Y2.9693
G01 X1.5919 Y2.9287
G01 X1.6256 Y2.8897
G01 X1.6611 Y2.8523
G01 X1.6985 Y2.8168
G01 X1.7375 Y2.7831
G01 X1.7781 Y2.7514
G01 X1.8203 Y2.7218
G01 X1.8649 Y2.6936
G01 X1.9086 Y2.6688
G01 X1.9536 Y2.6461
G01 X2.0007 Y2.6252
G01 X2.0499 Y2.6062
G01 X2.0976 Y2.5904
G01 X2.1485 Y2.5763
G01 X2.1988 Y2.5650
G01 X2.2495 Y2.5562
G01 X2.2995 Y2.5500
G01 X2.3533 Y2.5460
G01 X2.4036 Y2.5448
G01 X2.4563 Y2.5461
G01 X2.5065 Y2.5499
G01 X2.5577 Y2.5562
G01 X2.6084 Y2.5650
G01 X2.6587 Y2.5763
G01 X2.7084 Y2.5900
G01 X2.7573 Y2.6062
G01 X2.8054 Y2.6247
G01 X2.8514 Y2.6451
G01 X2.8996 Y2.6694
G01 X2.9434 Y2.6942
G01 X2.9869 Y2.7218
G01 X3.0291 Y2.7514
G01 X3.0688 Y2.7824
G01 X3.1096 Y2.8176
G01 X3.1461 Y2.8523
G01 X3.1816 Y2.8897
G01 X3.2153 Y2.9287
G01 X3.2470 Y2.9693
G01 X3.2766 Y3.0115
G01 X3.3042 Y3.0550
G01 X3.3296 Y3.0998
G01 X3.3523 Y3.1448
G01 X3.3737 Y3.1930
G01 X3.3918 Y3.2399
G01 X3.4097 Y3.2947
G01 X6.4356 Y3.2947
G01 X6.4406 Y3.2750
G01 X6.4454 Y3.2604
G01 X6.4557 Y3.2355
G01 X6.4625 Y3.2218
G01 X6.4701 Y3.2085
G01 X6.4852 Y3.1860
G01 X6.4946 Y3.1740
G01 X6.5128 Y3.1540
G01 X6.5328 Y3.1358
G01 X6.5448 Y3.1264
G01 X6.5673 Y3.1113
G01 X6.5806 Y3.1037
G01 X6.5943 Y3.0969
G01 X6.6192 Y3.0866
G01 X6.6338 Y3.0818
G01 X6.6600 Y3.0753
G01 X6.6879 Y3.0712
G01 X6.7155 Y3.0698
G01 X7.3040 Y3.0701
G01 X7.3333 Y3.0729
G01 X7.3610 Y3.0784
G01 X7.3880 Y3.0866
G01 X7.4140 Y3.0974
G01 X7.4399 Y3.1113
G01 X7.4518 Y3.1189
G01 X7.4725 Y3.1343
G01 X7.4944 Y3.1540
G01 X7.5141 Y3.1759
G01 X7.5295 Y3.1966
G01 X7.5371 Y3.2085
G01 X7.5510 Y3.2344
G01 X7.5622 Y3.2616
G01 X7.5697 Y3.2863
G01 X7.5731 Y3.3012
G01 X7.5772 Y3.3291
G01 X7.5786 Y3.3567
G01 X7.5786 Y3.8323
G01 X7.5782 Y3.8472
G01 X7.5758 Y3.8720
G01 X7.5705 Y3.9001
G01 X7.5624 Y3.9275
G01 X7.5576 Y3.9403
G01 X7.5472 Y3.9630
G01 X7.5330 Y3.9877
G01 X7.5171 Y4.0100
G01 X7.4992 Y4.0307
G01 X7.4785 Y4.0503
G01 X7.4588 Y4.0658
G01 X7.4475 Y4.0735
G01 X7.4228 Y4.0878
G01 X7.3980 Y4.0992
G01 X7.3721 Y4.1082
G01 X7.3455 Y4.1146
G01 X7.3196 Y4.1184
G01 X7.2917 Y4.1198
G01 X7.1537 Y4.1198
G01 X7.1537 Y5.6348
G01 X7.2536 Y5.6348
G01 X7.2609 Y5.6353
G01 X7.2681 Y5.6370
G01 X7.2750 Y5.6396
G01 X7.2814 Y5.6432
G01 X7.2872 Y5.6478
G01 X7.2923 Y5.6531
G01 X7.2988 Y5.6634
G01 X7.3014 Y5.6703
G01 X7.3031 Y5.6775
G01 X7.3036 Y5.6848
G01 X7.3036 Y6.5848
G01 X7.3021 Y6.5969
G01 X7.2988 Y6.6062
G01 X7.2923 Y6.6165
G01 X7.2872 Y6.6218
G01 X7.2814 Y6.6264
G01 X7.2750 Y6.6300
G01 X7.2681 Y6.6326
G01 X7.2561 Y6.6347
G01 X6.4536 Y6.6348
G01 X6.4438 Y6.6338
G01 X6.4368 Y6.6319
G01 X6.4300 Y6.6289
G01 X6.4238 Y6.6250
G01 X6.4182 Y6.6202
G01 X6.4134 Y6.6146
G01 X6.4084 Y6.6062
G01 X6.4058 Y6.5993
G01 X6.4041 Y6.5921
G01 X6.4036 Y6.5848
G01 X6.4036 Y5.6848
G01 X6.4041 Y5.6775
G01 X6.4058 Y5.6703
G01 X6.4084 Y5.6634
G01 X6.4149 Y5.6531
G01 X6.4200 Y5.6478
G01 X6.4258 Y5.6432
G01 X6.4322 Y5.6396
G01 X6.4391 Y5.6370
G01 X6.4463 Y5.6353
G01 X6.4536 Y5.6348
G01 X6.5535 Y5.6348
G01 X6.5535 Y4.0693
G01 X6.5337 Y4.0545
G01 X6.5128 Y4.0356
G01 X6.4939 Y4.0147
G01 X6.4771 Y3.9920
G01 X6.4625 Y3.9678
G01 X6.4505 Y3.9423
G01 X6.4410 Y3.9158
G01 X6.4356 Y3.8949
G01 X3.4097 Y3.8949
G01 X3.3918 Y3.9497
G01 X3.3737 Y3.9966
G01 X3.3528 Y4.0437
G01 X3.3296 Y4.0898
G01 X3.3048 Y4.1335
G01 X3.2759 Y4.1792
G01 X3.2470 Y4.2203
G01 X3.2153 Y4.2609
G01 X3.1816 Y4.2999
G01 X3.1469 Y4.3364
G01 X3.1078 Y4.3736
G01 X3.0697 Y4.4065
G01 X3.0291 Y4.4382
G01 X2.9869 Y4.4678
G01 X2.9445 Y4.4948
G01 X2.8975 Y4.5214
G01 X2.8525 Y4.5440
G01 X2.8054 Y4.5649
G01 X2.7573 Y4.5834
G01 X2.7096 Y4.5992
G01 X2.6575 Y4.6136
G01 X2.6084 Y4.6246
G01 X2.5577 Y4.6334
G01 X2.5065 Y4.6397
G01 X2.4563 Y4.6435
G01 X2.4024 Y4.6448
G01 X2.3521 Y4.6435
G01 X2.3007 Y4.6397
G01 X2.2495 Y4.6334
G01 X2.2000 Y4.6248
G01 X2.1473 Y4.6130
G01 X2.0988 Y4.5996
G01 X2.0499 Y4.5834
G01 X2.0018 Y4.5649
G01 X1.9558 Y4.5445
G01 X1.9076 Y4.5202
G01 X1.8638 Y4.4954
G01 X1.8203 Y4.4678
G01 X1.7781 Y4.4382
G01 X1.7375 Y4.4065
G01 X1.6985 Y4.3728
G01 X1.6620 Y4.3381
G01 X1.6248 Y4.2990
G01 X1.5919 Y4.2609
G01 X1.5602 Y4.2203
G01 X1.5306 Y4.1781
G01 X1.5030 Y4.1346
G01 X1.4776 Y4.0898
G01 X1.4544 Y4.0437
G01 X1.4335 Y3.9966
G01 X1.4154 Y3.9497
G01 X1.3988 Y3.8996
G01 X1.3854 Y3.8511
G01 X1.3736 Y3.7984
G00 Z1.9990
G00 X3.4356 Y4.0027
G01 F100.00
G01 Z-0.0700
G01 F500.00
G01 X3.4533 Y3.9549
G01 X3.5066 Y3.9549
G01 X3.4871 Y3.9636
G01 X3.4690 Y3.9743
G01 X3.4521 Y3.9870
G01 X3.4356 Y4.0027
G00 Z1.9990
G00 X3.5066 Y3.2347
G01 F100.00
G01 Z-0.0700
G01 F500.00
G01 X3.4533 Y3.2347
G01 X3.4356 Y3.1869
G01 X3.4521 Y3.2026
G01 X3.4690 Y3.2153
G01 X3.4871 Y3.2260
G01 X3.5066 Y3.2347
G00 Z1.9990
G00 X6.4039 Y3.2048
G01 F100.00
G01 Z-0.0700
G01 F500.00
G01 X6.3910 Y3.2347
G01 X6.3521 Y3.2347
G01 X6.3658 Y3.2289
G01 X6.3796 Y3.2216
G01 X6.3919 Y3.2138
G01 X6.4039 Y3.2048
G00 Z1.9990
G00 X7.6986 Y3.7357
G01 F100.00
G01 Z-0.0700
G01 F500.00
G01 X7.7131 Y3.7429
G01 X7.7278 Y3.7489
G01 X7.7549 Y3.7574
G01 X7.7829 Y3.7627
G01 X7.7987 Y3.7643
G01 X7.8150 Y3.7648
G01 X7.9443 Y3.7648
G01 X7.9706 Y3.7632
G01 X7.9904 Y3.7601
G01 X8.0139 Y3.7542
G01 X8.0368 Y3.7460
G01 X8.0586 Y3.7357
G01 X8.0591 Y3.8523
G01 X8.0610 Y3.8764
G01 X8.0657 Y3.9077
G01 X8.0719 Y3.9353
G01 X8.0839 Y3.9735
G01 X8.0977 Y4.0065
G01 X8.1145 Y4.0382
G01 X8.1296 Y4.0621
G01 X8.1538 Y4.0940
G01 X8.1780 Y4.1204
G01 X8.2076 Y4.1473
G01 X8.2397 Y4.1711
G01 X8.2704 Y4.1897
G01 X8.3063 Y4.2071
G01 X8.3335 Y4.2176
G01 X8.3335 Y5.5160
G01 X8.3204 Y5.5181
G01 X8.3043 Y5.5221
G01 X8.2885 Y5.5277
G01 X8.2735 Y5.5349
G01 X8.2592 Y5.5434
G01 X8.2458 Y5.5534
G01 X8.2276 Y5.5706
G01 X8.2171 Y5.5835
G01 X8.2078 Y5.5974
G01 X8.1965 Y5.6197
G01 X8.1887 Y5.6435
G01 X8.1854 Y5.6599
G01 X8.1838 Y5.6765
G01 X8.1838 Y6.5931
G01 X8.1854 Y6.6097
G01 X8.1887 Y6.6261
G01 X8.1935 Y6.6421
G01 X8.2037 Y6.6649
G01 X8.2171 Y6.6861
G01 X8.2276 Y6.6990
G01 X8.2458 Y6.7162
G01 X8.2592 Y6.7262
G01 X8.2809 Y6.7385
G01 X8.3043 Y6.7475
G01 X8.3204 Y6.7515
G01 X8.3453 Y6.7546
G01 X9.1536 Y6.7548
G01 X9.1785 Y6.7530
G01 X9.1949 Y6.7497
G01 X9.2109 Y6.7449
G01 X9.2263 Y6.7385
G01 X9.2410 Y6.7306
G01 X9.2549 Y6.7213
G01 X9.2678 Y6.7108
G01 X9.2796 Y6.6990
G01 X9.2901 Y6.6861
G01 X9.2994 Y6.6722
G01 X9.3073 Y6.6575
G01 X9.3137 Y6.6421
G01 X9.3185 Y6.6261
G01 X9.3218 Y6.6097
G01 X9.3234 Y6.5931
G01 X9.3236 Y6.5549
G01 X11.3058 Y6.5549
G01 X11.3146 Y6.5782
G01 X11.3246 Y6.6003
G01 X11.3395 Y6.6282
G01 X11.3523 Y6.6487
G01 X11.3663 Y6.6684
G01 X11.3864 Y6.6928
G01 X11.4030 Y6.7104
G01 X11.4206 Y6.7270
G01 X11.4450 Y6.7471
G01 X11.4647 Y6.7611
G01 X11.4852 Y6.7739
G01 X11.5131 Y6.7888
G01 X11.5352 Y6.7988
G01 X11.5578 Y6.8073
G01 X11.5881 Y6.8165
G01 X11.6116 Y6.8220
G01 X11.6512 Y6.8278
G01 X11.6890 Y6.8298
G01 X12.1661 Y6.8298
G01 X12.2019 Y6.8282
G01 X12.2259 Y6.8254
G01 X12.2497 Y6.8211
G01 X12.2804 Y6.8134
G01 X12.3034 Y6.8060
G01 X12.3259 Y6.7971
G01 X12.3545 Y6.7836
G01 X12.3756 Y6.7718
G01 X12.3936 Y6.7604
G01 X12.3936 Y7.2592
G01 X12.3756 Y7.2478
G01 X12.3545 Y7.2360
G01 X12.3259 Y7.2225
G01 X12.3034 Y7.2136
G01 X12.2844 Y7.2073
G01 X12.2611 Y7.2010
G01 X12.2300 Y7.1949
G01 X12.2060 Y7.1918
G01 X12.1661 Y7.1898
G01 X11.6911 Y7.1898
G01 X11.6711 Y7.1903
G01 X11.6470 Y7.1922
G01 X11.6157 Y7.1969
G01 X11.5961 Y7.2010
G01 X11.5728 Y7.2073
G01 X11.5538 Y7.2136
G01 X11.5352 Y7.2208
G01 X11.5131 Y7.2308
G01 X11.4954 Y7.2399
G01 X11.4682 Y7.2562
G01 X11.4484 Y7.2700
G01 X11.4326 Y7.2823
G01 X11.4174 Y7.2954
G01 X11.4000 Y7.3121
G01 X11.3788 Y7.3356
G01 X11.3663 Y7.3512
G01 X11.3523 Y7.3709
G01 X11.3416 Y7.3878
G01 X11.3298 Y7.4089
G01 X11.3163 Y7.4375
G01 X11.3074 Y7.4600
G01 X11.3011 Y7.4790
G01 X11.2958 Y7.4983
G01 X11.2907 Y7.5219
G01 X11.2860 Y7.5532
G01 X11.2843 Y7.5731
G01 X11.2836 Y7.5973
G01 X11.2836 Y8.1723
G01 X11.2843 Y8.1965
G01 X11.2874 Y8.2280
G01 X11.2914 Y8.2518
G01 X11.2958 Y8.2713
G01 X11.3011 Y8.2906
G01 X11.3089 Y8.3135
G01 X11.3163 Y8.3321
G01 X11.3298 Y8.3607
G01 X11.3416 Y8.3818
G01 X11.3523 Y8.3987
G01 X11.3638 Y8.4150
G01 X11.3788 Y8.4340
G01 X11.4000 Y8.4575
G01 X11.4144 Y8.4714
G01 X11.4326 Y8.4873
G01 X11.4484 Y8.4996
G01 X11.4647 Y8.5111
G01 X11.4853 Y8.5240
G01 X11.1196 Y8.8897
G01 X8.2237 Y8.8897
G01 X8.2237 Y8.7536
G01 X8.2368 Y8.7515
G01 X8.2529 Y8.7475
G01 X8.2763 Y8.7385
G01 X8.2910 Y8.7306
G01 X8.3049 Y8.7213
G01 X8.3238 Y8.7050
G01 X8.3401 Y8.6861
G01 X8.3494 Y8.6722
G01 X8.3573 Y8.6575
G01 X8.3637 Y8.6421
G01 X8.3685 Y8.6261
G01 X8.3728 Y8.6015
G01 X8.3736 Y8.5848
G01 X8.3736 Y7.6848
G01 X8.3718 Y7.6599
G01 X8.3663 Y7.6355
G01 X8.3573 Y7.6121
G01 X8.3494 Y7.5974
G01 X8.3401 Y7.5835
G01 X8.3296 Y7.5706
G01 X8.3114 Y7.5534
G01 X8.2980 Y7.5434
G01 X8.2763 Y7.5311
G01 X8.2609 Y7.5247
G01 X8.2368 Y7.5181
G01 X8.2203 Y7.5156
G01 X8.2036 Y7.5148
G01 X7.4036 Y7.5148
G01 X7.3869 Y7.5156
G01 X7.3704 Y7.5181
G01 X7.3543 Y7.5221
G01 X7.3385 Y7.5277
G01 X7.3235 Y7.5349
G01 X7.3092 Y7.5434
G01 X7.2958 Y7.5534
G01 X7.2834 Y7.5646
G01 X7.2722 Y7.5770
G01 X7.2622 Y7.5904
G01 X7.2537 Y7.6047
G01 X7.2465 Y7.6197
G01 X7.2409 Y7.6355
G01 X7.2369 Y7.6516
G01 X7.2344 Y7.6681
G01 X7.2336 Y7.6848
G01 X7.2336 Y8.5848
G01 X7.2354 Y8.6097
G01 X7.2409 Y8.6341
G01 X7.2499 Y8.6575
G01 X7.2622 Y8.6792
G01 X7.2722 Y8.6926
G01 X7.2834 Y8.7050
G01 X7.2958 Y8.7162
G01 X7.3092 Y8.7262
G01 X7.3309 Y8.7385
G01 X7.3543 Y8.7475
G01 X7.3704 Y8.7515
G01 X7.3835 Y8.7536
G01 X7.3835 Y8.8158
G01 X7.3096 Y8.8897
G01 X6.3553 Y8.8897
G01 X6.3677 Y8.8619
G01 X6.3762 Y8.8348
G01 X6.3815 Y8.8069
G01 X6.3836 Y8.7769
G01 X6.3836 Y6.7397
G01 X6.4043 Y6.7475
G01 X6.4204 Y6.7515
G01 X6.4369 Y6.7540
G01 X6.4536 Y6.7548
G01 X7.2536 Y6.7548
G01 X7.2703 Y6.7540
G01 X7.2949 Y6.7497
G01 X7.3187 Y6.7419
G01 X7.3337 Y6.7347
G01 X7.3549 Y6.7213
G01 X7.3738 Y6.7050
G01 X7.3901 Y6.6861
G01 X7.4035 Y6.6649
G01 X7.4107 Y6.6499
G01 X7.4163 Y6.6341
G01 X7.4203 Y6.6180
G01 X7.4228 Y6.6015
G01 X7.4236 Y6.5848
G01 X7.4236 Y5.6848
G01 X7.4228 Y5.6681
G01 X7.4185 Y5.6435
G01 X7.4137 Y5.6275
G01 X7.4073 Y5.6121
G01 X7.3994 Y5.5974
G01 X7.3901 Y5.5835
G01 X7.3738 Y5.5646
G01 X7.3549 Y5.5483
G01 X7.3410 Y5.5390
G01 X7.3263 Y5.5311
G01 X7.3029 Y5.5221
G01 X7.2868 Y5.5181
G01 X7.2737 Y5.5160
G01 X7.2737 Y4.2398
G01 X7.3064 Y4.2395
G01 X7.3258 Y4.2383
G01 X7.3491 Y4.2357
G01 X7.3682 Y4.2324
G01 X7.3872 Y4.2283
G01 X7.4098 Y4.2221
G01 X7.4282 Y4.2160
G01 X7.4567 Y4.2046
G01 X7.4778 Y4.1945
G01 X7.4948 Y4.1852
G01 X7.5114 Y4.1751
G01 X7.5307 Y4.1619
G01 X7.5462 Y4.1501
G01 X7.5693 Y4.1300
G01 X7.5860 Y4.1135
G01 X7.6017 Y4.0961
G01 X7.6253 Y4.0653
G01 X7.6419 Y4.0395
G01 X7.6514 Y4.0226
G01 X7.6618 Y4.0016
G01 X7.6694 Y3.9838
G01 X7.6762 Y3.9656
G01 X7.6832 Y3.9432
G01 X7.6912 Y3.9094
G01 X7.6945 Y3.8903
G01 X7.6971 Y3.8670
G01 X7.6986 Y3.8343
G01 X7.6986 Y3.7357
G00 Z1.9990
G00 X7.7586 Y3.8196
G01 F100.00
G01 Z-0.0700
G01 F500.00
G01 X7.7849 Y3.8234
G01 X7.8150 Y3.8248
G01 X7.9516 Y3.8247
G01 X7.9723 Y3.8234
G01 X7.9986 Y3.8196
G01 X7.9992 Y3.8552
G01 X8.0015 Y3.8837
G01 X8.0065 Y3.9180
G01 X8.0140 Y3.9514
G01 X8.0241 Y3.9845
G01 X8.0342 Y4.0112
G01 X8.0512 Y4.0477
G01 X8.0681 Y4.0774
G01 X8.0873 Y4.1062
G01 X8.1047 Y4.1289
G01 X8.1316 Y4.1588
G01 X8.1564 Y4.1824
G01 X8.1831 Y4.2044
G01 X8.2111 Y4.2241
G01 X8.2457 Y4.2446
G01 X8.2735 Y4.2582
G01 X8.2735 Y5.4693
G01 X8.2553 Y5.4769
G01 X8.2354 Y5.4875
G01 X8.2258 Y5.4936
G01 X8.2077 Y5.5070
G01 X8.1991 Y5.5144
G01 X8.1832 Y5.5303
G01 X8.1689 Y5.5478
G01 X8.1624 Y5.5570
G01 X8.1563 Y5.5666
G01 X8.1457 Y5.5865
G01 X8.1370 Y5.6073
G01 X8.1335 Y5.6180
G01 X8.1280 Y5.6399
G01 X8.1261 Y5.6511
G01 X8.1247 Y5.6623
G01 X8.1236 Y5.6848
G01 X8.1236 Y6.5848
G01 X8.1247 Y6.6073
G01 X8.1280 Y6.6297
G01 X8.1335 Y6.6516
G01 X8.1370 Y6.6623
G01 X8.1457 Y6.6831
G01 X8.1563 Y6.7030
G01 X8.1689 Y6.7218
G01 X8.1832 Y6.7393
G01 X8.1991 Y6.7552
G01 X8.2077 Y6.7626
G01 X8.2258 Y6.7760
G01 X8.2354 Y6.7821
G01 X8.2553 Y6.7927
G01 X8.2761 Y6.8014
G01 X8.2977 Y6.8079
G01 X8.3087 Y6.8104
G01 X8.3199 Y6.8123
G01 X8.3423 Y6.8145
G01 X9.1536 Y6.8148
G01 X9.1761 Y6.8137
G01 X9.1873 Y6.8123
G01 X9.2095 Y6.8079
G01 X9.2204 Y6.8049
G01 X9.2311 Y6.8014
G01 X9.2519 Y6.7927
G01 X9.2718 Y6.7821
G01 X9.2814 Y6.7760
G01 X9.2995 Y6.7626
G01 X9.3162 Y6.7474
G01 X9.3240 Y6.7393
G01 X9.3383 Y6.7218
G01 X9.3509 Y6.7030
G01 X9.3615 Y6.6831
G01 X9.3702 Y6.6623
G01 X9.3737 Y6.6516
G01 X9.3792 Y6.6297
G01 X9.3816 Y6.6149
G01 X11.2652 Y6.6149
G01 X11.2788 Y6.6427
G01 X11.2901 Y6.6626
G01 X11.3024 Y6.6820
G01 X11.3190 Y6.7053
G01 X11.3334 Y6.7232
G01 X11.3566 Y6.7488
G01 X11.3772 Y6.7687
G01 X11.3945 Y6.7837
G01 X11.4126 Y6.7978
G01 X11.4361 Y6.8141
G01 X11.4658 Y6.8319
G01 X11.4861 Y6.8424
G01 X11.5122 Y6.8542
G01 X11.5336 Y6.8625
G01 X11.5554 Y6.8697
G01 X11.5830 Y6.8771
G01 X11.6169 Y6.8838
G01 X11.6397 Y6.8869
G01 X11.6682 Y6.8892
G01 X11.6855 Y6.8897
G01 X12.1717 Y6.8897
G01 X12.2119 Y6.8875
G01 X12.2347 Y6.8847
G01 X12.2573 Y6.8808
G01 X12.2797 Y6.8758
G01 X12.3018 Y6.8697
G01 X12.3336 Y6.8587
G01 X12.3336 Y7.1609
G01 X12.3018 Y7.1499
G01 X12.2797 Y7.1438
G01 X12.2573 Y7.1388
G01 X12.2175 Y7.1327
G01 X12.1834 Y7.1302
G01 X11.6883 Y7.1298
G01 X11.6453 Y7.1321
G01 X11.6054 Y7.1377
G01 X11.5775 Y7.1438
G01 X11.5554 Y7.1499
G01 X11.5336 Y7.1571
G01 X11.5122 Y7.1654
G01 X11.4912 Y7.1747
G01 X11.4707 Y7.1850
G01 X11.4508 Y7.1963
G01 X11.4267 Y7.2118
G01 X11.3945 Y7.2359
G01 X11.3772 Y7.2509
G01 X11.3566 Y7.2708
G01 X11.3447 Y7.2834
G01 X11.3262 Y7.3051
G01 X11.3056 Y7.3329
G01 X11.2931 Y7.3522
G01 X11.2788 Y7.3769
G01 X11.2661 Y7.4026
G01 X11.2529 Y7.4345
G01 X11.2454 Y7.4562
G01 X11.2376 Y7.4837
G01 X11.2326 Y7.5061
G01 X11.2287 Y7.5287
G01 X11.2254 Y7.5571
G01 X11.2236 Y7.5973
G01 X11.2236 Y8.1723
G01 X11.2254 Y8.2125
G01 X11.2287 Y8.2409
G01 X11.2326 Y8.2635
G01 X11.2376 Y8.2859
G01 X11.2437 Y8.3080
G01 X11.2509 Y8.3298
G01 X11.2592 Y8.3512
G01 X11.2685 Y8.3722
G01 X11.2788 Y8.3927
G01 X11.2901 Y8.4126
G01 X11.3024 Y8.4320
G01 X11.3156 Y8.4508
G01 X11.3297 Y8.4689
G01 X11.3447 Y8.4862
G01 X11.3605 Y8.5029
G01 X11.3772 Y8.5187
G01 X11.3925 Y8.5319
G01 X11.0947 Y8.8297
G01 X8.2837 Y8.8297
G01 X8.2837 Y8.8003
G01 X8.3019 Y8.7927
G01 X8.3218 Y8.7821
G01 X8.3314 Y8.7760
G01 X8.3495 Y8.7626
G01 X8.3662 Y8.7474
G01 X8.3740 Y8.7393
G01 X8.3814 Y8.7307
G01 X8.3948 Y8.7126
G01 X8.4009 Y8.7030
G01 X8.4115 Y8.6831
G01 X8.4202 Y8.6623
G01 X8.4237 Y8.6516
G01 X8.4292 Y8.6297
G01 X8.4325 Y8.6073
G01 X8.4336 Y8.5848
G01 X8.4333 Y7.6735
G01 X8.4311 Y7.6511
G01 X8.4292 Y7.6399
G01 X8.4237 Y7.6180
G01 X8.4202 Y7.6073
G01 X8.4115 Y7.5865
G01 X8.4009 Y7.5666
G01 X8.3948 Y7.5570
G01 X8.3814 Y7.5389
G01 X8.3740 Y7.5303
G01 X8.3581 Y7.5144
G01 X8.3406 Y7.5001
G01 X8.3218 Y7.4875
G01 X8.3019 Y7.4769
G01 X8.2811 Y7.4682
G01 X8.2595 Y7.4617
G01 X8.2373 Y7.4573
G01 X8.2261 Y7.4559
G01 X8.2036 Y7.4548
G01 X7.4036 Y7.4548
G01 X7.3811 Y7.4559
G01 X7.3587 Y7.4592
G01 X7.3368 Y7.4647
G01 X7.3156 Y7.4723
G01 X7.2952 Y7.4820
G01 X7.2758 Y7.4936
G01 X7.2577 Y7.5070
G01 X7.2410 Y7.5222
G01 X7.2258 Y7.5389
G01 X7.2124 Y7.5570
G01 X7.2008 Y7.5764
G01 X7.1911 Y7.5968
G01 X7.1835 Y7.6180
G01 X7.1805 Y7.6289
G01 X7.1761 Y7.6511
G01 X7.1739 Y7.6735
G01 X7.1736 Y8.5848
G01 X7.1747 Y8.6073
G01 X7.1761 Y8.6185
G01 X7.1805 Y8.6407
G01 X7.1870 Y8.6623
G01 X7.1911 Y8.6728
G01 X7.1957 Y8.6831
G01 X7.2063 Y8.7030
G01 X7.2124 Y8.7126
G01 X7.2258 Y8.7307
G01 X7.2332 Y8.7393
G01 X7.2491 Y8.7552
G01 X7.2666 Y8.7695
G01 X7.2854 Y8.7821
G01 X7.2952 Y8.7876
G01 X7.3167 Y8.7977
G01 X7.2847 Y8.8297
G01 X6.4387 Y8.8297
G01 X6.4422 Y8.8049
G01 X6.4436 Y8.7748
G01 X6.4436 Y6.8146
G01 X7.2536 Y6.8148
G01 X7.2761 Y6.8137
G01 X7.2873 Y6.8123
G01 X7.3095 Y6.8079
G01 X7.3204 Y6.8049
G01 X7.3416 Y6.7973
G01 X7.3620 Y6.7876
G01 X7.3718 Y6.7821
G01 X7.3906 Y6.7695
G01 X7.4081 Y6.7552
G01 X7.4162 Y6.7474
G01 X7.4240 Y6.7393
G01 X7.4383 Y6.7218
G01 X7.4509 Y6.7030
G01 X7.4564 Y6.6932
G01 X7.4661 Y6.6728
G01 X7.4737 Y6.6516
G01 X7.4792 Y6.6297
G01 X7.4825 Y6.6073
G01 X7.4836 Y6.5848
G01 X7.4833 Y5.6735
G01 X7.4825 Y5.6623
G01 X7.4792 Y5.6399
G01 X7.4737 Y5.6180
G01 X7.4702 Y5.6073
G01 X7.4661 Y5.5968
G01 X7.4564 Y5.5764
G01 X7.4448 Y5.5570
G01 X7.4383 Y5.5478
G01 X7.4240 Y5.5303
G01 X7.4162 Y5.5222
G01 X7.4081 Y5.5144
G01 X7.3906 Y5.5001
G01 X7.3814 Y5.4936
G01 X7.3620 Y5.4820
G01 X7.3519 Y5.4769
G01 X7.3337 Y5.4693
G01 X7.3337 Y4.2978
G01 X7.3576 Y4.2950
G01 X7.3796 Y4.2914
G01 X7.4013 Y4.2866
G01 X7.4228 Y4.2809
G01 X7.4440 Y4.2741
G01 X7.4649 Y4.2663
G01 X7.4853 Y4.2576
G01 X7.5053 Y4.2478
G01 X7.5248 Y4.2372
G01 X7.5439 Y4.2256
G01 X7.5623 Y4.2131
G01 X7.5801 Y4.1998
G01 X7.5972 Y4.1856
G01 X7.6137 Y4.1706
G01 X7.6408 Y4.1425
G01 X7.6586 Y4.1213
G01 X7.6719 Y4.1035
G01 X7.6844 Y4.0851
G01 X7.6960 Y4.0660
G01 X7.7066 Y4.0465
G01 X7.7164 Y4.0265
G01 X7.7310 Y3.9904
G01 X7.7397 Y3.9640
G01 X7.7454 Y3.9425
G01 X7.7530 Y3.9042
G01 X7.7565 Y3.8767
G01 X7.7577 Y3.8600
G01 X7.7586 Y3.8196
G00 Z1.9990
G00 X7.8160 Y3.8848
G01 F100.00
G01 Z-0.0700
G01 F500.00
G01 X7.9412 Y3.8848
G01 X7.9454 Y3.9167
G01 X7.9528 Y3.9535
G01 X7.9613 Y3.9854
G01 X7.9694 Y4.0100
G01 X7.9787 Y4.0342
G01 X7.9924 Y4.0642
G01 X8.0101 Y4.0973
G01 X8.0275 Y4.1254
G01 X8.0467 Y4.1522
G01 X8.0705 Y4.1812
G01 X8.0931 Y4.2053
G01 X8.1119 Y4.2232
G01 X8.1315 Y4.2401
G01 X8.1576 Y4.2602
G01 X8.1889 Y4.2810
G01 X8.2135 Y4.2953
G01 X8.2135 Y5.4310
G01 X8.1925 Y5.4437
G01 X8.1808 Y5.4519
G01 X8.1696 Y5.4606
G01 X8.1485 Y5.4797
G01 X8.1294 Y5.5008
G01 X8.1125 Y5.5237
G01 X8.1049 Y5.5357
G01 X8.0914 Y5.5608
G01 X8.0806 Y5.5871
G01 X8.0761 Y5.6006
G01 X8.0692 Y5.6282
G01 X8.0667 Y5.6423
G01 X8.0650 Y5.6564
G01 X8.0636 Y5.6848
G01 X8.0636 Y6.5848
G01 X8.0650 Y6.6132
G01 X8.0692 Y6.6414
G01 X8.0723 Y6.6553
G01 X8.0806 Y6.6825
G01 X8.0914 Y6.7088
G01 X8.1049 Y6.7339
G01 X8.1207 Y6.7576
G01 X8.1387 Y6.7796
G01 X8.1485 Y6.7899
G01 X8.1696 Y6.8090
G01 X8.1925 Y6.8259
G01 X8.2045 Y6.8335
G01 X8.2296 Y6.8470
G01 X8.2426 Y6.8527
G01 X8.2694 Y6.8623
G01 X8.2970 Y6.8692
G01 X8.3111 Y6.8717
G01 X8.3394 Y6.8745
G01 X9.1678 Y6.8745
G01 X9.1820 Y6.8734
G01 X9.2102 Y6.8692
G01 X9.2378 Y6.8623
G01 X9.2513 Y6.8578
G01 X9.2646 Y6.8527
G01 X9.2903 Y6.8406
G01 X9.3147 Y6.8259
G01 X9.3264 Y6.8177
G01 X9.3376 Y6.8090
G01 X9.3587 Y6.7899
G01 X9.3685 Y6.7796
G01 X9.3865 Y6.7576
G01 X9.3947 Y6.7459
G01 X9.4094 Y6.7215
G01 X9.4215 Y6.6958
G01 X9.4291 Y6.6749
G01 X11.2281 Y6.6749
G01 X11.2387 Y6.6935
G01 X11.2525 Y6.7154
G01 X11.2674 Y6.7365
G01 X11.2879 Y6.7624
G01 X11.3051 Y6.7818
G01 X11.3232 Y6.8003
G01 X11.3510 Y6.8255
G01 X11.3712 Y6.8417
G01 X11.3980 Y6.8609
G01 X11.4199 Y6.8747
G01 X11.4424 Y6.8875
G01 X11.4656 Y6.8992
G01 X11.4892 Y6.9097
G01 X11.5134 Y6.9190
G01 X11.5380 Y6.9271
G01 X11.5629 Y6.9340
G01 X11.5882 Y6.9397
G01 X11.6208 Y6.9450
G01 X11.6581 Y6.9487
G01 X11.6875 Y6.9498
G01 X12.1732 Y6.9497
G01 X12.2178 Y6.9473
G01 X12.2435 Y6.9441
G01 X12.2736 Y6.9387
G01 X12.2736 Y7.0809
G01 X12.2435 Y7.0755
G01 X12.2178 Y7.0723
G01 X12.1732 Y7.0699
G01 X11.6911 Y7.0698
G01 X11.6652 Y7.0704
G01 X11.6394 Y7.0723
G01 X11.6137 Y7.0755
G01 X11.5812 Y7.0814
G01 X11.5380 Y7.0925
G01 X11.5134 Y7.1006
G01 X11.4892 Y7.1099
G01 X11.4656 Y7.1204
G01 X11.4424 Y7.1321
G01 X11.4199 Y7.1449
G01 X11.3980 Y7.1587
G01 X11.3769 Y7.1736
G01 X11.3565 Y7.1895
G01 X11.3369 Y7.2064
G01 X11.3181 Y7.2243
G01 X11.3002 Y7.2431
G01 X11.2833 Y7.2627
G01 X11.2674 Y7.2831
G01 X11.2525 Y7.3042
G01 X11.2351 Y7.3323
G01 X11.2174 Y7.3654
G01 X11.2037 Y7.3954
G01 X11.1944 Y7.4196
G01 X11.1863 Y7.4442
G01 X11.1778 Y7.4761
G01 X11.1704 Y7.5129
G01 X11.1661 Y7.5456
G01 X11.1642 Y7.5714
G01 X11.1636 Y7.5973
G01 X11.1636 Y8.1723
G01 X11.1642 Y8.1982
G01 X11.1684 Y8.2426
G01 X11.1752 Y8.2822
G01 X11.1863 Y8.3254
G01 X11.1944 Y8.3500
G01 X11.2037 Y8.3742
G01 X11.2142 Y8.3978
G01 X11.2259 Y8.4210
G01 X11.2486 Y8.4594
G01 X11.2632 Y8.4808
G01 X11.2789 Y8.5014
G01 X11.3064 Y8.5331
G01 X11.0699 Y8.7697
G01 X8.4270 Y8.7697
G01 X8.4365 Y8.7576
G01 X8.4523 Y8.7339
G01 X8.4658 Y8.7088
G01 X8.4766 Y8.6825
G01 X8.4849 Y8.6553
G01 X8.4880 Y8.6414
G01 X8.4922 Y8.6132
G01 X8.4936 Y8.5848
G01 X8.4933 Y7.6706
G01 X8.4922 Y7.6564
G01 X8.4880 Y7.6282
G01 X8.4849 Y7.6143
G01 X8.4766 Y7.5871
G01 X8.4658 Y7.5608
G01 X8.4594 Y7.5481
G01 X8.4447 Y7.5237
G01 X8.4365 Y7.5120
G01 X8.4185 Y7.4900
G01 X8.3984 Y7.4699
G01 X8.3764 Y7.4519
G01 X8.3527 Y7.4361
G01 X8.3276 Y7.4226
G01 X8.3146 Y7.4169
G01 X8.2878 Y7.4073
G01 X8.2602 Y7.4004
G01 X8.2320 Y7.3962
G01 X8.2036 Y7.3948
G01 X7.4036 Y7.3948
G01 X7.3752 Y7.3962
G01 X7.3470 Y7.4004
G01 X7.3194 Y7.4073
G01 X7.2926 Y7.4169
G01 X7.2669 Y7.4290
G01 X7.2425 Y7.4437
G01 X7.2308 Y7.4519
G01 X7.2088 Y7.4699
G01 X7.1887 Y7.4900
G01 X7.1707 Y7.5120
G01 X7.1549 Y7.5357
G01 X7.1478 Y7.5481
G01 X7.1357 Y7.5738
G01 X7.1261 Y7.6006
G01 X7.1223 Y7.6143
G01 X7.1167 Y7.6423
G01 X7.1150 Y7.6564
G01 X7.1136 Y7.6848
G01 X7.1139 Y8.5990
G01 X7.1150 Y8.6132
G01 X7.1192 Y8.6414
G01 X7.1261 Y8.6690
G01 X7.1357 Y8.6958
G01 X7.1414 Y8.7088
G01 X7.1549 Y8.7339
G01 X7.1707 Y8.7576
G01 X7.1802 Y8.7697
G01 X6.5036 Y8.7697
G01 X6.5036 Y6.8748
G01 X7.2536 Y6.8748
G01 X7.2820 Y6.8734
G01 X7.3102 Y6.8692
G01 X7.3241 Y6.8661
G01 X7.3513 Y6.8578
G01 X7.3776 Y6.8470
G01 X7.4027 Y6.8335
G01 X7.4264 Y6.8177
G01 X7.4376 Y6.8090
G01 X7.4484 Y6.7997
G01 X7.4685 Y6.7796
G01 X7.4865 Y6.7576
G01 X7.4947 Y6.7459
G01 X7.5094 Y6.7215
G01 X7.5215 Y6.6958
G01 X7.5311 Y6.6690
G01 X7.5380 Y6.6414
G01 X7.5422 Y6.6132
G01 X7.5436 Y6.5848
G01 X7.5433 Y5.6706
G01 X7.5405 Y5.6423
G01 X7.5349 Y5.6143
G01 X7.5311 Y5.6006
G01 X7.5266 Y5.5871
G01 X7.5158 Y5.5608
G01 X7.5023 Y5.5357
G01 X7.4865 Y5.5120
G01 X7.4685 Y5.4900
G01 X7.4587 Y5.4797
G01 X7.4484 Y5.4699
G01 X7.4264 Y5.4519
G01 X7.4147 Y5.4437
G01 X7.3937 Y5.4310
G01 X7.3937 Y4.3497
G01 X7.4155 Y4.3449
G01 X7.4397 Y4.3384
G01 X7.4807 Y4.3245
G01 X7.5165 Y4.3092
G01 X7.5548 Y4.2891
G01 X7.5914 Y4.2659
G01 X7.6226 Y4.2426
G01 X7.6551 Y4.2141
G01 X7.6852 Y4.1829
G01 X7.7099 Y4.1529
G01 X7.7349 Y4.1175
G01 X7.7567 Y4.0801
G01 X7.7737 Y4.0451
G01 X7.7896 Y4.0048
G01 X7.8020 Y3.9634
G01 X7.8103 Y3.9253
G01 X7.8160 Y3.8848
G00 Z1.9990
G00 X8.1786 Y3.3561
G01 F100.00
G01 Z-0.0700
G01 F500.00
G01 X8.1800 Y3.3291
G01 X8.1841 Y3.3012
G01 X8.1910 Y3.2738
G01 X8.2000 Y3.2484
G01 X8.2120 Y3.2229
G01 X8.2201 Y3.2085
G01 X8.2352 Y3.1860
G01 X8.2531 Y3.1642
G01 X8.2730 Y3.1443
G01 X8.2939 Y3.1271
G01 X8.3074 Y3.1176
G01 X8.3317 Y3.1032
G01 X8.3561 Y3.0917
G01 X8.3826 Y3.0822
G01 X8.4100 Y3.0753
G01 X8.4379 Y3.0712
G01 X8.4661 Y3.0698
G01 X9.0417 Y3.0698
G01 X9.0693 Y3.0712
G01 X9.0972 Y3.0753
G01 X9.1121 Y3.0787
G01 X9.1368 Y3.0862
G01 X9.1640 Y3.0974
G01 X9.1899 Y3.1113
G01 X9.2114 Y3.1257
G01 X9.2235 Y3.1351
G01 X9.2453 Y3.1549
G01 X9.2626 Y3.1740
G01 X9.2720 Y3.1860
G01 X9.2808 Y3.1986
G01 X9.2941 Y3.2207
G01 X9.3067 Y3.2473
G01 X9.3162 Y3.2738
G01 X9.3231 Y3.3012
G01 X9.3272 Y3.3291
G01 X9.3286 Y3.3567
G01 X9.3286 Y3.8335
G01 X9.3274 Y3.8584
G01 X9.3257 Y3.8732
G01 X9.3208 Y3.8989
G01 X9.3170 Y3.9133
G01 X9.3084 Y3.9380
G01 X9.3021 Y3.9528
G01 X9.2901 Y3.9760
G01 X9.2760 Y3.9981
G01 X9.2663 Y4.0109
G01 X9.2492 Y4.0307
G01 X9.2303 Y4.0488
G01 X9.2188 Y4.0583
G01 X9.1975 Y4.0735
G01 X9.1838 Y4.0819
G01 X9.1605 Y4.0938
G01 X9.1363 Y4.1036
G01 X9.1210 Y4.1085
G01 X9.0955 Y4.1146
G01 X9.0696 Y4.1184
G01 X9.0537 Y4.1195
G01 X9.0537 Y5.6348
G01 X9.1536 Y5.6348
G01 X9.1609 Y5.6353
G01 X9.1704 Y5.6377
G01 X9.1793 Y5.6419
G01 X9.1872 Y5.6478
G01 X9.1938 Y5.6550
G01 X9.1977 Y5.6612
G01 X9.2007 Y5.6680
G01 X9.2026 Y5.6750
G01 X9.2035 Y5.6823
G01 X9.2036 Y5.8347
G01 X11.4039 Y5.8347
G01 X11.4051 Y5.8179
G01 X11.4091 Y5.7912
G01 X11.4156 Y5.7650
G01 X11.4204 Y5.7504
G01 X11.4307 Y5.7255
G01 X11.4375 Y5.7118
G01 X11.4514 Y5.6886
G01 X11.4609 Y5.6751
G01 X11.4781 Y5.6542
G01 X11.4971 Y5.6351
G01 X11.5097 Y5.6243
G01 X11.5304 Y5.6089
G01 X11.5444 Y5.6001
G01 X11.5682 Y5.5874
G01 X11.5822 Y5.5812
G01 X11.6065 Y5.5726
G01 X11.6224 Y5.5681
G01 X11.6489 Y5.5629
G01 X11.6641 Y5.5611
G01 X11.6905 Y5.5598
G01 X12.1667 Y5.5598
G01 X12.1814 Y5.5602
G01 X12.2071 Y5.5627
G01 X12.2360 Y5.5684
G01 X12.2507 Y5.5726
G01 X12.2761 Y5.5817
G01 X12.2901 Y5.5879
G01 X12.3139 Y5.6007
G01 X12.3268 Y5.6089
G01 X12.3485 Y5.6251
G01 X12.3685 Y5.6431
G01 X12.3791 Y5.6542
G01 X12.3963 Y5.6751
G01 X12.4051 Y5.6876
G01 X12.4191 Y5.7107
G01 X12.4260 Y5.7244
G01 X12.4364 Y5.7493
G01 X12.4412 Y5.7638
G01 X12.4453 Y5.7786
G01 X12.4505 Y5.8051
G01 X12.4523 Y5.8203
G01 X12.4536 Y5.8473
G01 X12.4532 Y6.4376
G01 X12.4507 Y6.4633
G01 X12.4481 Y6.4784
G01 X12.4416 Y6.5046
G01 X12.4368 Y6.5192
G01 X12.4265 Y6.5441
G01 X12.4197 Y6.5578
G01 X12.4058 Y6.5810
G01 X12.3963 Y6.5945
G01 X12.3791 Y6.6154
G01 X12.3592 Y6.6353
G01 X12.3374 Y6.6532
G01 X12.3139 Y6.6689
G01 X12.2890 Y6.6822
G01 X12.2630 Y6.6930
G01 X12.2360 Y6.7012
G01 X12.2083 Y6.7067
G01 X12.1931 Y6.7085
G01 X12.1661 Y6.7098
G01 X11.6770 Y6.7095
G01 X11.6489 Y6.7067
G01 X11.6212 Y6.7012
G01 X11.5942 Y6.6930
G01 X11.5693 Y6.6827
G01 X11.5545 Y6.6753
G01 X11.5304 Y6.6607
G01 X11.5087 Y6.6445
G01 X11.4878 Y6.6256
G01 X11.4689 Y6.6047
G01 X11.4521 Y6.5820
G01 X11.4375 Y6.5578
G01 X11.4260 Y6.5334
G01 X11.4160 Y6.5058
G01 X11.4094 Y6.4796
G01 X11.4051 Y6.4517
G01 X11.4039 Y6.4349
G01 X9.2036 Y6.4349
G01 X9.2036 Y6.5848
G01 X9.2026 Y6.5946
G01 X9.2007 Y6.6016
G01 X9.1977 Y6.6084
G01 X9.1938 Y6.6146
G01 X9.1890 Y6.6202
G01 X9.1834 Y6.6250
G01 X9.1772 Y6.6289
G01 X9.1704 Y6.6319
G01 X9.1634 Y6.6338
G01 X9.1536 Y6.6348
G01 X8.3536 Y6.6348
G01 X8.3438 Y6.6338
G01 X8.3368 Y6.6319
G01 X8.3300 Y6.6289
G01 X8.3238 Y6.6250
G01 X8.3166 Y6.6184
G01 X8.3095 Y6.6084
G01 X8.3051 Y6.5969
G01 X8.3036 Y6.5848
G01 X8.3036 Y5.6848
G01 X8.3041 Y5.6775
G01 X8.3058 Y5.6703
G01 X8.3084 Y5.6634
G01 X8.3120 Y5.6570
G01 X8.3166 Y5.6512
G01 X8.3258 Y5.6432
G01 X8.3322 Y5.6396
G01 X8.3391 Y5.6370
G01 X8.3463 Y5.6353
G01 X8.3536 Y5.6348
G01 X8.4535 Y5.6348
G01 X8.4535 Y4.1195
G01 X8.4367 Y4.1183
G01 X8.4100 Y4.1143
G01 X8.3838 Y4.1078
G01 X8.3692 Y4.1030
G01 X8.3443 Y4.0927
G01 X8.3306 Y4.0859
G01 X8.3173 Y4.0783
G01 X8.2948 Y4.0632
G01 X8.2828 Y4.0538
G01 X8.2628 Y4.0356
G01 X8.2446 Y4.0156
G01 X8.2352 Y4.0036
G01 X8.2201 Y3.9811
G01 X8.2125 Y3.9678
G01 X8.2057 Y3.9541
G01 X8.1954 Y3.9292
G01 X8.1906 Y3.9146
G01 X8.1841 Y3.8884
G01 X8.1801 Y3.8617
G01 X8.1789 Y3.8452
G01 X8.1786 Y3.3561
G00 Z1.9990
G00 X9.1137 Y4.2249
G01 F100.00
G01 Z-0.0700
G01 F500.00
G01 X9.1137 Y4.1721
G01 X9.1365 Y4.1664
G01 X9.1545 Y4.1608
G01 X9.1423 Y4.1746
G01 X9.1316 Y4.1895
G01 X9.1224 Y4.2054
G01 X9.1137 Y4.2249
G00 Z1.9990
G00 X9.1667 Y5.5756
G01 F100.00
G01 Z-0.0700
G01 F500.00
G01 X9.1536 Y5.5748
G01 X9.1137 Y5.5748
G01 X9.1137 Y5.5001
G01 X9.1236 Y5.5220
G01 X9.1346 Y5.5399
G01 X9.1500 Y5.5594
G01 X9.1667 Y5.5756
G00 Z1.9990
G00 X9.3593 Y5.7747
G01 F100.00
G01 Z-0.0700
G01 F500.00
G01 X9.2636 Y5.7747
G01 X9.2636 Y5.6932
G01 X9.2716 Y5.7059
G01 X9.2811 Y5.7185
G01 X9.2934 Y5.7321
G01 X9.3049 Y5.7426
G01 X9.3164 Y5.7516
G01 X9.3295 Y5.7602
G01 X9.3457 Y5.7689
G01 X9.3593 Y5.7747
G00 Z1.9990
G00 X11.3627 Y5.7338
G01 F100.00
G01 Z-0.0700
G01 F500.00
G01 X11.3578 Y5.7490
G01 X11.3513 Y5.7747
G01 X11.2985 Y5.7747
G01 X11.3180 Y5.7660
G01 X11.3339 Y5.7568
G01 X11.3488 Y5.7461
G01 X11.3627 Y5.7338
G00 Z1.9990
G00 X12.4553 Y7.4047
G01 F100.00
G01 Z-0.0700
G01 F500.00
G01 X12.4452 Y7.3903
G01 X12.4330 Y7.3748
G01 X12.4137 Y7.3535
G01 X12.3995 Y7.3398
G01 X12.3709 Y7.3166
G01 X12.3569 Y7.3069
G01 X12.3323 Y7.2921
G01 X12.3147 Y7.2832
G01 X12.2966 Y7.2752
G01 X12.2806 Y7.2692
G01 X12.2531 Y7.2609
G01 X12.2171 Y7.2536
G01 X12.1805 Y7.2501
G01 X11.6898 Y7.2498
G01 X11.6597 Y7.2512
G01 X11.6374 Y7.2540
G01 X11.6067 Y7.2602
G01 X11.5766 Y7.2692
G01 X11.5556 Y7.2773
G01 X11.5249 Y7.2921
G01 X11.4980 Y7.3084
G01 X11.4707 Y7.3287
G01 X11.4454 Y7.3516
G01 X11.4242 Y7.3748
G01 X11.4104 Y7.3925
G01 X11.3930 Y7.4186
G01 X11.3781 Y7.4463
G01 X11.3701 Y7.4643
G01 X11.3594 Y7.4939
G01 X11.3540 Y7.5129
G01 X11.3498 Y7.5322
G01 X11.3453 Y7.5632
G01 X11.3436 Y7.5973
G01 X11.3436 Y8.1723
G01 X11.3442 Y8.1920
G01 X11.3470 Y8.2206
G01 X11.3503 Y8.2401
G01 X11.3547 Y8.2593
G01 X11.3630 Y8.2868
G01 X11.3701 Y8.3053
G01 X11.3859 Y8.3385
G01 X11.4007 Y8.3631
G01 X11.4120 Y8.3793
G01 X11.4242 Y8.3948
G01 X11.4454 Y8.4180
G01 X11.4686 Y8.4392
G01 X11.4841 Y8.4514
G01 X11.5102 Y8.4689
G01 X11.5273 Y8.4788
G01 X11.5450 Y8.4876
G01 X11.5685 Y8.4974
G01 X11.5685 Y8.5256
G01 X11.1444 Y8.9497
G01 X8.1637 Y8.9497
G01 X8.1637 Y8.6948
G01 X8.2090 Y8.6947
G01 X8.2251 Y8.6927
G01 X8.2355 Y8.6901
G01 X8.2457 Y8.6864
G01 X8.2555 Y8.6818
G01 X8.2647 Y8.6763
G01 X8.2734 Y8.6698
G01 X8.2814 Y8.6626
G01 X8.2886 Y8.6546
G01 X8.2980 Y8.6414
G01 X8.3030 Y8.6318
G01 X8.3089 Y8.6167
G01 X8.3115 Y8.6063
G01 X8.3131 Y8.5956
G01 X8.3136 Y8.5848
G01 X8.3136 Y7.6848
G01 X8.3124 Y7.6687
G01 X8.3103 Y7.6581
G01 X8.3072 Y7.6477
G01 X8.3006 Y7.6329
G01 X8.2920 Y7.6193
G01 X8.2851 Y7.6109
G01 X8.2775 Y7.6033
G01 X8.2647 Y7.5933
G01 X8.2555 Y7.5878
G01 X8.2407 Y7.5812
G01 X8.2251 Y7.5769
G01 X8.2090 Y7.5749
G01 X7.4036 Y7.5748
G01 X7.3928 Y7.5753
G01 X7.3821 Y7.5769
G01 X7.3717 Y7.5795
G01 X7.3615 Y7.5832
G01 X7.3517 Y7.5878
G01 X7.3425 Y7.5933
G01 X7.3297 Y7.6033
G01 X7.3221 Y7.6109
G01 X7.3152 Y7.6193
G01 X7.3092 Y7.6282
G01 X7.3042 Y7.6378
G01 X7.3000 Y7.6477
G01 X7.2969 Y7.6581
G01 X7.2941 Y7.6740
G01 X7.2936 Y7.6848
G01 X7.2937 Y8.5902
G01 X7.2948 Y8.6009
G01 X7.2969 Y8.6115
G01 X7.3000 Y8.6219
G01 X7.3066 Y8.6367
G01 X7.3152 Y8.6503
G01 X7.3221 Y8.6587
G01 X7.3338 Y8.6698
G01 X7.3425 Y8.6763
G01 X7.3517 Y8.6818
G01 X7.3615 Y8.6864
G01 X7.3717 Y8.6901
G01 X7.3821 Y8.6927
G01 X7.3982 Y8.6947
G01 X7.4435 Y8.6948
G01 X7.4435 Y8.8406
G01 X7.3344 Y8.9497
G01 X6.2029 Y8.9497
G01 X6.2271 Y8.9385
G01 X6.2405 Y8.9303
G01 X6.2502 Y8.9234
G01 X6.2622 Y8.9134
G01 X6.2707 Y8.9051
G01 X6.2812 Y8.8935
G01 X6.2884 Y8.8840
G01 X6.2970 Y8.8710
G01 X6.3028 Y8.8606
G01 X6.3094 Y8.8464
G01 X6.3136 Y8.8353
G01 X6.3180 Y8.8202
G01 X6.3205 Y8.8086
G01 X6.3227 Y8.7931
G01 X6.3235 Y8.7813
G01 X6.3236 Y4.1298
G01 X6.3216 Y4.1024
G01 X6.3156 Y4.0755
G01 X6.3057 Y4.0498
G01 X6.2984 Y4.0360
G01 X6.2906 Y4.0237
G01 X6.2812 Y4.0111
G01 X6.2733 Y4.0022
G01 X6.2622 Y3.9912
G01 X6.2531 Y3.9835
G01 X6.2405 Y3.9743
G01 X6.2304 Y3.9680
G01 X6.2166 Y3.9607
G01 X6.2029 Y3.9549
G01 X6.3910 Y3.9549
G01 X6.4008 Y3.9784
G01 X6.4096 Y3.9961
G01 X6.4195 Y4.0132
G01 X6.4354 Y4.0371
G01 X6.4475 Y4.0527
G01 X6.4605 Y4.0676
G01 X6.4723 Y4.0799
G01 X6.4935 Y4.0991
G01 X6.4935 Y5.5748
G01 X6.4482 Y5.5749
G01 X6.4321 Y5.5769
G01 X6.4217 Y5.5795
G01 X6.4115 Y5.5832
G01 X6.4017 Y5.5878
G01 X6.3925 Y5.5933
G01 X6.3838 Y5.5998
G01 X6.3721 Y5.6109
G01 X6.3652 Y5.6193
G01 X6.3566 Y5.6329
G01 X6.3520 Y5.6427
G01 X6.3483 Y5.6529
G01 X6.3448 Y5.6687
G01 X6.3437 Y5.6794
G01 X6.3437 Y6.5902
G01 X6.3448 Y6.6009
G01 X6.3483 Y6.6167
G01 X6.3542 Y6.6318
G01 X6.3592 Y6.6414
G01 X6.3686 Y6.6546
G01 X6.3797 Y6.6663
G01 X6.3881 Y6.6732
G01 X6.4017 Y6.6818
G01 X6.4115 Y6.6864
G01 X6.4269 Y6.6915
G01 X6.4375 Y6.6936
G01 X6.4536 Y6.6948
G01 X7.2590 Y6.6947
G01 X7.2697 Y6.6936
G01 X7.2855 Y6.6901
G01 X7.3006 Y6.6842
G01 X7.3102 Y6.6792
G01 X7.3234 Y6.6698
G01 X7.3351 Y6.6587
G01 X7.3420 Y6.6503
G01 X7.3506 Y6.6367
G01 X7.3552 Y6.6269
G01 X7.3603 Y6.6115
G01 X7.3624 Y6.6009
G01 X7.3636 Y6.5848
G01 X7.3636 Y5.6848
G01 X7.3624 Y5.6687
G01 X7.3589 Y5.6529
G01 X7.3552 Y5.6427
G01 X7.3506 Y5.6329
G01 X7.3451 Y5.6237
G01 X7.3386 Y5.6150
G01 X7.3275 Y5.6033
G01 X7.3191 Y5.5964
G01 X7.3102 Y5.5904
G01 X7.3006 Y5.5854
G01 X7.2907 Y5.5812
G01 X7.2803 Y5.5781
G01 X7.2697 Y5.5760
G01 X7.2536 Y5.5748
G01 X7.2137 Y5.5748
G01 X7.2137 Y4.1798
G01 X7.3050 Y4.1795
G01 X7.3380 Y4.1766
G01 X7.3569 Y4.1735
G01 X7.3756 Y4.1694
G01 X7.4023 Y4.1615
G01 X7.4203 Y4.1549
G01 X7.4378 Y4.1473
G01 X7.4648 Y4.1332
G01 X7.4812 Y4.1232
G01 X7.5059 Y4.1055
G01 X7.5206 Y4.0932
G01 X7.5426 Y4.0721
G01 X7.5554 Y4.0579
G01 X7.5742 Y4.0339
G01 X7.5848 Y4.0180
G01 X7.5987 Y3.9938
G01 X7.6137 Y3.9615
G01 X7.6252 Y3.9277
G01 X7.6318 Y3.9006
G01 X7.6351 Y3.8818
G01 X7.6372 Y3.8627
G01 X7.6386 Y3.8336
G01 X7.6386 Y3.5800
G01 X7.6459 Y3.5978
G01 X7.6546 Y3.6140
G01 X7.6647 Y3.6292
G01 X7.6782 Y3.6454
G01 X7.6943 Y3.6606
G01 X7.7088 Y3.6718
G01 X7.7268 Y3.6828
G01 X7.7434 Y3.6906
G01 X7.7581 Y3.6960
G01 X7.7722 Y3.6999
G01 X7.7875 Y3.7028
G01 X7.8031 Y3.7044
G01 X7.9422 Y3.7048
G01 X7.9697 Y3.7028
G01 X7.9850 Y3.6999
G01 X7.9991 Y3.6960
G01 X8.0138 Y3.6906
G01 X8.0280 Y3.6840
G01 X8.0384 Y3.6782
G01 X8.0515 Y3.6696
G01 X8.0629 Y3.6606
G01 X8.0745 Y3.6501
G01 X8.0925 Y3.6292
G01 X8.1072 Y3.6060
G01 X8.1140 Y3.5919
G01 X8.1186 Y3.5800
G01 X8.1186 Y3.8323
G01 X8.1200 Y3.8637
G01 X8.1248 Y3.8974
G01 X8.1297 Y3.9193
G01 X8.1389 Y3.9494
G01 X8.1520 Y3.9809
G01 X8.1695 Y4.0132
G01 X8.1787 Y4.0276
G01 X8.1958 Y4.0506
G01 X8.2204 Y4.0780
G01 X8.2478 Y4.1026
G01 X8.2708 Y4.1197
G01 X8.2852 Y4.1289
G01 X8.3175 Y4.1464
G01 X8.3516 Y4.1604
G01 X8.3678 Y4.1656
G01 X8.3935 Y4.1721
G01 X8.3935 Y5.5748
G01 X8.3482 Y5.5749
G01 X8.3321 Y5.5769
G01 X8.3217 Y5.5795
G01 X8.3115 Y5.5832
G01 X8.3017 Y5.5878
G01 X8.2925 Y5.5933
G01 X8.2838 Y5.5998
G01 X8.2721 Y5.6109
G01 X8.2621 Y5.6237
G01 X8.2566 Y5.6329
G01 X8.2500 Y5.6477
G01 X8.2469 Y5.6581
G01 X8.2448 Y5.6687
G01 X8.2437 Y5.6794
G01 X8.2437 Y6.5902
G01 X8.2448 Y6.6009
G01 X8.2469 Y6.6115
G01 X8.2500 Y6.6219
G01 X8.2542 Y6.6318
G01 X8.2592 Y6.6414
G01 X8.2652 Y6.6503
G01 X8.2721 Y6.6587
G01 X8.2797 Y6.6663
G01 X8.2925 Y6.6763
G01 X8.3017 Y6.6818
G01 X8.3115 Y6.6864
G01 X8.3269 Y6.6915
G01 X8.3375 Y6.6936
G01 X8.3482 Y6.6947
G01 X9.1536 Y6.6948
G01 X9.1644 Y6.6943
G01 X9.1751 Y6.6927
G01 X9.1907 Y6.6884
G01 X9.2006 Y6.6842
G01 X9.2147 Y6.6763
G01 X9.2234 Y6.6698
G01 X9.2314 Y6.6626
G01 X9.2386 Y6.6546
G01 X9.2451 Y6.6459
G01 X9.2530 Y6.6318
G01 X9.2572 Y6.6219
G01 X9.2603 Y6.6115
G01 X9.2631 Y6.5956
G01 X9.2636 Y6.4949
G01 X11.3513 Y6.4949
G01 X11.3586 Y6.5232
G01 X11.3690 Y6.5528
G01 X11.3781 Y6.5733
G01 X11.3930 Y6.6010
G01 X11.4104 Y6.6271
G01 X11.4242 Y6.6448
G01 X11.4454 Y6.6680
G01 X11.4686 Y6.6892
G01 X11.4863 Y6.7030
G01 X11.5124 Y6.7204
G01 X11.5401 Y6.7353
G01 X11.5606 Y6.7444
G01 X11.5902 Y6.7548
G01 X11.6207 Y6.7626
G01 X11.6428 Y6.7664
G01 X11.6740 Y6.7694
G01 X12.1674 Y6.7698
G01 X12.2002 Y6.7681
G01 X12.2339 Y6.7631
G01 X12.2670 Y6.7548
G01 X12.2991 Y6.7433
G01 X12.3299 Y6.7288
G01 X12.3592 Y6.7112
G01 X12.3865 Y6.6909
G01 X12.4118 Y6.6680
G01 X12.4347 Y6.6427
G01 X12.4553 Y6.6149
G01 X12.4536 Y6.6406
G01 X12.4536 Y7.3790
G01 X12.4553 Y7.4047
G00 Z1.9990
G00 X12.2887 Y8.5363
G01 F100.00
G01 Z-0.0700
G01 F500.00
G01 X12.2887 Y8.4974
G01 X12.3186 Y8.4845
G01 X12.3096 Y8.4965
G01 X12.3018 Y8.5088
G01 X12.2945 Y8.5226
G01 X12.2887 Y8.5363
G00 Z1.9990
G00 X6.3836 Y5.5299
G01 F100.00
G01 Z-0.0700
G01 F500.00
G01 X6.3836 Y4.1277
G01 X6.3824 Y4.1056
G01 X6.3797 Y4.0857
G01 X6.3752 Y4.0657
G01 X6.3687 Y4.0453
G01 X6.3863 Y4.0717
G01 X6.4011 Y4.0908
G01 X6.4142 Y4.1060
G01 X6.4335 Y4.1258
G01 X6.4335 Y5.5160
G01 X6.4204 Y5.5181
G01 X6.4043 Y5.5221
G01 X6.3836 Y5.5299
G00 Z1.9990
G00 X3.4356 Y8.9019
G01 F100.00
G01 Z-0.0700
G01 F500.00
G01 X3.4521 Y8.9176
G01 X3.4690 Y8.9303
G01 X3.4871 Y8.9410
G01 X3.5066 Y8.9497
G01 X3.4533 Y8.9497
G01 X3.4356 Y8.9019
G00 Z1.9990
G00 X3.4356 Y9.7177
G01 F100.00
G01 Z-0.0700
G01 F500.00
G01 X3.4533 Y9.6699
G01 X3.5066 Y9.6699
G01 X3.4871 Y9.6786
G01 X3.4690 Y9.6893
G01 X3.4521 Y9.7020
G01 X3.4356 Y9.7177
G00 Z1.9990
G00 X1.3736 Y9.5134
G01 F100.00
G01 Z-0.0700
G01 F500.00
G01 X1.3648 Y9.4627
G01 X1.3587 Y9.4127
G01 X1.3549 Y9.3625
G01 X1.3536 Y9.3098
G01 X1.3548 Y9.2595
G01 X1.3587 Y9.2069
G01 X1.3650 Y9.1557
G01 X1.3738 Y9.1050
G01 X1.3848 Y9.0559
G01 X1.3988 Y9.0050
G01 X1.4150 Y8.9561
G01 X1.4335 Y8.9080
G01 X1.4544 Y8.8609
G01 X1.4776 Y8.8148
G01 X1.5030 Y8.7700
G01 X1.5306 Y8.7265
G01 X1.5602 Y8.6843
G01 X1.5919 Y8.6437
G01 X1.6256 Y8.6047
G01 X1.6611 Y8.5673
G01 X1.6994 Y8.5310
G01 X1.7375 Y8.4981
G01 X1.7791 Y8.4657
G01 X1.8203 Y8.4368
G01 X1.8627 Y8.4098
G01 X1.9076 Y8.3844
G01 X1.9547 Y8.3606
G01 X2.0018 Y8.3397
G01 X2.0499 Y8.3212
G01 X2.0988 Y8.3050
G01 X2.1485 Y8.2913
G01 X2.1988 Y8.2800
G01 X2.2495 Y8.2712
G01 X2.3019 Y8.2648
G01 X2.3521 Y8.2611
G01 X2.4036 Y8.2598
G01 X2.4551 Y8.2611
G01 X2.5053 Y8.2648
G01 X2.5589 Y8.2714
G01 X2.6084 Y8.2800
G01 X2.6587 Y8.2913
G01 X2.7084 Y8.3050
G01 X2.7573 Y8.3212
G01 X2.8054 Y8.3397
G01 X2.8514 Y8.3601
G01 X2.8996 Y8.3844
G01 X2.9434 Y8.4092
G01 X2.9869 Y8.4368
G01 X3.0291 Y8.4664
G01 X3.0688 Y8.4974
G01 X3.1096 Y8.5326
G01 X3.1461 Y8.5673
G01 X3.1816 Y8.6047
G01 X3.2153 Y8.6437
G01 X3.2470 Y8.6843
G01 X3.2766 Y8.7265
G01 X3.3042 Y8.7700
G01 X3.3296 Y8.8148
G01 X3.3523 Y8.8598
G01 X3.3737 Y8.9080
G01 X3.3918 Y8.9549
G01 X3.4097 Y9.0097
G01 X7.3593 Y9.0097
G01 X7.5035 Y8.8655
G01 X7.5035 Y8.6348
G01 X7.4036 Y8.6348
G01 X7.3963 Y8.6343
G01 X7.3891 Y8.6326
G01 X7.3822 Y8.6300
G01 X7.3758 Y8.6264
G01 X7.3700 Y8.6218
G01 X7.3649 Y8.6165
G01 X7.3607 Y8.6105
G01 X7.3574 Y8.6039
G01 X7.3551 Y8.5969
G01 X7.3538 Y8.5897
G01 X7.3537 Y7.6823
G01 X7.3551 Y7.6727
G01 X7.3584 Y7.6634
G01 X7.3634 Y7.6550
G01 X7.3682 Y7.6494
G01 X7.3758 Y7.6432
G01 X7.3845 Y7.6386
G01 X7.3938 Y7.6358
G01 X7.4011 Y7.6349
G01 X8.2061 Y7.6349
G01 X8.2181 Y7.6370
G01 X8.2250 Y7.6396
G01 X8.2314 Y7.6432
G01 X8.2406 Y7.6512
G01 X8.2477 Y7.6612
G01 X8.2521 Y7.6727
G01 X8.2536 Y7.6848
G01 X8.2534 Y8.5897
G01 X8.2521 Y8.5969
G01 X8.2498 Y8.6039
G01 X8.2465 Y8.6105
G01 X8.2423 Y8.6165
G01 X8.2372 Y8.6218
G01 X8.2314 Y8.6264
G01 X8.2250 Y8.6300
G01 X8.2181 Y8.6326
G01 X8.2109 Y8.6343
G01 X8.2036 Y8.6348
G01 X8.1037 Y8.6348
G01 X8.1037 Y8.9898
G01 X8.1030 Y9.0097
G01 X11.1693 Y9.0097
G01 X11.6285 Y8.5505
G01 X11.6285 Y8.4528
G01 X11.6076 Y8.4474
G01 X11.5822 Y8.4384
G01 X11.5671 Y8.4317
G01 X11.5444 Y8.4195
G01 X11.5304 Y8.4107
G01 X11.5087 Y8.3945
G01 X11.4887 Y8.3765
G01 X11.4781 Y8.3654
G01 X11.4609 Y8.3445
G01 X11.4521 Y8.3320
G01 X11.4381 Y8.3089
G01 X11.4312 Y8.2952
G01 X11.4208 Y8.2703
G01 X11.4160 Y8.2558
G01 X11.4094 Y8.2296
G01 X11.4065 Y8.2133
G01 X11.4040 Y8.1876
G01 X11.4036 Y8.1723
G01 X11.4036 Y7.5973
G01 X11.4050 Y7.5691
G01 X11.4089 Y7.5424
G01 X11.4122 Y7.5274
G01 X11.4200 Y7.5016
G01 X11.4260 Y7.4862
G01 X11.4375 Y7.4618
G01 X11.4514 Y7.4386
G01 X11.4609 Y7.4251
G01 X11.4773 Y7.4051
G01 X11.4971 Y7.3851
G01 X11.5097 Y7.3743
G01 X11.5314 Y7.3583
G01 X11.5556 Y7.3437
G01 X11.5811 Y7.3317
G01 X11.6065 Y7.3226
G01 X11.6224 Y7.3181
G01 X11.6501 Y7.3127
G01 X11.6758 Y7.3102
G01 X11.6911 Y7.3098
G01 X12.1661 Y7.3098
G01 X12.1931 Y7.3111
G01 X12.2083 Y7.3129
G01 X12.2348 Y7.3181
G01 X12.2496 Y7.3222
G01 X12.2750 Y7.3312
G01 X12.2901 Y7.3379
G01 X12.3128 Y7.3501
G01 X12.3268 Y7.3589
G01 X12.3485 Y7.3751
G01 X12.3685 Y7.3931
G01 X12.3799 Y7.4051
G01 X12.3970 Y7.4260
G01 X12.4121 Y7.4485
G01 X12.4197 Y7.4618
G01 X12.4265 Y7.4755
G01 X12.4368 Y7.5004
G01 X12.4447 Y7.5263
G01 X12.4483 Y7.5424
G01 X12.4522 Y7.5691
G01 X12.4536 Y7.5967
G01 X12.4536 Y8.1723
G01 X12.4522 Y8.2005
G01 X12.4481 Y8.2284
G01 X12.4416 Y8.2546
G01 X12.4368 Y8.2692
G01 X12.4265 Y8.2941
G01 X12.4197 Y8.3078
G01 X12.4121 Y8.3211
G01 X12.3970 Y8.3436
G01 X12.3876 Y8.3556
G01 X12.3694 Y8.3756
G01 X12.3494 Y8.3938
G01 X12.3374 Y8.4032
G01 X12.3149 Y8.4183
G01 X12.3016 Y8.4259
G01 X12.2879 Y8.4327
G01 X12.2630 Y8.4430
G01 X12.2484 Y8.4478
G01 X12.2287 Y8.4528
G01 X12.2287 Y8.6748
G01 X12.2273 Y8.7042
G01 X12.2230 Y8.7334
G01 X12.2158 Y8.7619
G01 X12.2059 Y8.7897
G01 X12.1933 Y8.8163
G01 X12.1854 Y8.8301
G01 X12.1697 Y8.8536
G01 X12.1598 Y8.8661
G01 X12.1413 Y8.8866
G01 X11.4961 Y9.5313
G01 X11.4830 Y9.5426
G01 X11.4603 Y9.5593
G01 X11.4468 Y9.5678
G01 X11.4230 Y9.5806
G01 X11.4073 Y9.5875
G01 X11.3819 Y9.5966
G01 X11.3509 Y9.6044
G01 X11.3230 Y9.6085
G01 X11.2936 Y9.6099
G01 X3.4097 Y9.6099
G01 X3.3918 Y9.6647
G01 X3.3737 Y9.7116
G01 X3.3528 Y9.7587
G01 X3.3296 Y9.8048
G01 X3.3048 Y9.8485
G01 X3.2759 Y9.8942
G01 X3.2470 Y9.9353
G01 X3.2153 Y9.9759
G01 X3.1816 Y10.0149
G01 X3.1469 Y10.0514
G01 X3.1078 Y10.0886
G01 X3.0697 Y10.1215
G01 X3.0291 Y10.1532
G01 X2.9869 Y10.1828
G01 X2.9445 Y10.2098
G01 X2.8975 Y10.2364
G01 X2.8525 Y10.2590
G01 X2.8054 Y10.2799
G01 X2.7573 Y10.2984
G01 X2.7096 Y10.3142
G01 X2.6575 Y10.3286
G01 X2.6084 Y10.3396
G01 X2.5577 Y10.3484
G01 X2.5053 Y10.3548
G01 X2.4551 Y10.3585
G01 X2.4036 Y10.3598
G01 X2.3521 Y10.3585
G01 X2.3007 Y10.3547
G01 X2.2495 Y10.3484
G01 X2.2000 Y10.3398
G01 X2.1473 Y10.3280
G01 X2.0988 Y10.3146
G01 X2.0499 Y10.2984
G01 X2.0018 Y10.2799
G01 X1.9558 Y10.2595
G01 X1.9076 Y10.2352
G01 X1.8638 Y10.2104
G01 X1.8203 Y10.1828
G01 X1.7781 Y10.1532
G01 X1.7375 Y10.1215
G01 X1.6985 Y10.0878
G01 X1.6620 Y10.0531
G01 X1.6248 Y10.0140
G01 X1.5919 Y9.9759
G01 X1.5602 Y9.9353
G01 X1.5306 Y9.8931
G01 X1.5030 Y9.8496
G01 X1.4776 Y9.8048
G01 X1.4544 Y9.7587
G01 X1.4335 Y9.7116
G01 X1.4154 Y9.6647
G01 X1.3988 Y9.6146
G01 X1.3854 Y9.5661
G01 X1.3736 Y9.5134
G00 Z1.9990
G00 X1.2456 Y9.4238
G01 F100.00
G01 Z-0.0700
G01 F500.00
G01 X1.2456 Y9.1958
G01 X1.2901 Y8.9720
G01 X1.3774 Y8.7613
G01 X1.5042 Y8.5716
G01 X1.6654 Y8.4104
G01 X1.8551 Y8.2836
G01 X2.0658 Y8.1963
G01 X2.2896 Y8.1518
G01 X2.5176 Y8.1518
G01 X2.7414 Y8.1963
G01 X2.9521 Y8.2836
G01 X3.1418 Y8.4104
G01 X3.3030 Y8.5716
G01 X3.4298 Y8.7613
G01 X3.4580 Y8.8291
G01 X3.4639 Y8.8401
G01 X3.4716 Y8.8515
G01 X3.4787 Y8.8601
G01 X3.4876 Y8.8689
G01 X3.4972 Y8.8768
G01 X3.5076 Y8.8838
G01 X3.5186 Y8.8896
G01 X3.5301 Y8.8944
G01 X3.5420 Y8.8980
G01 X3.5542 Y8.9005
G01 X3.5729 Y8.9018
G01 X6.1428 Y8.9017
G01 X6.1626 Y8.8991
G01 X6.1735 Y8.8964
G01 X6.1852 Y8.8922
G01 X6.1965 Y8.8868
G01 X6.2062 Y8.8811
G01 X6.2228 Y8.8681
G01 X6.2307 Y8.8601
G01 X6.2379 Y8.8515
G01 X6.2492 Y8.8336
G01 X6.2540 Y8.8234
G01 X6.2582 Y8.8117
G01 X6.2612 Y8.7996
G01 X6.2629 Y8.7885
G01 X6.2636 Y8.7748
G01 X6.2636 Y4.1298
G01 X6.2623 Y4.1112
G01 X6.2582 Y4.0929
G01 X6.2514 Y4.0755
G01 X6.2422 Y4.0592
G01 X6.2315 Y4.0454
G01 X6.2219 Y4.0357
G01 X6.2082 Y4.0249
G01 X6.1965 Y4.0178
G01 X6.1841 Y4.0120
G01 X6.1675 Y4.0066
G01 X6.1540 Y4.0040
G01 X6.1378 Y4.0028
G01 X3.5729 Y4.0028
G01 X3.5542 Y4.0041
G01 X3.5420 Y4.0066
G01 X3.5301 Y4.0102
G01 X3.5186 Y4.0150
G01 X3.5076 Y4.0208
G01 X3.4972 Y4.0278
G01 X3.4876 Y4.0357
G01 X3.4787 Y4.0445
G01 X3.4716 Y4.0531
G01 X3.4639 Y4.0645
G01 X3.4580 Y4.0755
G01 X3.4298 Y4.1433
G01 X3.3030 Y4.3330
G01 X3.1418 Y4.4942
G01 X2.9521 Y4.6210
G01 X2.7414 Y4.7083
G01 X2.5176 Y4.7528
G01 X2.2896 Y4.7528
G01 X2.0658 Y4.7083
G01 X1.8551 Y4.6210
G01 X1.6654 Y4.4942
G01 X1.5042 Y4.3330
G01 X1.3774 Y4.1433
G01 X1.2901 Y3.9326
G01 X1.2456 Y3.7088
G01 X1.2456 Y3.4808
G01 X1.2901 Y3.2570
G01 X1.3774 Y3.0463
G01 X1.5042 Y2.8566
G01 X1.6654 Y2.6954
G01 X1.8551 Y2.5686
G01 X2.0658 Y2.4813
G01 X2.2896 Y2.4368
G01 X2.5176 Y2.4368
G01 X2.7414 Y2.4813
G01 X2.9521 Y2.5686
G01 X3.1418 Y2.6954
G01 X3.3030 Y2.8566
G01 X3.4298 Y3.0463
G01 X3.4580 Y3.1141
G01 X3.4646 Y3.1262
G01 X3.4739 Y3.1394
G01 X3.4830 Y3.1496
G01 X3.4923 Y3.1580
G01 X3.5023 Y3.1654
G01 X3.5130 Y3.1718
G01 X3.5243 Y3.1772
G01 X3.5360 Y3.1814
G01 X3.5481 Y3.1844
G01 X3.5604 Y3.1862
G01 X3.5729 Y3.1868
G01 X6.2920 Y3.1867
G01 X6.3106 Y3.1844
G01 X6.3286 Y3.1794
G01 X6.3457 Y3.1718
G01 X6.3625 Y3.1611
G01 X6.3711 Y3.1539
G01 X6.3807 Y3.1442
G01 X6.4359 Y3.0771
G01 X6.4960 Y3.0279
G01 X6.5645 Y2.9912
G01 X6.6388 Y2.9687
G01 X6.7223 Y2.9605
G01 X7.2849 Y2.9605
G01 X7.3684 Y2.9687
G01 X7.4427 Y2.9912
G01 X7.5112 Y3.0279
G01 X7.5713 Y3.0771
G01 X7.6205 Y3.1372
G01 X7.6572 Y3.2057
G01 X7.6797 Y3.2800
G01 X7.6879 Y3.3635
G01 X7.6881 Y3.5240
G01 X7.6904 Y3.5426
G01 X7.6954 Y3.5606
G01 X7.7029 Y3.5777
G01 X7.7129 Y3.5935
G01 X7.7251 Y3.6076
G01 X7.7393 Y3.6198
G01 X7.7551 Y3.6298
G01 X7.7722 Y3.6374
G01 X7.7902 Y3.6424
G01 X7.8075 Y3.6446
G01 X7.9428 Y3.6448
G01 X7.9547 Y3.6442
G01 X7.9682 Y3.6421
G01 X7.9791 Y3.6394
G01 X7.9897 Y3.6356
G01 X8.0086 Y3.6261
G01 X8.0179 Y3.6198
G01 X8.0275 Y3.6119
G01 X8.0364 Y3.6031
G01 X8.0435 Y3.5945
G01 X8.0518 Y3.5821
G01 X8.0596 Y3.5664
G01 X8.0651 Y3.5499
G01 X8.0679 Y3.5364
G01 X8.0693 Y3.5184
G01 X8.0693 Y3.3635
G01 X8.0775 Y3.2800
G01 X8.1000 Y3.2057
G01 X8.1367 Y3.1372
G01 X8.1859 Y3.0771
G01 X8.2460 Y3.0279
G01 X8.3145 Y2.9912
G01 X8.3888 Y2.9687
G01 X8.4723 Y2.9605
G01 X9.0349 Y2.9605
G01 X9.1184 Y2.9687
G01 X9.1927 Y2.9912
G01 X9.2612 Y3.0279
G01 X9.3213 Y3.0771
G01 X9.3705 Y3.1372
G01 X9.4072 Y3.2057
G01 X9.4297 Y3.2800
G01 X9.4379 Y3.3635
G01 X9.4379 Y3.8261
G01 X9.4297 Y3.9096
G01 X9.4072 Y3.9839
G01 X9.3705 Y4.0524
G01 X9.3213 Y4.1125
G01 X9.2612 Y4.1617
G01 X9.2180 Y4.1855
G01 X9.2042 Y4.1962
G01 X9.1945 Y4.2059
G01 X9.1866 Y4.2155
G01 X9.1803 Y4.2248
G01 X9.1712 Y4.2426
G01 X9.1651 Y4.2615
G01 X9.1629 Y4.2725
G01 X9.1617 Y4.2849
G01 X9.1616 Y5.4338
G01 X9.1628 Y5.4512
G01 X9.1657 Y5.4659
G01 X9.1712 Y5.4824
G01 X9.1772 Y5.4948
G01 X9.1866 Y5.5095
G01 X9.1979 Y5.5228
G01 X9.2090 Y5.5328
G01 X9.2233 Y5.5428
G01 X9.2418 Y5.5528
G01 X9.2658 Y5.5726
G01 X9.2856 Y5.5966
G01 X9.3002 Y5.6241
G01 X9.3083 Y5.6484
G01 X9.3173 Y5.6662
G01 X9.3236 Y5.6755
G01 X9.3307 Y5.6842
G01 X9.3450 Y5.6980
G01 X9.3614 Y5.7094
G01 X9.3713 Y5.7146
G01 X9.3828 Y5.7194
G01 X9.4021 Y5.7246
G01 X9.4132 Y5.7262
G01 X9.4250 Y5.7268
G01 X11.2322 Y5.7268
G01 X11.2447 Y5.7262
G01 X11.2631 Y5.7230
G01 X11.2820 Y5.7167
G01 X11.2921 Y5.7118
G01 X11.3018 Y5.7061
G01 X11.3175 Y5.6939
G01 X11.3272 Y5.6842
G01 X11.3379 Y5.6704
G01 X11.3617 Y5.6272
G01 X11.4109 Y5.5671
G01 X11.4710 Y5.5179
G01 X11.5395 Y5.4812
G01 X11.6138 Y5.4587
G01 X11.6973 Y5.4505
G01 X12.1599 Y5.4505
G01 X12.2434 Y5.4587
G01 X12.3177 Y5.4812
G01 X12.3862 Y5.5179
G01 X12.4463 Y5.5671
G01 X12.4955 Y5.6272
G01 X12.5322 Y5.6957
G01 X12.5547 Y5.7700
G01 X12.5629 Y5.8535
G01 X12.5629 Y6.4161
G01 X12.5547 Y6.4996
G01 X12.5322 Y6.5739
G01 X12.5237 Y6.5908
G01 X12.5190 Y6.6037
G01 X12.5158 Y6.6170
G01 X12.5137 Y6.6343
G01 X12.5136 Y7.3797
G01 X12.5149 Y7.3977
G01 X12.5190 Y7.4159
G01 X12.5237 Y7.4288
G01 X12.5322 Y7.4457
G01 X12.5547 Y7.5200
G01 X12.5629 Y7.6035
G01 X12.5629 Y8.1661
G01 X12.5547 Y8.2496
G01 X12.5322 Y8.3239
G01 X12.4955 Y8.3924
G01 X12.4463 Y8.4525
G01 X12.3825 Y8.5048
G01 X12.3695 Y8.5173
G01 X12.3573 Y8.5330
G01 X12.3516 Y8.5427
G01 X12.3467 Y8.5529
G01 X12.3404 Y8.5717
G01 X12.3371 Y8.5914
G01 X12.3366 Y8.6491
G01 X12.3385 Y8.6748
G01 X12.3307 Y8.7548
G01 X12.3073 Y8.8317
G01 X12.2694 Y8.9025
G01 X12.2185 Y8.9647
G01 X12.1985 Y8.9819
G01 X11.6007 Y9.5797
G01 X11.5835 Y9.5997
G01 X11.5213 Y9.6506
G01 X11.4505 Y9.6885
G01 X11.3736 Y9.7119
G01 X11.2936 Y9.7197
G01 X11.2673 Y9.7178
G01 X7.5099 Y9.7178
G01 X7.4836 Y9.7197
G01 X7.4573 Y9.7178
G01 X3.5729 Y9.7178
G01 X3.5616 Y9.7183
G01 X3.5481 Y9.7202
G01 X3.5360 Y9.7232
G01 X3.5243 Y9.7274
G01 X3.5130 Y9.7328
G01 X3.5023 Y9.7392
G01 X3.4923 Y9.7466
G01 X3.4830 Y9.7550
G01 X3.4739 Y9.7652
G01 X3.4646 Y9.7784
G01 X3.4580 Y9.7905
G01 X3.4298 Y9.8583
G01 X3.3030 Y10.0480
G01 X3.1418 Y10.2092
G01 X2.9521 Y10.3360
G01 X2.7414 Y10.4233
G01 X2.5176 Y10.4678
G01 X2.2896 Y10.4678
G01 X2.0658 Y10.4233
G01 X1.8551 Y10.3360
G01 X1.6654 Y10.2092
G01 X1.5042 Y10.0480
G01 X1.3774 Y9.8583
G01 X1.2901 Y9.6476
G01 X1.2456 Y9.4238
G00 Z1.9990
G00 X0.6961 Y9.4488
G01 F100.00
G01 Z-0.0700
G01 F500.00
G01 X0.6822 Y9.3070
G01 X0.6816 Y9.2946
G01 X0.6816 Y2.9632
G01 X0.6823 Y2.9499
G01 X0.7169 Y2.6212
G01 X0.7213 Y2.6018
G01 X0.8132 Y2.3047
G01 X0.8175 Y2.2931
G01 X0.8228 Y2.2819
G01 X0.9708 Y2.0083
G01 X0.9772 Y1.9977
G01 X0.9846 Y1.9877
G01 X1.1829 Y1.7481
G01 X1.1912 Y1.7389
G01 X1.2005 Y1.7306
G01 X1.4415 Y1.5341
G01 X1.4515 Y1.5267
G01 X1.4621 Y1.5204
G01 X1.7367 Y1.3744
G01 X1.7479 Y1.3691
G01 X1.7596 Y1.3649
G01 X2.0574 Y1.2750
G01 X2.0694 Y1.2720
G01 X2.0817 Y1.2702
G01 X2.4175 Y1.2378
G01 X8.7454 Y1.2378
G01 X9.3042 Y1.2698
G01 X9.3166 Y1.2711
G01 X10.1632 Y1.4464
G01 X10.1793 Y1.4517
G01 X10.9762 Y1.7726
G01 X11.7043 Y2.2287
G01 X11.7136 Y2.2351
G01 X11.7223 Y2.2424
G01 X12.3574 Y2.8209
G01 X12.8808 Y3.5022
G01 X12.8873 Y3.5115
G01 X12.8929 Y3.5213
G01 X13.2865 Y4.2850
G01 X13.2903 Y4.2956
G01 X13.5424 Y5.1169
G01 X13.5443 Y5.1281
G01 X13.6470 Y5.9810
G01 X13.6468 Y5.9923
G01 X13.5969 Y6.8500
G01 X13.3968 Y7.6855
G01 X13.3937 Y7.6964
G01 X13.3896 Y7.7069
G01 X13.0488 Y8.4832
G01 X13.0438 Y8.4934
G01 X13.0379 Y8.5030
G01 X12.5584 Y9.2158
G01 X11.9608 Y9.8331
G01 X11.9526 Y9.8409
G01 X11.9437 Y9.8479
G01 X11.2458 Y10.3488
G01 X10.4644 Y10.7219
G01 X10.4494 Y10.7270
G01 X9.6217 Y10.9530
G01 X9.6094 Y10.9547
G01 X8.7443 Y11.0317
G01 X2.4070 Y11.0318
G01 X2.3937 Y11.0311
G01 X2.0650 Y10.9965
G01 X2.0456 Y10.9921
G01 X1.7485 Y10.9002
G01 X1.7369 Y10.8959
G01 X1.7257 Y10.8906
G01 X1.4521 Y10.7426
G01 X1.4415 Y10.7362
G01 X1.4315 Y10.7288
G01 X1.1919 Y10.5305
G01 X1.1785 Y10.5176
G01 X0.9779 Y10.2719
G01 X0.9705 Y10.2619
G01 X0.9642 Y10.2513
G01 X0.8149 Y9.9700
G01 X0.8087 Y9.9538
G01 X0.7169 Y9.6489
G01 X0.7140 Y9.6317
G01 X0.6961 Y9.4488
G00 Z1.9990
G00 X0.6363 Y9.4546
G01 F100.00
G01 Z-0.0700
G01 F500.00
G01 X0.6225 Y9.3129
G01 X0.6216 Y9.2946
G01 X0.6216 Y2.9632
G01 X0.6226 Y2.9436
G01 X0.6574 Y2.6134
G01 X0.6600 Y2.5991
G01 X0.6640 Y2.5841
G01 X0.7559 Y2.2870
G01 X0.7622 Y2.2698
G01 X0.7701 Y2.2533
G01 X0.9186 Y1.9786
G01 X0.9275 Y1.9641
G01 X0.9384 Y1.9495
G01 X1.1366 Y1.7099
G01 X1.1490 Y1.6964
G01 X1.1625 Y1.6841
G01 X1.4035 Y1.4876
G01 X1.4183 Y1.4767
G01 X1.4328 Y1.4680
G01 X1.7086 Y1.3214
G01 X1.7251 Y1.3136
G01 X1.7423 Y1.3075
G01 X2.0400 Y1.2176
G01 X2.0578 Y1.2132
G01 X2.0758 Y1.2105
G01 X2.4005 Y1.1787
G01 X2.4161 Y1.1778
G01 X8.7463 Y1.1778
G01 X9.3077 Y1.2099
G01 X9.3258 Y1.2119
G01 X10.1780 Y1.3883
G01 X10.2017 Y1.3960
G01 X10.9883 Y1.7123
G01 X11.0035 Y1.7191
G01 X11.0180 Y1.7274
G01 X11.7362 Y2.1779
G01 X11.7499 Y2.1874
G01 X11.7627 Y2.1980
G01 X12.3898 Y2.7686
G01 X12.4016 Y2.7803
G01 X12.4123 Y2.7931
G01 X12.9284 Y3.4657
G01 X12.9379 Y3.4794
G01 X12.9462 Y3.4938
G01 X13.3351 Y4.2472
G01 X13.3420 Y4.2623
G01 X13.3476 Y4.2780
G01 X13.5969 Y5.0883
G01 X13.6011 Y5.1044
G01 X13.6038 Y5.1208
G01 X13.7057 Y5.9625
G01 X13.7070 Y5.9791
G01 X13.7067 Y5.9958
G01 X13.6579 Y6.8422
G01 X13.6562 Y6.8588
G01 X13.6531 Y6.8751
G01 X13.4552 Y7.6995
G01 X13.4506 Y7.7155
G01 X13.4446 Y7.7310
G01 X13.1038 Y8.5073
G01 X13.0964 Y8.5223
G01 X13.0877 Y8.5365
G01 X12.6149 Y9.2402
G01 X12.6050 Y9.2536
G01 X12.5939 Y9.2660
G01 X12.0039 Y9.8749
G01 X11.9918 Y9.8863
G01 X11.9788 Y9.8966
G01 X11.2902 Y10.3914
G01 X11.2763 Y10.4005
G01 X11.2616 Y10.4083
G01 X10.4865 Y10.7776
G01 X10.4652 Y10.7849
G01 X9.6474 Y11.0086
G01 X9.6319 Y11.0122
G01 X9.6147 Y11.0145
G01 X8.7457 Y11.0917
G01 X2.4070 Y11.0918
G01 X2.3874 Y11.0908
G01 X2.0572 Y11.0560
G01 X2.0429 Y11.0534
G01 X2.0292 Y11.0498
G01 X1.7308 Y10.9575
G01 X1.7136 Y10.9512
G01 X1.6971 Y10.9433
G01 X1.4236 Y10.7954
G01 X1.4079 Y10.7859
G01 X1.3933 Y10.7750
G01 X1.1537 Y10.5768
G01 X1.1339 Y10.5578
G01 X0.9314 Y10.3099
G01 X0.9205 Y10.2951
G01 X0.9112 Y10.2794
G01 X0.7600 Y9.9942
G01 X0.7513 Y9.9711
G01 X0.6583 Y9.6619
G01 X0.6544 Y9.6389
G01 X0.6363 Y9.4546
G00 Z1.9990
G00 X0.5766 Y9.4605
G01 F100.00
G01 Z-0.0700
G01 F500.00
G01 X0.5625 Y9.3167
G01 X0.5616 Y9.2946
G01 X0.5616 Y2.9632
G01 X0.5629 Y2.9374
G01 X0.5979 Y2.6057
G01 X0.6015 Y2.5856
G01 X0.6066 Y2.5663
G01 X0.6986 Y2.2692
G01 X0.7069 Y2.2466
G01 X0.7173 Y2.2248
G01 X0.8662 Y1.9494
G01 X0.8777 Y1.9306
G01 X0.8922 Y1.9113
G01 X1.0904 Y1.6716
G01 X1.1067 Y1.6538
G01 X1.1246 Y1.6376
G01 X1.3656 Y1.4411
G01 X1.3851 Y1.4268
G01 X1.4040 Y1.4154
G01 X1.6804 Y1.2684
G01 X1.7022 Y1.2581
G01 X1.7250 Y1.2500
G01 X2.0227 Y1.1601
G01 X2.0461 Y1.1543
G01 X2.0700 Y1.1508
G01 X2.3947 Y1.1189
G01 X2.4146 Y1.1178
G01 X8.7471 Y1.1178
G01 X9.3111 Y1.1500
G01 X9.3351 Y1.1526
G01 X10.1927 Y1.3301
G01 X10.2069 Y1.3342
G01 X10.2241 Y1.3404
G01 X11.0107 Y1.6566
G01 X11.0307 Y1.6657
G01 X11.0499 Y1.6765
G01 X11.7681 Y2.1271
G01 X11.7862 Y2.1396
G01 X11.8031 Y2.1536
G01 X12.4301 Y2.7242
G01 X12.4457 Y2.7397
G01 X12.4599 Y2.7565
G01 X12.9760 Y3.4292
G01 X12.9886 Y3.4472
G01 X12.9995 Y3.4663
G01 X13.3884 Y4.2197
G01 X13.3976 Y4.2396
G01 X13.4050 Y4.2603
G01 X13.6543 Y5.0707
G01 X13.6598 Y5.0920
G01 X13.6634 Y5.1136
G01 X13.7653 Y5.9553
G01 X13.7669 Y5.9773
G01 X13.7666 Y5.9992
G01 X13.7178 Y6.8457
G01 X13.7156 Y6.8675
G01 X13.7114 Y6.8891
G01 X13.5135 Y7.7135
G01 X13.5074 Y7.7346
G01 X13.4995 Y7.7551
G01 X13.1587 Y8.5315
G01 X13.1490 Y8.5512
G01 X13.1375 Y8.5700
G01 X12.6647 Y9.2737
G01 X12.6516 Y9.2914
G01 X12.6370 Y9.3078
G01 X12.0470 Y9.9167
G01 X12.0310 Y9.9317
G01 X12.0138 Y9.9453
G01 X11.3253 Y10.4401
G01 X11.3068 Y10.4521
G01 X11.2875 Y10.4625
G01 X10.5087 Y10.8334
G01 X10.4810 Y10.8428
G01 X9.6633 Y11.0665
G01 X9.6425 Y11.0712
G01 X9.6200 Y11.0743
G01 X8.7470 Y11.1517
G01 X2.4070 Y11.1518
G01 X2.3812 Y11.1505
G01 X2.0495 Y11.1155
G01 X2.0335 Y11.1128
G01 X2.0121 Y11.1074
G01 X1.7130 Y11.0148
G01 X1.6904 Y11.0065
G01 X1.6686 Y10.9961
G01 X1.3950 Y10.8482
G01 X1.3744 Y10.8357
G01 X1.3551 Y10.8212
G01 X1.1154 Y10.6230
G01 X1.1006 Y10.6096
G01 X1.0893 Y10.5979
G01 X0.8849 Y10.3478
G01 X0.8706 Y10.3283
G01 X0.8582 Y10.3076
G01 X0.7122 Y10.0330
G01 X0.7051 Y10.0184
G01 X0.6990 Y10.0038
G01 X0.6938 Y9.9884
G01 X0.6039 Y9.6907
G01 X0.5998 Y9.6750
G01 X0.5948 Y9.6455
G01 X0.5766 Y9.4605
G00 Z1.9990
G00 X0.5169 Y9.4663
G01 F100.00
G01 Z-0.0700
G01 F500.00
G01 X0.5028 Y9.3218
G01 X0.5016 Y9.2946
G01 X0.5016 Y2.9632
G01 X0.5032 Y2.9311
G01 X0.5384 Y2.5980
G01 X0.5419 Y2.5776
G01 X0.5485 Y2.5513
G01 X0.6413 Y2.2515
G01 X0.6515 Y2.2233
G01 X0.6645 Y2.1963
G01 X0.8138 Y1.9202
G01 X0.8280 Y1.8970
G01 X0.8459 Y1.8730
G01 X1.0442 Y1.6334
G01 X1.0644 Y1.6112
G01 X1.0867 Y1.5912
G01 X1.3299 Y1.3928
G01 X1.3519 Y1.3768
G01 X1.3751 Y1.3628
G01 X1.6522 Y1.2154
G01 X1.6793 Y1.2027
G01 X1.7076 Y1.1926
G01 X2.0053 Y1.1027
G01 X2.0345 Y1.0954
G01 X2.0641 Y1.0911
G01 X2.3888 Y1.0592
G01 X2.4131 Y1.0578
G01 X8.7480 Y1.0578
G01 X9.3146 Y1.0901
G01 X9.3444 Y1.0933
G01 X10.2075 Y1.2720
G01 X10.2256 Y1.2772
G01 X10.2464 Y1.2847
G01 X11.0331 Y1.6009
G01 X11.0580 Y1.6122
G01 X11.0817 Y1.6257
G01 X11.8000 Y2.0762
G01 X11.8224 Y2.0918
G01 X11.8434 Y2.1092
G01 X12.4705 Y2.6798
G01 X12.4899 Y2.6991
G01 X12.5075 Y2.7200
G01 X13.0236 Y3.3927
G01 X13.0393 Y3.4151
G01 X13.0528 Y3.4387
G01 X13.4417 Y4.1921
G01 X13.4531 Y4.2169
G01 X13.4623 Y4.2427
G01 X13.7116 Y5.0530
G01 X13.7185 Y5.0795
G01 X13.7230 Y5.1064
G01 X13.8248 Y5.9481
G01 X13.8269 Y5.9754
G01 X13.8265 Y6.0027
G01 X13.7777 Y6.8491
G01 X13.7750 Y6.8763
G01 X13.7698 Y6.9031
G01 X13.5718 Y7.7275
G01 X13.5643 Y7.7538
G01 X13.5544 Y7.7793
G01 X13.2136 Y8.5556
G01 X13.2016 Y8.5801
G01 X13.1874 Y8.6034
G01 X12.7145 Y9.3071
G01 X12.6982 Y9.3291
G01 X12.6801 Y9.3496
G01 X12.0901 Y9.9584
G01 X12.0702 Y9.9772
G01 X12.0488 Y9.9941
G01 X11.3603 Y10.4888
G01 X11.3374 Y10.5038
G01 X11.3133 Y10.5166
G01 X10.5480 Y10.8816
G01 X10.5308 Y10.8892
G01 X10.5148 Y10.8951
G01 X10.4969 Y10.9006
G01 X9.6791 Y11.1244
G01 X9.6531 Y11.1303
G01 X9.6254 Y11.1340
G01 X8.7534 Y11.2115
G01 X2.4070 Y11.2118
G01 X2.3749 Y11.2102
G01 X2.0418 Y11.1750
G01 X2.0214 Y11.1715
G01 X1.9951 Y11.1649
G01 X1.6953 Y11.0721
G01 X1.6671 Y11.0618
G01 X1.6401 Y11.0489
G01 X1.3665 Y10.9010
G01 X1.3408 Y10.8854
G01 X1.3168 Y10.8675
G01 X1.0772 Y10.6692
G01 X1.0590 Y10.6529
G01 X1.0447 Y10.6381
G01 X0.8384 Y10.3857
G01 X0.8206 Y10.3615
G01 X0.8052 Y10.3358
G01 X0.6592 Y10.0612
G01 X0.6502 Y10.0427
G01 X0.6430 Y10.0253
G01 X0.6364 Y10.0058
G01 X0.5465 Y9.7081
G01 X0.5412 Y9.6881
G01 X0.5376 Y9.6697
G01 X0.5352 Y9.6521
G01 X0.5169 Y9.4663
G00 Z1.9990
G00 X0.4572 Y9.4722
G01 F100.00
G01 Z-0.0700
G01 F500.00
G01 X0.4430 Y9.3269
G01 X0.4416 Y9.2946
G01 X0.4416 Y2.9632
G01 X0.4421 Y2.9440
G01 X0.4436 Y2.9248
G01 X0.4799 Y2.5832
G01 X0.4854 Y2.5550
G01 X0.4920 Y2.5308
G01 X0.5840 Y2.2338
G01 X0.5962 Y2.2001
G01 X0.6117 Y2.1677
G01 X0.7614 Y1.8910
G01 X0.7782 Y1.8635
G01 X0.7997 Y1.8348
G01 X0.9979 Y1.5951
G01 X1.0221 Y1.5687
G01 X1.0488 Y1.5447
G01 X1.2926 Y1.3459
G01 X1.3186 Y1.3268
G01 X1.3463 Y1.3101
G01 X1.6240 Y1.1624
G01 X1.6565 Y1.1472
G01 X1.6903 Y1.1351
G01 X1.9880 Y1.0453
G01 X2.0228 Y1.0366
G01 X2.0583 Y1.0313
G01 X2.3829 Y0.9995
G01 X2.4117 Y0.9978
G01 X8.7488 Y0.9978
G01 X9.3180 Y1.0302
G01 X9.3537 Y1.0340
G01 X10.2223 Y1.2138
G01 X10.2442 Y1.2201
G01 X10.2688 Y1.2290
G01 X11.0555 Y1.5452
G01 X11.0852 Y1.5588
G01 X11.1136 Y1.5749
G01 X11.8318 Y2.0254
G01 X11.8587 Y2.0440
G01 X11.8838 Y2.0649
G01 X12.5109 Y2.6355
G01 X12.5341 Y2.6585
G01 X12.5551 Y2.6835
G01 X13.0712 Y3.3561
G01 X13.0899 Y3.3829
G01 X13.1062 Y3.4112
G01 X13.4950 Y4.1646
G01 X13.5087 Y4.1943
G01 X13.5197 Y4.2250
G01 X13.7690 Y5.0354
G01 X13.7772 Y5.0670
G01 X13.7825 Y5.0992
G01 X13.8844 Y5.9409
G01 X13.8869 Y5.9735
G01 X13.8864 Y6.0061
G01 X13.8376 Y6.8526
G01 X13.8343 Y6.8850
G01 X13.8281 Y6.9171
G01 X13.6302 Y7.7415
G01 X13.6212 Y7.7729
G01 X13.6094 Y7.8034
G01 X13.2673 Y8.5826
G01 X13.2541 Y8.6090
G01 X13.2372 Y8.6369
G01 X12.7643 Y9.3406
G01 X12.7449 Y9.3669
G01 X12.7232 Y9.3913
G01 X12.1332 Y10.0002
G01 X12.1095 Y10.0226
G01 X12.0838 Y10.0428
G01 X11.3953 Y10.5375
G01 X11.3679 Y10.5554
G01 X11.3391 Y10.5708
G01 X10.5739 Y10.9358
G01 X10.5530 Y10.9449
G01 X10.5345 Y10.9518
G01 X10.5127 Y10.9585
G01 X9.6949 Y11.1822
G01 X9.6638 Y11.1893
G01 X9.6307 Y11.1938
G01 X8.7561 Y11.2715
G01 X2.4070 Y11.2718
G01 X2.3878 Y11.2713
G01 X2.3686 Y11.2698
G01 X2.0270 Y11.2335
G01 X2.0025 Y11.2288
G01 X1.9780 Y11.2224
G01 X1.6776 Y11.1294
G01 X1.6504 Y11.1198
G01 X1.6339 Y11.1128
G01 X1.6147 Y11.1033
G01 X1.3379 Y10.9537
G01 X1.3073 Y10.9352
G01 X1.2813 Y10.9159
G01 X1.0362 Y10.7132
G01 X1.0175 Y10.6962
G01 X1.0001 Y10.6782
G01 X0.7919 Y10.4236
G01 X0.7706 Y10.3947
G01 X0.7523 Y10.3640
G01 X0.6062 Y10.0894
G01 X0.5953 Y10.0669
G01 X0.5870 Y10.0468
G01 X0.5790 Y10.0231
G01 X0.4891 Y9.7254
G01 X0.4827 Y9.7012
G01 X0.4785 Y9.6799
G01 X0.4755 Y9.6587
G01 X0.4572 Y9.4722
G00 Z1.9990
M05
G00 Z1.9990
G00 Z12.70
G00 X0.0 Y0.0

M02